data/manual_verify/canoncgt_candidates2/candidate_c.cube
TITLE "LocalColorService CanonCGT fitted transform"
LUT_3D_SIZE 9
DOMAIN_MIN 0.0 0.0 0.0
DOMAIN_MAX 1.0 1.0 1.0
0.00006214 0.00006461 0.00000332
0.00006214 0.20904231 0.04941430
0.00006214 0.37137327 0.11733220
0.00006214 0.46962822 0.16127400
0.00006214 0.50380814 0.18123971
0.00006214 0.50380985 0.18248587
0.00006840 0.50380985 0.18248587
0.38739773 0.50380985 0.18248587
0.99989656 0.50380985 0.18248587
0.06427848 0.00006461 0.00000332
0.06427848 0.20904231 0.04941430
0.06427848 0.37137327 0.11733220
0.06427848 0.46962822 0.16127400
0.06427848 0.50380814 0.18123971
0.06427848 0.50380985 0.18248587
0.06429279 0.50380985 0.18248587
0.46192321 0.50380985 0.18248587
0.99994535 0.50380985 0.18248587
0.13522227 0.00006461 0.00000332
0.13522227 0.20904231 0.04941430
0.13522227 0.37137327 0.11733220
0.13522227 0.46962822 0.16127400
0.13522227 0.50380814 0.18123971
0.13522227 0.50380985 0.18248587
0.13522691 0.50380985 0.18248587
0.51668626 0.50380985 0.18248587
0.99998087 0.50380985 0.18248587
0.18476724 0.00006461 0.00000332
0.18476724 0.20904231 0.04941430
0.18476724 0.37137327 0.11733220
0.18476724 0.46962822 0.16127400
0.18476724 0.50380814 0.18123971
0.18476724 0.50380985 0.18248587
0.18476726 0.50380985 0.18248587
0.55005048 0.50380985 0.18248587
0.99999998 0.50380985 0.18248587
0.21291339 0.00006461 0.00000332
0.21291339 0.20904231 0.04941430
0.21291339 0.37137327 0.11733220
0.21291339 0.46962822 0.16127400
0.21291339 0.50380814 0.18123971
0.21291339 0.50380985 0.18248587
0.21291340 0.50380985 0.18248587
0.56201611 0.50380985 0.18248587
0.99999998 0.50380985 0.18248587
0.21998092 0.00006461 0.00000332
0.21998092 0.20904231 0.04941430
0.21998092 0.37137327 0.11733220
0.21998092 0.46962822 0.16127400
0.21998092 0.50380814 0.18123971
0.21998092 0.50380985 0.18248587
0.21998093 0.50380985 0.18248587
0.56201677 0.50380985 0.18248587
0.99999998 0.50380985 0.18248587
0.21998092 0.00011367 0.00000332
0.21998092 0.20910036 0.04941430
0.21998092 0.37143191 0.11733220
0.21998092 0.46968744 0.16127400
0.21998092 0.50386796 0.18123971
0.21998092 0.50386966 0.18248587
0.21998093 0.50386966 0.18248587
0.56201677 0.50386966 0.18248587
0.99999998 0.50386966 0.18248587
0.21998092 0.39587465 0.02294566
0.21998092 0.61837558 0.10256848
0.21998092 0.78168826 0.15998129
0.21998092 0.88092258 0.19341800
0.21998092 0.91606049 0.20288411
0.21998092 0.91606235 0.20288503
0.21998093 0.91606235 0.20288503
0.56201677 0.91606235 0.20288503
0.99999998 0.91606235 0.20288503
0.21998092 0.91963052 0.16036324
0.21998092 0.99999997 0.23854065
0.21998092 1.00000000 0.29447634
0.21998092 1.00000000 0.32643593
0.21998092 1.00000000 0.33467231
0.21998092 1.00000000 0.33467231
0.21998093 1.00000000 0.33467231
0.56201677 1.00000000 0.33467231
0.99999998 1.00000000 0.33467231
0.42898519 0.23138368 0.14364664
0.42898519 0.45298743 0.23195768
0.42898519 0.61538623 0.29821565
0.42898519 0.71370903 0.34049753
0.42898519 0.74795678 0.35880330
0.42898519 0.74795850 0.35963449
0.42900410 0.74795850 0.35963449
0.83432368 0.74795850 0.35963449
1.00000000 0.74795850 0.35963449
0.51833765 0.23138368 0.14364664
0.51833765 0.45298743 0.23195768
0.51833765 0.61538623 0.29821565
0.51833765 0.71370903 0.34049753
0.51833765 0.74795678 0.35880330
0.51833765 0.74795850 0.35963449
0.51834830 0.74795850 0.35963449
0.90982159 0.74795850 0.35963449
1.00000000 0.74795850 0.35963449
0.58820370 0.23138368 0.14364664
0.58820370 0.45298743 0.23195768
0.58820370 0.61538623 0.29821565
0.58820370 0.71370903 0.34049753
0.58820370 0.74795678 0.35880330
0.58820370 0.74795850 0.35963449
0.58820594 0.74795850 0.35963449
0.96553908 0.74795850 0.35963449
1.00000000 0.74795850 0.35963449
0.63667093 0.23138368 0.14364664
0.63667093 0.45298743 0.23195768
0.63667093 0.61538623 0.29821565
0.63667093 0.71370903 0.34049753
0.63667093 0.74795678 0.35880330
0.63667093 0.74795850 0.35963449
0.63667094 0.74795850 0.35963449
0.99983789 0.74795850 0.35963449
1.00000000 0.74795850 0.35963449
0.66373933 0.23138368 0.14364664
0.66373933 0.45298743 0.23195768
0.66373933 0.61538623 0.29821565
0.66373933 0.71370903 0.34049753
0.66373933 0.74795678 0.35880330
0.66373933 0.74795850 0.35963449
0.66373934 0.74795850 0.35963449
0.99985983 0.74795850 0.35963449
1.00000000 0.74795850 0.35963449
0.66999855 0.23138368 0.14364664
0.66999855 0.45298743 0.23195768
0.66999855 0.61538623 0.29821565
0.66999855 0.71370903 0.34049753
0.66999855 0.74795678 0.35880330
0.66999855 0.74795850 0.35963449
0.66999856 0.74795850 0.35963449
0.99985985 0.74795850 0.35963449
1.00000000 0.74795850 0.35963449
0.66999855 0.23144105 0.14364664
0.66999855 0.45304563 0.23195768
0.66999855 0.61544528 0.29821565
0.66999855 0.71376892 0.34049753
0.66999855 0.74801752 0.35880330
0.66999855 0.74801923 0.35963449
0.66999856 0.74801923 0.35963449
0.99985985 0.74801923 0.35963449
1.00000000 0.74801923 0.35963449
0.66999855 0.63958366 0.19149921
0.66999855 0.86257316 0.27231347
0.66999855 0.99991514 0.33093510
0.66999855 0.99999997 0.36558297
0.66999855 0.99999999 0.37625806
0.66999855 0.99999999 0.37625890
0.66999856 0.99999999 0.37625890
0.99985985 0.99999999 0.37625890
1.00000000 0.99999999 0.37625890
0.66999855 0.99999998 0.32672593
0.66999855 1.00000000 0.40648606
0.66999855 1.00000000 0.46403394
0.66999855 1.00000000 0.49760572
0.66999855 1.00000000 0.50720231
0.66999855 1.00000000 0.50720241
0.66999856 1.00000000 0.50720241
0.99985985 1.00000000 0.50720241
1.00000000 1.00000000 0.50720241
0.76022279 0.40864286 0.31072754
0.76022279 0.63031446 0.39737866
0.76022279 0.79278237 0.46194580
0.76022279 0.89117427 0.50253684
0.76022279 0.92549112 0.51915179
0.76022279 0.92549284 0.51956027
0.76023671 0.92549284 0.51956027
0.99999997 0.92549284 0.51956027
1.00000000 0.92549284 0.51956027
0.84849751 0.40864286 0.31072754
0.84849751 0.63031446 0.39737866
0.84849751 0.79278237 0.46194580
0.84849751 0.89117427 0.50253684
0.84849751 0.92549112 0.51915179
0.84849751 0.92549284 0.51956027
0.84850443 0.92549284 0.51956027
1.00000000 0.92549284 0.51956027
1.00000000 0.92549284 0.51956027
0.91726575 0.40864286 0.31072754
0.91726575 0.63031446 0.39737866
0.91726575 0.79278237 0.46194580
0.91726575 0.89117427 0.50253684
0.91726575 0.92549112 0.51915179
0.91726575 0.92549284 0.51956027
0.91726576 0.92549284 0.51956027
1.00000000 0.92549284 0.51956027
1.00000000 0.92549284 0.51956027
0.96461794 0.40864286 0.31072754
0.96461794 0.63031446 0.39737866
0.96461794 0.79278237 0.46194580
0.96461794 0.89117427 0.50253684
0.96461794 0.92549112 0.51915179
0.96461794 0.92549284 0.51956027
0.96461794 0.92549284 0.51956027
1.00000000 0.92549284 0.51956027
1.00000000 0.92549284 0.51956027
0.99057131 0.40864286 0.31072754
0.99057131 0.63031446 0.39737866
0.99057131 0.79278237 0.46194580
0.99057131 0.89117427 0.50253684
0.99057131 0.92549112 0.51915179
0.99057131 0.92549284 0.51956027
0.99057131 0.92549284 0.51956027
1.00000000 0.92549284 0.51956027
1.00000000 0.92549284 0.51956027
0.99600367 0.40864286 0.31072754
0.99600367 0.63031446 0.39737866
0.99600367 0.79278237 0.46194580
0.99600367 0.89117427 0.50253684
0.99600367 0.92549112 0.51915179
0.99600367 0.92549284 0.51956027
0.99600367 0.92549284 0.51956027
1.00000000 0.92549284 0.51956027
1.00000000 0.92549284 0.51956027
0.99600367 0.40870013 0.31072754
0.99600367 0.63037281 0.39737866
0.99600367 0.79284183 0.46194580
0.99600367 0.89123482 0.50253684
0.99600367 0.92554104 0.51915179
0.99600367 0.92554276 0.51956027
0.99600367 0.92554276 0.51956027
1.00000000 0.92554276 0.51956027
1.00000000 0.92554276 0.51956027
0.99600367 0.81667018 0.34267473
0.99600367 0.99994246 0.42469871
0.99600367 1.00000000 0.48455470
0.99600367 1.00000000 0.52043460
0.99600367 1.00000000 0.53233891
0.99600367 1.00000000 0.53233967
0.99600367 1.00000000 0.53233967
1.00000000 1.00000000 0.53233967
1.00000000 1.00000000 0.53233967
0.99600367 1.00000000 0.47566498
0.99600367 1.00000000 0.55703731
0.99600367 1.00000000 0.61622740
0.99600367 1.00000000 0.65144138
0.99600367 1.00000000 0.66267990
0.99600367 1.00000000 0.66268028
0.99600367 1.00000000 0.66268028
1.00000000 1.00000000 0.66268028
1.00000000 1.00000000 0.66268028
0.95754990 0.51390480 0.45739611
0.95754990 0.73564424 0.54238730
0.95754990 0.89818125 0.60526362
0.95754990 0.99662684 0.64416383
0.95754990 1.00000000 0.65908796
0.95754990 1.00000000 0.65908902
0.95755883 1.00000000 0.65908902
1.00000000 1.00000000 0.65908902
1.00000000 1.00000000 0.65908902
0.99999999 0.51390480 0.45739611
0.99999999 0.73564424 0.54238730
0.99999999 0.89818125 0.60526362
0.99999999 0.99662684 0.64416383
0.99999999 1.00000000 0.65908796
0.99999999 1.00000000 0.65908902
0.99999999 1.00000000 0.65908902
1.00000000 1.00000000 0.65908902
1.00000000 1.00000000 0.65908902
1.00000000 0.51390480 0.45739611
1.00000000 0.73564424 0.54238730
1.00000000 0.89818125 0.60526362
1.00000000 0.99662684 0.64416383
1.00000000 1.00000000 0.65908796
1.00000000 1.00000000 0.65908902
1.00000000 1.00000000 0.65908902
1.00000000 1.00000000 0.65908902
1.00000000 1.00000000 0.65908902
1.00000000 0.51390480 0.45739611
1.00000000 0.73564424 0.54238730
1.00000000 0.89818125 0.60526362
1.00000000 0.99662684 0.64416383
1.00000000 1.00000000 0.65908796
1.00000000 1.00000000 0.65908902
1.00000000 1.00000000 0.65908902
1.00000000 1.00000000 0.65908902
1.00000000 1.00000000 0.65908902
1.00000000 0.51390480 0.45739611
1.00000000 0.73564424 0.54238730
1.00000000 0.89818125 0.60526362
1.00000000 0.99662684 0.64416383
1.00000000 1.00000000 0.65908796
1.00000000 1.00000000 0.65908902
1.00000000 1.00000000 0.65908902
1.00000000 1.00000000 0.65908902
1.00000000 1.00000000 0.65908902
1.00000000 0.51390480 0.45739611
1.00000000 0.73564424 0.54238730
1.00000000 0.89818125 0.60526362
1.00000000 0.99662684 0.64416383
1.00000000 1.00000000 0.65908796
1.00000000 1.00000000 0.65908902
1.00000000 1.00000000 0.65908902
1.00000000 1.00000000 0.65908902
1.00000000 1.00000000 0.65908902
1.00000000 0.51396197 0.45739611
1.00000000 0.73570275 0.54238730
1.00000000 0.89824111 0.60526362
1.00000000 0.99662910 0.64416383
1.00000000 1.00000000 0.65908796
1.00000000 1.00000000 0.65908902
1.00000000 1.00000000 0.65908902
1.00000000 1.00000000 0.65908902
1.00000000 1.00000000 0.65908902
1.00000000 0.92172984 0.47344610
1.00000000 0.99999998 0.55667914
1.00000000 1.00000000 0.61776456
1.00000000 1.00000000 0.65487389
1.00000000 1.00000000 0.66800743
1.00000000 1.00000000 0.66800812
1.00000000 1.00000000 0.66800812
1.00000000 1.00000000 0.66800812
1.00000000 1.00000000 0.66800812
1.00000000 1.00000000 0.60419171
1.00000000 1.00000000 0.68717623
1.00000000 1.00000000 0.74800852
1.00000000 1.00000000 0.78486471
1.00000000 1.00000000 0.79774516
1.00000000 1.00000000 0.79774581
1.00000000 1.00000000 0.79774581
1.00000000 1.00000000 0.79774581
1.00000000 1.00000000 0.79774581
1.00000000 0.54717146 0.58365236
1.00000000 0.76897873 0.66698362
1.00000000 0.93158484 0.72816910
1.00000000 1.00000000 0.76537849
1.00000000 1.00000000 0.77861207
1.00000000 1.00000000 0.77861278
1.00000000 1.00000000 0.77861278
1.00000000 1.00000000 0.77861278
1.00000000 1.00000000 0.77861278
1.00000000 0.54717146 0.58365236
1.00000000 0.76897873 0.66698362
1.00000000 0.93158484 0.72816910
1.00000000 1.00000000 0.76537849
1.00000000 1.00000000 0.77861207
1.00000000 1.00000000 0.77861278
1.00000000 1.00000000 0.77861278
1.00000000 1.00000000 0.77861278
1.00000000 1.00000000 0.77861278
1.00000000 0.54717146 0.58365236
1.00000000 0.76897873 0.66698362
1.00000000 0.93158484 0.72816910
1.00000000 1.00000000 0.76537849
1.00000000 1.00000000 0.77861207
1.00000000 1.00000000 0.77861278
1.00000000 1.00000000 0.77861278
1.00000000 1.00000000 0.77861278
1.00000000 1.00000000 0.77861278
1.00000000 0.54717146 0.58365236
1.00000000 0.76897873 0.66698362
1.00000000 0.93158484 0.72816910
1.00000000 1.00000000 0.76537849
1.00000000 1.00000000 0.77861207
1.00000000 1.00000000 0.77861278
1.00000000 1.00000000 0.77861278
1.00000000 1.00000000 0.77861278
1.00000000 1.00000000 0.77861278
1.00000000 0.54717146 0.58365236
1.00000000 0.76897873 0.66698362
1.00000000 0.93158484 0.72816910
1.00000000 1.00000000 0.76537849
1.00000000 1.00000000 0.77861207
1.00000000 1.00000000 0.77861278
1.00000000 1.00000000 0.77861278
1.00000000 1.00000000 0.77861278
1.00000000 1.00000000 0.77861278
1.00000000 0.54717146 0.58365236
1.00000000 0.76897873 0.66698362
1.00000000 0.93158484 0.72816910
1.00000000 1.00000000 0.76537849
1.00000000 1.00000000 0.77861207
1.00000000 1.00000000 0.77861278
1.00000000 1.00000000 0.77861278
1.00000000 1.00000000 0.77861278
1.00000000 1.00000000 0.77861278
1.00000000 0.54722852 0.58365236
1.00000000 0.76903739 0.66698362
1.00000000 0.93163068 0.72816910
1.00000000 1.00000000 0.76537849
1.00000000 1.00000000 0.77861207
1.00000000 1.00000000 0.77861278
1.00000000 1.00000000 0.77861278
1.00000000 1.00000000 0.77861278
1.00000000 1.00000000 0.77861278
1.00000000 0.95479280 0.58380981
1.00000000 1.00000000 0.66824859
1.00000000 1.00000000 0.73056220
1.00000000 1.00000000 0.76890085
1.00000000 1.00000000 0.78326362
1.00000000 1.00000000 0.78326452
1.00000000 1.00000000 0.78326452
1.00000000 1.00000000 0.78326452
1.00000000 1.00000000 0.78326452
1.00000000 1.00000000 0.71230611
1.00000000 1.00000000 0.79690283
1.00000000 1.00000000 0.85937732
1.00000000 1.00000000 0.89787571
1.00000000 1.00000000 0.91239808
1.00000000 1.00000000 0.91239901
1.00000000 1.00000000 0.91239901
1.00000000 1.00000000 0.91239901
1.00000000 1.00000000 0.91239901
1.00000000 0.54717251 0.68949627
1.00000000 0.76897979 0.77116761
1.00000000 0.93158591 0.83066226
1.00000000 1.00000000 0.86618082
1.00000000 1.00000000 0.87772386
1.00000000 1.00000000 0.87772429
1.00000000 1.00000000 0.87772429
1.00000000 1.00000000 0.87772429
1.00000000 1.00000000 0.87772429
1.00000000 0.54717251 0.68949627
1.00000000 0.76897979 0.77116761
1.00000000 0.93158591 0.83066226
1.00000000 1.00000000 0.86618082
1.00000000 1.00000000 0.87772386
1.00000000 1.00000000 0.87772429
1.00000000 1.00000000 0.87772429
1.00000000 1.00000000 0.87772429
1.00000000 1.00000000 0.87772429
1.00000000 0.54717251 0.68949627
1.00000000 0.76897979 0.77116761
1.00000000 0.93158591 0.83066226
1.00000000 1.00000000 0.86618082
1.00000000 1.00000000 0.87772386
1.00000000 1.00000000 0.87772429
1.00000000 1.00000000 0.87772429
1.00000000 1.00000000 0.87772429
1.00000000 1.00000000 0.87772429
1.00000000 0.54717251 0.68949627
1.00000000 0.76897979 0.77116761
1.00000000 0.93158591 0.83066226
1.00000000 1.00000000 0.86618082
1.00000000 1.00000000 0.87772386
1.00000000 1.00000000 0.87772429
1.00000000 1.00000000 0.87772429
1.00000000 1.00000000 0.87772429
1.00000000 1.00000000 0.87772429
1.00000000 0.54717251 0.68949627
1.00000000 0.76897979 0.77116761
1.00000000 0.93158591 0.83066226
1.00000000 1.00000000 0.86618082
1.00000000 1.00000000 0.87772386
1.00000000 1.00000000 0.87772429
1.00000000 1.00000000 0.87772429
1.00000000 1.00000000 0.87772429
1.00000000 1.00000000 0.87772429
1.00000000 0.54717251 0.68949627
1.00000000 0.76897979 0.77116761
1.00000000 0.93158591 0.83066226
1.00000000 1.00000000 0.86618082
1.00000000 1.00000000 0.87772386
1.00000000 1.00000000 0.87772429
1.00000000 1.00000000 0.87772429
1.00000000 1.00000000 0.87772429
1.00000000 1.00000000 0.87772429
1.00000000 0.54722957 0.68949627
1.00000000 0.76903845 0.77116761
1.00000000 0.93163175 0.83066226
1.00000000 1.00000000 0.86618082
1.00000000 1.00000000 0.87772386
1.00000000 1.00000000 0.87772429
1.00000000 1.00000000 0.87772429
1.00000000 1.00000000 0.87772429
1.00000000 1.00000000 0.87772429
1.00000000 0.95479382 0.68950525
1.00000000 1.00000000 0.77117935
1.00000000 1.00000000 0.83067682
1.00000000 1.00000000 0.86619819
1.00000000 1.00000000 0.87810849
1.00000000 1.00000000 0.87826124
1.00000000 1.00000000 0.87826124
1.00000000 1.00000000 0.87826124
1.00000000 1.00000000 0.87826124
1.00000000 1.00000000 0.80000818
1.00000000 1.00000000 0.88621709
1.00000000 1.00000000 0.95033378
1.00000000 1.00000000 0.99046738
1.00000000 1.00000000 0.99997219
1.00000000 1.00000000 0.99997250
1.00000000 1.00000000 0.99997250
1.00000000 1.00000000 0.99997250
1.00000000 1.00000000 0.99997250
1.00000000 0.54717251 0.77492786
1.00000000 0.76897979 0.85493926
1.00000000 0.93158591 0.91274309
1.00000000 1.00000000 0.94657082
1.00000000 1.00000000 0.95642331
1.00000000 1.00000000 0.95642346
1.00000000 1.00000000 0.95642346
1.00000000 1.00000000 0.95642346
1.00000000 1.00000000 0.95642346
1.00000000 0.54717251 0.77492786
1.00000000 0.76897979 0.85493926
1.00000000 0.93158591 0.91274309
1.00000000 1.00000000 0.94657082
1.00000000 1.00000000 0.95642331
1.00000000 1.00000000 0.95642346
1.00000000 1.00000000 0.95642346
1.00000000 1.00000000 0.95642346
1.00000000 1.00000000 0.95642346
1.00000000 0.54717251 0.77492786
1.00000000 0.76897979 0.85493926
1.00000000 0.93158591 0.91274309
1.00000000 1.00000000 0.94657082
1.00000000 1.00000000 0.95642331
1.00000000 1.00000000 0.95642346
1.00000000 1.00000000 0.95642346
1.00000000 1.00000000 0.95642346
1.00000000 1.00000000 0.95642346
1.00000000 0.54717251 0.77492786
1.00000000 0.76897979 0.85493926
1.00000000 0.93158591 0.91274309
1.00000000 1.00000000 0.94657082
1.00000000 1.00000000 0.95642331
1.00000000 1.00000000 0.95642346
1.00000000 1.00000000 0.95642346
1.00000000 1.00000000 0.95642346
1.00000000 1.00000000 0.95642346
1.00000000 0.54717251 0.77492786
1.00000000 0.76897979 0.85493926
1.00000000 0.93158591 0.91274309
1.00000000 1.00000000 0.94657082
1.00000000 1.00000000 0.95642331
1.00000000 1.00000000 0.95642346
1.00000000 1.00000000 0.95642346
1.00000000 1.00000000 0.95642346
1.00000000 1.00000000 0.95642346
1.00000000 0.54717251 0.77492786
1.00000000 0.76897979 0.85493926
1.00000000 0.93158591 0.91274309
1.00000000 1.00000000 0.94657082
1.00000000 1.00000000 0.95642331
1.00000000 1.00000000 0.95642346
1.00000000 1.00000000 0.95642346
1.00000000 1.00000000 0.95642346
1.00000000 1.00000000 0.95642346
1.00000000 0.54722957 0.77492786
1.00000000 0.76903845 0.85493926
1.00000000 0.93163175 0.91274309
1.00000000 1.00000000 0.94657082
1.00000000 1.00000000 0.95642331
1.00000000 1.00000000 0.95642346
1.00000000 1.00000000 0.95642346
1.00000000 1.00000000 0.95642346
1.00000000 1.00000000 0.95642346
1.00000000 0.95479382 0.77492786
1.00000000 1.00000000 0.85494196
1.00000000 1.00000000 0.91275063
1.00000000 1.00000000 0.94658320
1.00000000 1.00000000 0.95644053
1.00000000 1.00000000 0.95644103
1.00000000 1.00000000 0.95644103
1.00000000 1.00000000 0.95644103
1.00000000 1.00000000 0.95644103
1.00000000 1.00000000 0.86729793
1.00000000 1.00000000 0.95511902
1.00000000 1.00000000 0.99999217
1.00000000 1.00000000 1.00000000
1.00000000 1.00000000 1.00000000
1.00000000 1.00000000 1.00000000
1.00000000 1.00000000 1.00000000
1.00000000 1.00000000 1.00000000
1.00000000 1.00000000 1.00000000
1.00000000 0.54717251 0.83994711
1.00000000 0.76897979 0.91829859
1.00000000 0.93158591 0.97441159
1.00000000 1.00000000 0.99999562
1.00000000 1.00000000 1.00000000
1.00000000 1.00000000 1.00000000
1.00000000 1.00000000 1.00000000
1.00000000 1.00000000 1.00000000
1.00000000 1.00000000 1.00000000
1.00000000 0.54717251 0.83994711
1.00000000 0.76897979 0.91829859
1.00000000 0.93158591 0.97441159
1.00000000 1.00000000 0.99999562
1.00000000 1.00000000 1.00000000
1.00000000 1.00000000 1.00000000
1.00000000 1.00000000 1.00000000
1.00000000 1.00000000 1.00000000
1.00000000 1.00000000 1.00000000
1.00000000 0.54717251 0.83994711
1.00000000 0.76897979 0.91829859
1.00000000 0.93158591 0.97441159
1.00000000 1.00000000 0.99999562
1.00000000 1.00000000 1.00000000
1.00000000 1.00000000 1.00000000
1.00000000 1.00000000 1.00000000
1.00000000 1.00000000 1.00000000
1.00000000 1.00000000 1.00000000
1.00000000 0.54717251 0.83994711
1.00000000 0.76897979 0.91829859
1.00000000 0.93158591 0.97441159
1.00000000 1.00000000 0.99999562
1.00000000 1.00000000 1.00000000
1.00000000 1.00000000 1.00000000
1.00000000 1.00000000 1.00000000
1.00000000 1.00000000 1.00000000
1.00000000 1.00000000 1.00000000
1.00000000 0.54717251 0.83994711
1.00000000 0.76897979 0.91829859
1.00000000 0.93158591 0.97441159
1.00000000 1.00000000 0.99999562
1.00000000 1.00000000 1.00000000
1.00000000 1.00000000 1.00000000
1.00000000 1.00000000 1.00000000
1.00000000 1.00000000 1.00000000
1.00000000 1.00000000 1.00000000
1.00000000 0.54717251 0.83994711
1.00000000 0.76897979 0.91829859
1.00000000 0.93158591 0.97441159
1.00000000 1.00000000 0.99999562
1.00000000 1.00000000 1.00000000
1.00000000 1.00000000 1.00000000
1.00000000 1.00000000 1.00000000
1.00000000 1.00000000 1.00000000
1.00000000 1.00000000 1.00000000
1.00000000 0.54722957 0.83994711
1.00000000 0.76903845 0.91829859
1.00000000 0.93163175 0.97441159
1.00000000 1.00000000 0.99999562
1.00000000 1.00000000 1.00000000
1.00000000 1.00000000 1.00000000
1.00000000 1.00000000 1.00000000
1.00000000 1.00000000 1.00000000
1.00000000 1.00000000 1.00000000
1.00000000 0.95479382 0.83994711
1.00000000 1.00000000 0.91829860
1.00000000 1.00000000 0.97441211
1.00000000 1.00000000 0.99999562
1.00000000 1.00000000 1.00000000
1.00000000 1.00000000 1.00000000
1.00000000 1.00000000 1.00000000
1.00000000 1.00000000 1.00000000
1.00000000 1.00000000 1.00000000
1.00000000 1.00000000 0.91417534
1.00000000 1.00000000 0.99996529
1.00000000 1.00000000 1.00000000
1.00000000 1.00000000 1.00000000
1.00000000 1.00000000 1.00000000
1.00000000 1.00000000 1.00000000
1.00000000 1.00000000 1.00000000
1.00000000 1.00000000 1.00000000
1.00000000 1.00000000 1.00000000
1.00000000 0.54717251 0.88431156
1.00000000 0.76897979 0.96103345
1.00000000 0.93158591 1.00000000
1.00000000 1.00000000 1.00000000
1.00000000 1.00000000 1.00000000
1.00000000 1.00000000 1.00000000
1.00000000 1.00000000 1.00000000
1.00000000 1.00000000 1.00000000
1.00000000 1.00000000 1.00000000
1.00000000 0.54717251 0.88431156
1.00000000 0.76897979 0.96103345
1.00000000 0.93158591 1.00000000
1.00000000 1.00000000 1.00000000
1.00000000 1.00000000 1.00000000
1.00000000 1.00000000 1.00000000
1.00000000 1.00000000 1.00000000
1.00000000 1.00000000 1.00000000
1.00000000 1.00000000 1.00000000
1.00000000 0.54717251 0.88431156
1.00000000 0.76897979 0.96103345
1.00000000 0.93158591 1.00000000
1.00000000 1.00000000 1.00000000
1.00000000 1.00000000 1.00000000
1.00000000 1.00000000 1.00000000
1.00000000 1.00000000 1.00000000
1.00000000 1.00000000 1.00000000
1.00000000 1.00000000 1.00000000
1.00000000 0.54717251 0.88431156
1.00000000 0.76897979 0.96103345
1.00000000 0.93158591 1.00000000
1.00000000 1.00000000 1.00000000
1.00000000 1.00000000 1.00000000
1.00000000 1.00000000 1.00000000
1.00000000 1.00000000 1.00000000
1.00000000 1.00000000 1.00000000
1.00000000 1.00000000 1.00000000
1.00000000 0.54717251 0.88431156
1.00000000 0.76897979 0.96103345
1.00000000 0.93158591 1.00000000
1.00000000 1.00000000 1.00000000
1.00000000 1.00000000 1.00000000
1.00000000 1.00000000 1.00000000
1.00000000 1.00000000 1.00000000
1.00000000 1.00000000 1.00000000
1.00000000 1.00000000 1.00000000
1.00000000 0.54717251 0.88431156
1.00000000 0.76897979 0.96103345
1.00000000 0.93158591 1.00000000
1.00000000 1.00000000 1.00000000
1.00000000 1.00000000 1.00000000
1.00000000 1.00000000 1.00000000
1.00000000 1.00000000 1.00000000
1.00000000 1.00000000 1.00000000
1.00000000 1.00000000 1.00000000
1.00000000 0.54722957 0.88431156
1.00000000 0.76903845 0.96103345
1.00000000 0.93163175 1.00000000
1.00000000 1.00000000 1.00000000
1.00000000 1.00000000 1.00000000
1.00000000 1.00000000 1.00000000
1.00000000 1.00000000 1.00000000
1.00000000 1.00000000 1.00000000
1.00000000 1.00000000 1.00000000
1.00000000 0.95479382 0.88431156
1.00000000 1.00000000 0.96103345
1.00000000 1.00000000 1.00000000
1.00000000 1.00000000 1.00000000
1.00000000 1.00000000 1.00000000
1.00000000 1.00000000 1.00000000
1.00000000 1.00000000 1.00000000
1.00000000 1.00000000 1.00000000
1.00000000 1.00000000 1.00000000
1.00000000 1.00000000 0.94072950
1.00000000 1.00000000 0.99999998
1.00000000 1.00000000 1.00000000
1.00000000 1.00000000 1.00000000
1.00000000 1.00000000 1.00000000
1.00000000 1.00000000 1.00000000
1.00000000 1.00000000 1.00000000
1.00000000 1.00000000 1.00000000
1.00000000 1.00000000 1.00000000
