data/manual_verify/canoncgt_candidates2/candidate_c.cube
TITLE "LocalColorService CanonCGT fitted transform"
LUT_3D_SIZE 33
DOMAIN_MIN 0.0 0.0 0.0
DOMAIN_MAX 1.0 1.0 1.0
0.00006214 0.00006461 0.00000332
0.00006214 0.04525879 0.00002317
0.00006214 0.10384833 0.00647590
0.00006214 0.15844769 0.02868857
0.00006214 0.20904231 0.04941430
0.00006214 0.25563217 0.06864154
0.00006214 0.29821729 0.08637027
0.00006214 0.33679765 0.10260049
0.00006214 0.37137327 0.11733220
0.00006214 0.40194413 0.13056541
0.00006214 0.42851024 0.14230011
0.00006214 0.45107161 0.15253631
0.00006214 0.46962822 0.16127400
0.00006214 0.48418008 0.16851319
0.00006214 0.49472719 0.17425387
0.00006214 0.50126955 0.17849604
0.00006214 0.50380814 0.18123971
0.00006214 0.50380985 0.18248504
0.00006214 0.50380985 0.18248587
0.00006214 0.50380985 0.18248587
0.00006214 0.50380985 0.18248587
0.00006214 0.50380985 0.18248587
0.00006214 0.50380985 0.18248587
0.00006214 0.50380985 0.18248587
0.00006840 0.50380985 0.18248587
0.00945997 0.50380985 0.18248587
0.12647169 0.50380985 0.18248587
0.25247301 0.50380985 0.18248587
0.38739773 0.50380985 0.18248587
0.53124583 0.50380985 0.18248587
0.68401730 0.50380985 0.18248587
0.84569353 0.50380985 0.18248587
0.99989656 0.50380985 0.18248587
0.00009149 0.00006461 0.00000332
0.00009149 0.04525879 0.00002317
0.00009149 0.10384833 0.00647590
0.00009149 0.15844769 0.02868857
0.00009149 0.20904231 0.04941430
0.00009149 0.25563217 0.06864154
0.00009149 0.29821729 0.08637027
0.00009149 0.33679765 0.10260049
0.00009149 0.37137327 0.11733220
0.00009149 0.40194413 0.13056541
0.00009149 0.42851024 0.14230011
0.00009149 0.45107161 0.15253631
0.00009149 0.46962822 0.16127400
0.00009149 0.48418008 0.16851319
0.00009149 0.49472719 0.17425387
0.00009149 0.50126955 0.17849604
0.00009149 0.50380814 0.18123971
0.00009149 0.50380985 0.18248504
0.00009149 0.50380985 0.18248587
0.00009149 0.50380985 0.18248587
0.00009149 0.50380985 0.18248587
0.00009149 0.50380985 0.18248587
0.00009149 0.50380985 0.18248587
0.00009149 0.50380985 0.18248587
0.00011101 0.50380985 0.18248587
0.02926172 0.50380985 0.18248587
0.14615251 0.50380985 0.18248587
0.27201957 0.50380985 0.18248587
0.40681001 0.50380985 0.18248587
0.55052384 0.50380985 0.18248587
0.70316104 0.50380985 0.18248587
0.86469036 0.50380985 0.18248587
0.99990930 0.50380985 0.18248587
0.02078406 0.00006461 0.00000332
0.02078406 0.04525879 0.00002317
0.02078406 0.10384833 0.00647590
0.02078406 0.15844769 0.02868857
0.02078406 0.20904231 0.04941430
0.02078406 0.25563217 0.06864154
0.02078406 0.29821729 0.08637027
0.02078406 0.33679765 0.10260049
0.02078406 0.37137327 0.11733220
0.02078406 0.40194413 0.13056541
0.02078406 0.42851024 0.14230011
0.02078406 0.45107161 0.15253631
0.02078406 0.46962822 0.16127400
0.02078406 0.48418008 0.16851319
0.02078406 0.49472719 0.17425387
0.02078406 0.50126955 0.17849604
0.02078406 0.50380814 0.18123971
0.02078406 0.50380985 0.18248504
0.02078406 0.50380985 0.18248587
0.02078406 0.50380985 0.18248587
0.02078406 0.50380985 0.18248587
0.02078406 0.50380985 0.18248587
0.02078406 0.50380985 0.18248587
0.02078407 0.50380985 0.18248587
0.02080322 0.50380985 0.18248587
0.04940360 0.50380985 0.18248587
0.16614929 0.50380985 0.18248587
0.29187151 0.50380985 0.18248587
0.42651712 0.50380985 0.18248587
0.57008612 0.50380985 0.18248587
0.72257848 0.50380985 0.18248587
0.88394961 0.50380985 0.18248587
0.99992222 0.50380985 0.18248587
0.04319896 0.00006461 0.00000332
0.04319896 0.04525879 0.00002317
0.04319896 0.10384833 0.00647590
0.04319896 0.15844769 0.02868857
0.04319896 0.20904231 0.04941430
0.04319896 0.25563217 0.06864154
0.04319896 0.29821729 0.08637027
0.04319896 0.33679765 0.10260049
0.04319896 0.37137327 0.11733220
0.04319896 0.40194413 0.13056541
0.04319896 0.42851024 0.14230011
0.04319896 0.45107161 0.15253631
0.04319896 0.46962822 0.16127400
0.04319896 0.48418008 0.16851319
0.04319896 0.49472719 0.17425387
0.04319896 0.50126955 0.17849604
0.04319896 0.50380814 0.18123971
0.04319896 0.50380985 0.18248504
0.04319896 0.50380985 0.18248587
0.04319896 0.50380985 0.18248587
0.04319896 0.50380985 0.18248587
0.04319896 0.50380985 0.18248587
0.04319896 0.50380985 0.18248587
0.04319896 0.50380985 0.18248587
0.04321569 0.50380985 0.18248587
0.06821221 0.50380985 0.18248587
0.18481074 0.50380985 0.18248587
0.31038811 0.50380985 0.18248587
0.44488888 0.50380985 0.18248587
0.58831303 0.50380985 0.18248587
0.74066054 0.50380985 0.18248587
0.90186286 0.50380985 0.18248587
0.99993423 0.50380985 0.18248587
0.06427848 0.00006461 0.00000332
0.06427848 0.04525879 0.00002317
0.06427848 0.10384833 0.00647590
0.06427848 0.15844769 0.02868857
0.06427848 0.20904231 0.04941430
0.06427848 0.25563217 0.06864154
0.06427848 0.29821729 0.08637027
0.06427848 0.33679765 0.10260049
0.06427848 0.37137327 0.11733220
0.06427848 0.40194413 0.13056541
0.06427848 0.42851024 0.14230011
0.06427848 0.45107161 0.15253631
0.06427848 0.46962822 0.16127400
0.06427848 0.48418008 0.16851319
0.06427848 0.49472719 0.17425387
0.06427848 0.50126955 0.17849604
0.06427848 0.50380814 0.18123971
0.06427848 0.50380985 0.18248504
0.06427848 0.50380985 0.18248587
0.06427848 0.50380985 0.18248587
0.06427848 0.50380985 0.18248587
0.06427848 0.50380985 0.18248587
0.06427848 0.50380985 0.18248587
0.06427848 0.50380985 0.18248587
0.06429279 0.50380985 0.18248587
0.08568340 0.50380985 0.18248587
0.20213476 0.50380985 0.18248587
0.32756729 0.50380985 0.18248587
0.46192321 0.50380985 0.18248587
0.60520251 0.50380985 0.18248587
0.75740516 0.50380985 0.18248587
0.91844047 0.50380985 0.18248587
0.99994535 0.50380985 0.18248587
0.08402056 0.00006461 0.00000332
0.08402056 0.04525879 0.00002317
0.08402056 0.10384833 0.00647590
0.08402056 0.15844769 0.02868857
0.08402056 0.20904231 0.04941430
0.08402056 0.25563217 0.06864154
0.08402056 0.29821729 0.08637027
0.08402056 0.33679765 0.10260049
0.08402056 0.37137327 0.11733220
0.08402056 0.40194413 0.13056541
0.08402056 0.42851024 0.14230011
0.08402056 0.45107161 0.15253631
0.08402056 0.46962822 0.16127400
0.08402056 0.48418008 0.16851319
0.08402056 0.49472719 0.17425387
0.08402056 0.50126955 0.17849604
0.08402056 0.50380814 0.18123971
0.08402056 0.50380985 0.18248504
0.08402056 0.50380985 0.18248587
0.08402056 0.50380985 0.18248587
0.08402056 0.50380985 0.18248587
0.08402056 0.50380985 0.18248587
0.08402056 0.50380985 0.18248587
0.08402057 0.50380985 0.18248587
0.08403246 0.50380985 0.18248587
0.10181716 0.50380985 0.18248587
0.21812135 0.50380985 0.18248587
0.34340903 0.50380985 0.18248587
0.47762011 0.50380985 0.18248587
0.62075457 0.50380985 0.18248587
0.77281237 0.50380985 0.18248587
0.93368245 0.50380985 0.18248587
0.99995558 0.50380985 0.18248587
0.10242523 0.00006461 0.00000332
0.10242523 0.04525879 0.00002317
0.10242523 0.10384833 0.00647590
0.10242523 0.15844769 0.02868857
0.10242523 0.20904231 0.04941430
0.10242523 0.25563217 0.06864154
0.10242523 0.29821729 0.08637027
0.10242523 0.33679765 0.10260049
0.10242523 0.37137327 0.11733220
0.10242523 0.40194413 0.13056541
0.10242523 0.42851024 0.14230011
0.10242523 0.45107161 0.15253631
0.10242523 0.46962822 0.16127400
0.10242523 0.48418008 0.16851319
0.10242523 0.49472719 0.17425387
0.10242523 0.50126955 0.17849604
0.10242523 0.50380814 0.18123971
0.10242523 0.50380985 0.18248504
0.10242523 0.50380985 0.18248587
0.10242523 0.50380985 0.18248587
0.10242523 0.50380985 0.18248587
0.10242523 0.50380985 0.18248587
0.10242523 0.50380985 0.18248587
0.10242523 0.50380985 0.18248587
0.10243470 0.50380985 0.18248587
0.11661350 0.50380985 0.18248587
0.23277052 0.50380985 0.18248587
0.35791335 0.50380985 0.18248587
0.49197958 0.50380985 0.18248587
0.63496920 0.50380985 0.18248587
0.78688214 0.50380985 0.18248587
0.94758879 0.50380985 0.18248587
0.99996490 0.50380985 0.18248587
0.11949246 0.00006461 0.00000332
0.11949246 0.04525879 0.00002317
0.11949246 0.10384833 0.00647590
0.11949246 0.15844769 0.02868857
0.11949246 0.20904231 0.04941430
0.11949246 0.25563217 0.06864154
0.11949246 0.29821729 0.08637027
0.11949246 0.33679765 0.10260049
0.11949246 0.37137327 0.11733220
0.11949246 0.40194413 0.13056541
0.11949246 0.42851024 0.14230011
0.11949246 0.45107161 0.15253631
0.11949246 0.46962822 0.16127400
0.11949246 0.48418008 0.16851319
0.11949246 0.49472719 0.17425387
0.11949246 0.50126955 0.17849604
0.11949246 0.50380814 0.18123971
0.11949246 0.50380985 0.18248504
0.11949246 0.50380985 0.18248587
0.11949246 0.50380985 0.18248587
0.11949246 0.50380985 0.18248587
0.11949246 0.50380985 0.18248587
0.11949246 0.50380985 0.18248587
0.11949246 0.50380985 0.18248587
0.11949952 0.50380985 0.18248587
0.13007241 0.50380985 0.18248587
0.24608226 0.50380985 0.18248587
0.37108025 0.50380985 0.18248587
0.50500163 0.50380985 0.18248587
0.64784640 0.50380985 0.18248587
0.79961449 0.50380985 0.18248587
0.96015949 0.50380985 0.18248587
0.99997333 0.50380985 0.18248587
0.13522227 0.00006461 0.00000332
0.13522227 0.04525879 0.00002317
0.13522227 0.10384833 0.00647590
0.13522227 0.15844769 0.02868857
0.13522227 0.20904231 0.04941430
0.13522227 0.25563217 0.06864154
0.13522227 0.29821729 0.08637027
0.13522227 0.33679765 0.10260049
0.13522227 0.37137327 0.11733220
0.13522227 0.40194413 0.13056541
0.13522227 0.42851024 0.14230011
0.13522227 0.45107161 0.15253631
0.13522227 0.46962822 0.16127400
0.13522227 0.48418008 0.16851319
0.13522227 0.49472719 0.17425387
0.13522227 0.50126955 0.17849604
0.13522227 0.50380814 0.18123971
0.13522227 0.50380985 0.18248504
0.13522227 0.50380985 0.18248587
0.13522227 0.50380985 0.18248587
0.13522227 0.50380985 0.18248587
0.13522227 0.50380985 0.18248587
0.13522227 0.50380985 0.18248587
0.13522227 0.50380985 0.18248587
0.13522691 0.50380985 0.18248587
0.14219389 0.50380985 0.18248587
0.25805658 0.50380985 0.18248587
0.38290972 0.50380985 0.18248587
0.51668626 0.50380985 0.18248587
0.65938618 0.50380985 0.18248587
0.81100941 0.50380985 0.18248587
0.97139456 0.50380985 0.18248587
0.99998087 0.50380985 0.18248587
0.14961466 0.00006461 0.00000332
0.14961466 0.04525879 0.00002317
0.14961466 0.10384833 0.00647590
0.14961466 0.15844769 0.02868857
0.14961466 0.20904231 0.04941430
0.14961466 0.25563217 0.06864154
0.14961466 0.29821729 0.08637027
0.14961466 0.33679765 0.10260049
0.14961466 0.37137327 0.11733220
0.14961466 0.40194413 0.13056541
0.14961466 0.42851024 0.14230011
0.14961466 0.45107161 0.15253631
0.14961466 0.46962822 0.16127400
0.14961466 0.48418008 0.16851319
0.14961466 0.49472719 0.17425387
0.14961466 0.50126955 0.17849604
0.14961466 0.50380814 0.18123971
0.14961466 0.50380985 0.18248504
0.14961466 0.50380985 0.18248587
0.14961466 0.50380985 0.18248587
0.14961466 0.50380985 0.18248587
0.14961466 0.50380985 0.18248587
0.14961466 0.50380985 0.18248587
0.14961466 0.50380985 0.18248587
0.14961687 0.50380985 0.18248587
0.15297816 0.50380985 0.18248587
0.26869346 0.50380985 0.18248587
0.39340176 0.50380985 0.18248587
0.52703345 0.50380985 0.18248587
0.66958853 0.50380985 0.18248587
0.82106691 0.50380985 0.18248587
0.98129400 0.50380985 0.18248587
0.99998751 0.50380985 0.18248587
0.16266961 0.00006461 0.00000332
0.16266961 0.04525879 0.00002317
0.16266961 0.10384833 0.00647590
0.16266961 0.15844769 0.02868857
0.16266961 0.20904231 0.04941430
0.16266961 0.25563217 0.06864154
0.16266961 0.29821729 0.08637027
0.16266961 0.33679765 0.10260049
0.16266961 0.37137327 0.11733220
0.16266961 0.40194413 0.13056541
0.16266961 0.42851024 0.14230011
0.16266961 0.45107161 0.15253631
0.16266961 0.46962822 0.16127400
0.16266961 0.48418008 0.16851319
0.16266961 0.49472719 0.17425387
0.16266961 0.50126955 0.17849604
0.16266961 0.50380814 0.18123971
0.16266961 0.50380985 0.18248504
0.16266961 0.50380985 0.18248587
0.16266961 0.50380985 0.18248587
0.16266961 0.50380985 0.18248587
0.16266961 0.50380985 0.18248587
0.16266961 0.50380985 0.18248587
0.16266961 0.50380985 0.18248587
0.16266963 0.50380985 0.18248587
0.16274910 0.50380985 0.18248587
0.27799314 0.50380985 0.18248587
0.40255638 0.50380985 0.18248587
0.53604322 0.50380985 0.18248587
0.67845345 0.50380985 0.18248587
0.82978698 0.50380985 0.18248587
0.98985779 0.50380985 0.18248587
0.99999325 0.50380985 0.18248587
0.17438714 0.00006461 0.00000332
0.17438714 0.04525879 0.00002317
0.17438714 0.10384833 0.00647590
0.17438714 0.15844769 0.02868857
0.17438714 0.20904231 0.04941430
0.17438714 0.25563217 0.06864154
0.17438714 0.29821729 0.08637027
0.17438714 0.33679765 0.10260049
0.17438714 0.37137327 0.11733220
0.17438714 0.40194413 0.13056541
0.17438714 0.42851024 0.14230011
0.17438714 0.45107161 0.15253631
0.17438714 0.46962822 0.16127400
0.17438714 0.48418008 0.16851319
0.17438714 0.49472719 0.17425387
0.17438714 0.50126955 0.17849604
0.17438714 0.50380814 0.18123971
0.17438714 0.50380985 0.18248504
0.17438714 0.50380985 0.18248587
0.17438714 0.50380985 0.18248587
0.17438714 0.50380985 0.18248587
0.17438714 0.50380985 0.18248587
0.17438714 0.50380985 0.18248587
0.17438714 0.50380985 0.18248587
0.17438715 0.50380985 0.18248587
0.17446192 0.50380985 0.18248587
0.28595760 0.50380985 0.18248587
0.41037356 0.50380985 0.18248587
0.54371556 0.50380985 0.18248587
0.68598095 0.50380985 0.18248587
0.83716962 0.50380985 0.18248587
0.99708389 0.50380985 0.18248587
0.99999810 0.50380985 0.18248587
0.18476724 0.00006461 0.00000332
0.18476724 0.04525879 0.00002317
0.18476724 0.10384833 0.00647590
0.18476724 0.15844769 0.02868857
0.18476724 0.20904231 0.04941430
0.18476724 0.25563217 0.06864154
0.18476724 0.29821729 0.08637027
0.18476724 0.33679765 0.10260049
0.18476724 0.37137327 0.11733220
0.18476724 0.40194413 0.13056541
0.18476724 0.42851024 0.14230011
0.18476724 0.45107161 0.15253631
0.18476724 0.46962822 0.16127400
0.18476724 0.48418008 0.16851319
0.18476724 0.49472719 0.17425387
0.18476724 0.50126955 0.17849604
0.18476724 0.50380814 0.18123971
0.18476724 0.50380985 0.18248504
0.18476724 0.50380985 0.18248587
0.18476724 0.50380985 0.18248587
0.18476724 0.50380985 0.18248587
0.18476724 0.50380985 0.18248587
0.18476724 0.50380985 0.18248587
0.18476724 0.50380985 0.18248587
0.18476726 0.50380985 0.18248587
0.18483950 0.50380985 0.18248587
0.29258462 0.50380985 0.18248587
0.41685333 0.50380985 0.18248587
0.55005048 0.50380985 0.18248587
0.69217102 0.50380985 0.18248587
0.84321278 0.50380985 0.18248587
0.99989303 0.50380985 0.18248587
0.99999998 0.50380985 0.18248587
0.19380992 0.00006461 0.00000332
0.19380992 0.04525879 0.00002317
0.19380992 0.10384833 0.00647590
0.19380992 0.15844769 0.02868857
0.19380992 0.20904231 0.04941430
0.19380992 0.25563217 0.06864154
0.19380992 0.29821729 0.08637027
0.19380992 0.33679765 0.10260049
0.19380992 0.37137327 0.11733220
0.19380992 0.40194413 0.13056541
0.19380992 0.42851024 0.14230011
0.19380992 0.45107161 0.15253631
0.19380992 0.46962822 0.16127400
0.19380992 0.48418008 0.16851319
0.19380992 0.49472719 0.17425387
0.19380992 0.50126955 0.17849604
0.19380992 0.50380814 0.18123971
0.19380992 0.50380985 0.18248504
0.19380992 0.50380985 0.18248587
0.19380992 0.50380985 0.18248587
0.19380992 0.50380985 0.18248587
0.19380992 0.50380985 0.18248587
0.19380992 0.50380985 0.18248587
0.19380992 0.50380985 0.18248587
0.19380993 0.50380985 0.18248587
0.19387966 0.50380985 0.18248587
0.29787422 0.50380985 0.18248587
0.42199566 0.50380985 0.18248587
0.55504797 0.50380985 0.18248587
0.69702366 0.50380985 0.18248587
0.84791752 0.50380985 0.18248587
0.99989807 0.50380985 0.18248587
0.99999998 0.50380985 0.18248587
0.20151517 0.00006461 0.00000332
0.20151517 0.04525879 0.00002317
0.20151517 0.10384833 0.00647590
0.20151517 0.15844769 0.02868857
0.20151517 0.20904231 0.04941430
0.20151517 0.25563217 0.06864154
0.20151517 0.29821729 0.08637027
0.20151517 0.33679765 0.10260049
0.20151517 0.37137327 0.11733220
0.20151517 0.40194413 0.13056541
0.20151517 0.42851024 0.14230011
0.20151517 0.45107161 0.15253631
0.20151517 0.46962822 0.16127400
0.20151517 0.48418008 0.16851319
0.20151517 0.49472719 0.17425387
0.20151517 0.50126955 0.17849604
0.20151517 0.50380814 0.18123971
0.20151517 0.50380985 0.18248504
0.20151517 0.50380985 0.18248587
0.20151517 0.50380985 0.18248587
0.20151517 0.50380985 0.18248587
0.20151517 0.50380985 0.18248587
0.20151517 0.50380985 0.18248587
0.20151517 0.50380985 0.18248587
0.20151518 0.50380985 0.18248587
0.20158240 0.50380985 0.18248587
0.30182640 0.50380985 0.18248587
0.42580057 0.50380985 0.18248587
0.55870803 0.50380985 0.18248587
0.70053887 0.50380985 0.18248587
0.85128573 0.50380985 0.18248587
0.99990032 0.50380985 0.18248587
0.99999998 0.50380985 0.18248587
0.20788299 0.00006461 0.00000332
0.20788299 0.04525879 0.00002317
0.20788299 0.10384833 0.00647590
0.20788299 0.15844769 0.02868857
0.20788299 0.20904231 0.04941430
0.20788299 0.25563217 0.06864154
0.20788299 0.29821729 0.08637027
0.20788299 0.33679765 0.10260049
0.20788299 0.37137327 0.11733220
0.20788299 0.40194413 0.13056541
0.20788299 0.42851024 0.14230011
0.20788299 0.45107161 0.15253631
0.20788299 0.46962822 0.16127400
0.20788299 0.48418008 0.16851319
0.20788299 0.49472719 0.17425387
0.20788299 0.50126955 0.17849604
0.20788299 0.50380814 0.18123971
0.20788299 0.50380985 0.18248504
0.20788299 0.50380985 0.18248587
0.20788299 0.50380985 0.18248587
0.20788299 0.50380985 0.18248587
0.20788299 0.50380985 0.18248587
0.20788299 0.50380985 0.18248587
0.20788299 0.50380985 0.18248587
0.20788300 0.50380985 0.18248587
0.20794770 0.50380985 0.18248587
0.30444115 0.50380985 0.18248587
0.42826805 0.50380985 0.18248587
0.56103067 0.50380985 0.18248587
0.70271667 0.50380985 0.18248587
0.85331741 0.50380985 0.18248587
0.99990169 0.50380985 0.18248587
0.99999998 0.50380985 0.18248587
0.21291339 0.00006461 0.00000332
0.21291339 0.04525879 0.00002317
0.21291339 0.10384833 0.00647590
0.21291339 0.15844769 0.02868857
0.21291339 0.20904231 0.04941430
0.21291339 0.25563217 0.06864154
0.21291339 0.29821729 0.08637027
0.21291339 0.33679765 0.10260049
0.21291339 0.37137327 0.11733220
0.21291339 0.40194413 0.13056541
0.21291339 0.42851024 0.14230011
0.21291339 0.45107161 0.15253631
0.21291339 0.46962822 0.16127400
0.21291339 0.48418008 0.16851319
0.21291339 0.49472719 0.17425387
0.21291339 0.50126955 0.17849604
0.21291339 0.50380814 0.18123971
0.21291339 0.50380985 0.18248504
0.21291339 0.50380985 0.18248587
0.21291339 0.50380985 0.18248587
0.21291339 0.50380985 0.18248587
0.21291339 0.50380985 0.18248587
0.21291339 0.50380985 0.18248587
0.21291339 0.50380985 0.18248587
0.21291340 0.50380985 0.18248587
0.21297558 0.50380985 0.18248587
0.30571851 0.50380985 0.18248587
0.42939825 0.50380985 0.18248587
0.56201611 0.50380985 0.18248587
0.70355736 0.50380985 0.18248587
0.85401298 0.50380985 0.18248587
0.99990215 0.50380985 0.18248587
0.99999998 0.50380985 0.18248587
0.21660636 0.00006461 0.00000332
0.21660636 0.04525879 0.00002317
0.21660636 0.10384833 0.00647590
0.21660636 0.15844769 0.02868857
0.21660636 0.20904231 0.04941430
0.21660636 0.25563217 0.06864154
0.21660636 0.29821729 0.08637027
0.21660636 0.33679765 0.10260049
0.21660636 0.37137327 0.11733220
0.21660636 0.40194413 0.13056541
0.21660636 0.42851024 0.14230011
0.21660636 0.45107161 0.15253631
0.21660636 0.46962822 0.16127400
0.21660636 0.48418008 0.16851319
0.21660636 0.49472719 0.17425387
0.21660636 0.50126955 0.17849604
0.21660636 0.50380814 0.18123971
0.21660636 0.50380985 0.18248504
0.21660636 0.50380985 0.18248587
0.21660636 0.50380985 0.18248587
0.21660636 0.50380985 0.18248587
0.21660636 0.50380985 0.18248587
0.21660636 0.50380985 0.18248587
0.21660636 0.50380985 0.18248587
0.21660637 0.50380985 0.18248587
0.21666608 0.50380985 0.18248587
0.30572184 0.50380985 0.18248587
0.42939901 0.50380985 0.18248587
0.56201677 0.50380985 0.18248587
0.70355793 0.50380985 0.18248587
0.85401345 0.50380985 0.18248587
0.99990215 0.50380985 0.18248587
0.99999998 0.50380985 0.18248587
0.21896190 0.00006461 0.00000332
0.21896190 0.04525879 0.00002317
0.21896190 0.10384833 0.00647590
0.21896190 0.15844769 0.02868857
0.21896190 0.20904231 0.04941430
0.21896190 0.25563217 0.06864154
0.21896190 0.29821729 0.08637027
0.21896190 0.33679765 0.10260049
0.21896190 0.37137327 0.11733220
0.21896190 0.40194413 0.13056541
0.21896190 0.42851024 0.14230011
0.21896190 0.45107161 0.15253631
0.21896190 0.46962822 0.16127400
0.21896190 0.48418008 0.16851319
0.21896190 0.49472719 0.17425387
0.21896190 0.50126955 0.17849604
0.21896190 0.50380814 0.18123971
0.21896190 0.50380985 0.18248504
0.21896190 0.50380985 0.18248587
0.21896190 0.50380985 0.18248587
0.21896190 0.50380985 0.18248587
0.21896190 0.50380985 0.18248587
0.21896190 0.50380985 0.18248587
0.21896190 0.50380985 0.18248587
0.21896191 0.50380985 0.18248587
0.21902004 0.50380985 0.18248587
0.30572342 0.50380985 0.18248587
0.42939901 0.50380985 0.18248587
0.56201677 0.50380985 0.18248587
0.70355793 0.50380985 0.18248587
0.85401345 0.50380985 0.18248587
0.99990215 0.50380985 0.18248587
0.99999998 0.50380985 0.18248587
0.21998024 0.00006461 0.00000332
0.21998024 0.04525879 0.00002317
0.21998024 0.10384833 0.00647590
0.21998024 0.15844769 0.02868857
0.21998024 0.20904231 0.04941430
0.21998024 0.25563217 0.06864154
0.21998024 0.29821729 0.08637027
0.21998024 0.33679765 0.10260049
0.21998024 0.37137327 0.11733220
0.21998024 0.40194413 0.13056541
0.21998024 0.42851024 0.14230011
0.21998024 0.45107161 0.15253631
0.21998024 0.46962822 0.16127400
0.21998024 0.48418008 0.16851319
0.21998024 0.49472719 0.17425387
0.21998024 0.50126955 0.17849604
0.21998024 0.50380814 0.18123971
0.21998024 0.50380985 0.18248504
0.21998024 0.50380985 0.18248587
0.21998024 0.50380985 0.18248587
0.21998024 0.50380985 0.18248587
0.21998024 0.50380985 0.18248587
0.21998024 0.50380985 0.18248587
0.21998024 0.50380985 0.18248587
0.21998025 0.50380985 0.18248587
0.22003769 0.50380985 0.18248587
0.30572410 0.50380985 0.18248587
0.42939901 0.50380985 0.18248587
0.56201677 0.50380985 0.18248587
0.70355793 0.50380985 0.18248587
0.85401345 0.50380985 0.18248587
0.99990215 0.50380985 0.18248587
0.99999998 0.50380985 0.18248587
0.21998092 0.00006461 0.00000332
0.21998092 0.04525879 0.00002317
0.21998092 0.10384833 0.00647590
0.21998092 0.15844769 0.02868857
0.21998092 0.20904231 0.04941430
0.21998092 0.25563217 0.06864154
0.21998092 0.29821729 0.08637027
0.21998092 0.33679765 0.10260049
0.21998092 0.37137327 0.11733220
0.21998092 0.40194413 0.13056541
0.21998092 0.42851024 0.14230011
0.21998092 0.45107161 0.15253631
0.21998092 0.46962822 0.16127400
0.21998092 0.48418008 0.16851319
0.21998092 0.49472719 0.17425387
0.21998092 0.50126955 0.17849604
0.21998092 0.50380814 0.18123971
0.21998092 0.50380985 0.18248504
0.21998092 0.50380985 0.18248587
0.21998092 0.50380985 0.18248587
0.21998092 0.50380985 0.18248587
0.21998092 0.50380985 0.18248587
0.21998092 0.50380985 0.18248587
0.21998092 0.50380985 0.18248587
0.21998093 0.50380985 0.18248587
0.22003837 0.50380985 0.18248587
0.30572410 0.50380985 0.18248587
0.42939901 0.50380985 0.18248587
0.56201677 0.50380985 0.18248587
0.70355793 0.50380985 0.18248587
0.85401345 0.50380985 0.18248587
0.99990215 0.50380985 0.18248587
0.99999998 0.50380985 0.18248587
0.21998092 0.00006461 0.00000332
0.21998092 0.04525879 0.00002317
0.21998092 0.10384833 0.00647590
0.21998092 0.15844769 0.02868857
0.21998092 0.20904231 0.04941430
0.21998092 0.25563217 0.06864154
0.21998092 0.29821729 0.08637027
0.21998092 0.33679765 0.10260049
0.21998092 0.37137327 0.11733220
0.21998092 0.40194413 0.13056541
0.21998092 0.42851024 0.14230011
0.21998092 0.45107161 0.15253631
0.21998092 0.46962822 0.16127400
0.21998092 0.48418008 0.16851319
0.21998092 0.49472719 0.17425387
0.21998092 0.50126955 0.17849604
0.21998092 0.50380814 0.18123971
0.21998092 0.50380985 0.18248504
0.21998092 0.50380985 0.18248587
0.21998092 0.50380985 0.18248587
0.21998092 0.50380985 0.18248587
0.21998092 0.50380985 0.18248587
0.21998092 0.50380985 0.18248587
0.21998092 0.50380985 0.18248587
0.21998093 0.50380985 0.18248587
0.22003837 0.50380985 0.18248587
0.30572410 0.50380985 0.18248587
0.42939901 0.50380985 0.18248587
0.56201677 0.50380985 0.18248587
0.70355793 0.50380985 0.18248587
