data/manual_verify/canoncgt_candidates2/candidate_c.cube
TITLE "LocalColorService CanonCGT fitted transform"
LUT_3D_SIZE 5
DOMAIN_MIN 0.0 0.0 0.0
DOMAIN_MAX 1.0 1.0 1.0
0.00006214 0.00006461 0.00000332
0.00006214 0.37137327 0.11733220
0.00006214 0.50380814 0.18123971
0.00006840 0.50380985 0.18248587
0.99989656 0.50380985 0.18248587
0.13522227 0.00006461 0.00000332
0.13522227 0.37137327 0.11733220
0.13522227 0.50380814 0.18123971
0.13522691 0.50380985 0.18248587
0.99998087 0.50380985 0.18248587
0.21291339 0.00006461 0.00000332
0.21291339 0.37137327 0.11733220
0.21291339 0.50380814 0.18123971
0.21291340 0.50380985 0.18248587
0.99999998 0.50380985 0.18248587
0.21998092 0.00011367 0.00000332
0.21998092 0.37143191 0.11733220
0.21998092 0.50386796 0.18123971
0.21998093 0.50386966 0.18248587
0.99999998 0.50386966 0.18248587
0.21998092 0.91963052 0.16036324
0.21998092 1.00000000 0.29447634
0.21998092 1.00000000 0.33467231
0.21998093 1.00000000 0.33467231
0.99999998 1.00000000 0.33467231
0.76022279 0.40864286 0.31072754
0.76022279 0.79278237 0.46194580
0.76022279 0.92549112 0.51915179
0.76023671 0.92549284 0.51956027
1.00000000 0.92549284 0.51956027
0.91726575 0.40864286 0.31072754
0.91726575 0.79278237 0.46194580
0.91726575 0.92549112 0.51915179
0.91726576 0.92549284 0.51956027
1.00000000 0.92549284 0.51956027
0.99057131 0.40864286 0.31072754
0.99057131 0.79278237 0.46194580
0.99057131 0.92549112 0.51915179
0.99057131 0.92549284 0.51956027
1.00000000 0.92549284 0.51956027
0.99600367 0.40870013 0.31072754
0.99600367 0.79284183 0.46194580
0.99600367 0.92554104 0.51915179
0.99600367 0.92554276 0.51956027
1.00000000 0.92554276 0.51956027
0.99600367 1.00000000 0.47566498
0.99600367 1.00000000 0.61622740
0.99600367 1.00000000 0.66267990
0.99600367 1.00000000 0.66268028
1.00000000 1.00000000 0.66268028
1.00000000 0.54717146 0.58365236
1.00000000 0.93158484 0.72816910
1.00000000 1.00000000 0.77861207
1.00000000 1.00000000 0.77861278
1.00000000 1.00000000 0.77861278
1.00000000 0.54717146 0.58365236
1.00000000 0.93158484 0.72816910
1.00000000 1.00000000 0.77861207
1.00000000 1.00000000 0.77861278
1.00000000 1.00000000 0.77861278
1.00000000 0.54717146 0.58365236
1.00000000 0.93158484 0.72816910
1.00000000 1.00000000 0.77861207
1.00000000 1.00000000 0.77861278
1.00000000 1.00000000 0.77861278
1.00000000 0.54722852 0.58365236
1.00000000 0.93163068 0.72816910
1.00000000 1.00000000 0.77861207
1.00000000 1.00000000 0.77861278
1.00000000 1.00000000 0.77861278
1.00000000 1.00000000 0.71230611
1.00000000 1.00000000 0.85937732
1.00000000 1.00000000 0.91239808
1.00000000 1.00000000 0.91239901
1.00000000 1.00000000 0.91239901
1.00000000 0.54717251 0.77492786
1.00000000 0.93158591 0.91274309
1.00000000 1.00000000 0.95642331
1.00000000 1.00000000 0.95642346
1.00000000 1.00000000 0.95642346
1.00000000 0.54717251 0.77492786
1.00000000 0.93158591 0.91274309
1.00000000 1.00000000 0.95642331
1.00000000 1.00000000 0.95642346
1.00000000 1.00000000 0.95642346
1.00000000 0.54717251 0.77492786
1.00000000 0.93158591 0.91274309
1.00000000 1.00000000 0.95642331
1.00000000 1.00000000 0.95642346
1.00000000 1.00000000 0.95642346
1.00000000 0.54722957 0.77492786
1.00000000 0.93163175 0.91274309
1.00000000 1.00000000 0.95642331
1.00000000 1.00000000 0.95642346
1.00000000 1.00000000 0.95642346
1.00000000 1.00000000 0.86729793
1.00000000 1.00000000 0.99999217
1.00000000 1.00000000 1.00000000
1.00000000 1.00000000 1.00000000
1.00000000 1.00000000 1.00000000
1.00000000 0.54717251 0.88431156
1.00000000 0.93158591 1.00000000
1.00000000 1.00000000 1.00000000
1.00000000 1.00000000 1.00000000
1.00000000 1.00000000 1.00000000
1.00000000 0.54717251 0.88431156
1.00000000 0.93158591 1.00000000
1.00000000 1.00000000 1.00000000
1.00000000 1.00000000 1.00000000
1.00000000 1.00000000 1.00000000
1.00000000 0.54717251 0.88431156
1.00000000 0.93158591 1.00000000
1.00000000 1.00000000 1.00000000
1.00000000 1.00000000 1.00000000
1.00000000 1.00000000 1.00000000
1.00000000 0.54722957 0.88431156
1.00000000 0.93163175 1.00000000
1.00000000 1.00000000 1.00000000
1.00000000 1.00000000 1.00000000
1.00000000 1.00000000 1.00000000
1.00000000 1.00000000 0.94072950
1.00000000 1.00000000 1.00000000
1.00000000 1.00000000 1.00000000
1.00000000 1.00000000 1.00000000
1.00000000 1.00000000 1.00000000
