data/manual_verify/canoncgt_candidates2/candidate_b.cube
TITLE "LocalColorService CanonCGT fitted transform"
LUT_3D_SIZE 5
DOMAIN_MIN 0.0 0.0 0.0
DOMAIN_MAX 1.0 1.0 1.0
0.00004752 0.00004941 0.00000747
0.00004752 0.28399132 0.08972955
0.00004752 0.38526505 0.13860000
0.10094760 0.38526635 0.13955295
0.99991597 0.38526635 0.13955295
0.10340527 0.00004941 0.00000747
0.10340527 0.28399132 0.08972955
0.10340527 0.38526505 0.13860000
0.20332737 0.38526635 0.13955295
0.99998044 0.38526635 0.13955295
0.16281612 0.00004941 0.00000747
0.16281612 0.28399132 0.08972955
0.16281612 0.38526505 0.13860000
0.24153752 0.38526635 0.13955295
0.99999999 0.38526635 0.13955295
0.16822070 0.16166098 0.00000747
0.16822070 0.45648183 0.08972955
0.16822070 0.55904186 0.13860000
0.24171535 0.55904327 0.13955295
0.99999999 0.55904327 0.13955295
0.16822070 0.93853606 0.12263564
0.16822070 1.00000000 0.22519272
0.16822070 1.00000000 0.25593082
0.24171535 1.00000000 0.25593082
0.99999999 1.00000000 0.25593082
0.58134684 0.31249160 0.29643871
0.58134684 0.60624534 0.41207620
0.58134684 0.70772850 0.45582196
0.69144442 0.70772982 0.45613432
1.00000000 0.70772982 0.45613432
0.70143852 0.31249160 0.29643871
0.70143852 0.60624534 0.41207620
0.70143852 0.70772850 0.45582196
0.79604886 0.70772982 0.45613432
1.00000000 0.70772982 0.45613432
0.75752205 0.31249160 0.29643871
0.75752205 0.60624534 0.41207620
0.75752205 0.70772850 0.45582196
0.83650402 0.70772982 0.45613432
1.00000000 0.70772982 0.45613432
0.76167889 0.48348328 0.29643871
0.76167889 0.77963832 0.41207620
0.76167889 0.88354472 0.45582196
0.83696150 0.88354624 0.45613432
1.00000000 0.88354624 0.45613432
0.76167889 1.00000000 0.42256734
0.76167889 1.00000000 0.53005624
0.76167889 1.00000000 0.56557875
0.83696150 1.00000000 0.56557903
1.00000000 1.00000000 0.56557903
0.78074173 0.41842523 0.56396945
0.78074173 0.71238840 0.67448226
0.78074173 0.81408291 0.71305629
0.87990697 0.81408425 0.71305684
1.00000000 0.81408425 0.71305684
0.89750637 0.41842523 0.56396945
0.89750637 0.71238840 0.67448226
0.89750637 0.81408291 0.71305629
0.98670582 0.81408425 0.71305684
1.00000000 0.81408425 0.71305684
0.95023219 0.41842523 0.56396945
0.95023219 0.71238840 0.67448226
0.95023219 0.81408291 0.71305629
0.99996665 0.81408425 0.71305684
1.00000000 0.81408425 0.71305684
0.95318695 0.58919069 0.56396945
0.95318695 0.88669210 0.67448226
0.95318695 0.99190999 0.71305629
0.99996863 0.99191162 0.71305684
1.00000000 0.99191162 0.71305684
0.95318695 1.00000000 0.66235173
0.95318695 1.00000000 0.77481795
0.95318695 1.00000000 0.81536324
0.99996863 1.00000000 0.81536395
1.00000000 1.00000000 0.81536395
0.78074342 0.41842604 0.76906248
0.78074342 0.71238922 0.87445060
0.78074342 0.81408375 0.90785312
0.87990774 0.81408509 0.90785323
1.00000000 0.81408509 0.90785323
0.89750778 0.41842604 0.76906248
0.89750778 0.71238922 0.87445060
0.89750778 0.81408375 0.90785312
0.98670678 0.81408509 0.90785323
1.00000000 0.81408509 0.90785323
0.95023332 0.41842604 0.76906248
0.95023332 0.71238922 0.87445060
0.95023332 0.81408375 0.90785312
0.99996665 0.81408509 0.90785323
1.00000000 0.81408509 0.90785323
0.95318801 0.58919147 0.76906248
0.95318801 0.88669299 0.87445060
0.95318801 0.99191100 0.90785312
0.99996863 0.99191263 0.90785323
1.00000000 0.99191263 0.90785323
0.95318801 1.00000000 0.83969842
0.95318801 1.00000000 0.95714194
0.95318801 1.00000000 0.99997333
0.99996863 1.00000000 0.99997397
1.00000000 1.00000000 0.99997397
0.78074342 0.41842604 0.91152744
0.78074342 0.71238922 0.99999879
0.78074342 0.81408375 1.00000000
0.87990774 0.81408509 1.00000000
1.00000000 0.81408509 1.00000000
0.89750778 0.41842604 0.91152744
0.89750778 0.71238922 0.99999879
0.89750778 0.81408375 1.00000000
0.98670678 0.81408509 1.00000000
1.00000000 0.81408509 1.00000000
0.95023332 0.41842604 0.91152744
0.95023332 0.71238922 0.99999879
0.95023332 0.81408375 1.00000000
0.99996665 0.81408509 1.00000000
1.00000000 0.81408509 1.00000000
0.95318801 0.58919147 0.91152744
0.95318801 0.88669299 0.99999879
0.95318801 0.99191100 1.00000000
0.99996863 0.99191263 1.00000000
1.00000000 0.99191263 1.00000000
0.95318801 1.00000000 0.95467057
0.95318801 1.00000000 1.00000000
0.95318801 1.00000000 1.00000000
0.99996863 1.00000000 1.00000000
1.00000000 1.00000000 1.00000000
