data/manual_verify/canoncgt_candidates2/candidate_b.cube
TITLE "LocalColorService CanonCGT fitted transform"
LUT_3D_SIZE 9
DOMAIN_MIN 0.0 0.0 0.0
DOMAIN_MAX 1.0 1.0 1.0
0.00004752 0.00004941 0.00000747
0.00004752 0.15985588 0.03779234
0.00004752 0.28399132 0.08972955
0.00004752 0.35912746 0.12333211
0.00004752 0.38526505 0.13860000
0.00004752 0.38526635 0.13955295
0.10094760 0.38526635 0.13955295
0.50212767 0.38526635 0.13955295
0.99991597 0.38526635 0.13955295
0.04915413 0.00004941 0.00000747
0.04915413 0.15985588 0.03779234
0.04915413 0.28399132 0.08972955
0.04915413 0.35912746 0.12333211
0.04915413 0.38526505 0.13860000
0.04915413 0.38526635 0.13955295
0.15967751 0.38526635 0.13955295
0.55911775 0.38526635 0.13955295
0.99995328 0.38526635 0.13955295
0.10340527 0.00004941 0.00000747
0.10340527 0.15985588 0.03779234
0.10340527 0.28399132 0.08972955
0.10340527 0.35912746 0.12333211
0.10340527 0.38526505 0.13860000
0.10340527 0.38526635 0.13955295
0.20332737 0.38526635 0.13955295
0.60099537 0.38526635 0.13955295
0.99998044 0.38526635 0.13955295
0.14129260 0.00004941 0.00000747
0.14129260 0.15985588 0.03779234
0.14129260 0.28399132 0.08972955
0.14129260 0.35912746 0.12333211
0.14129260 0.38526505 0.13860000
0.14129260 0.38526635 0.13955295
0.23061343 0.38526635 0.13955295
0.62650919 0.38526635 0.13955295
0.99999664 0.38526635 0.13955295
0.16281612 0.00004941 0.00000747
0.16281612 0.15985588 0.03779234
0.16281612 0.28399132 0.08972955
0.16281612 0.35912746 0.12333211
0.16281612 0.38526505 0.13860000
0.16281612 0.38526635 0.13955295
0.24153752 0.38526635 0.13955295
0.63565938 0.38526635 0.13955295
0.99999999 0.38526635 0.13955295
0.16822070 0.00004941 0.00000747
0.16822070 0.15985589 0.03779234
0.16822070 0.28399133 0.08972955
0.16822070 0.35912747 0.12333211
0.16822070 0.38526506 0.13860000
0.16822070 0.38526636 0.13955295
0.24171535 0.38526636 0.13955295
0.63565989 0.38526636 0.13955295
0.99999999 0.38526636 0.13955295
0.16822070 0.16166098 0.00000747
0.16822070 0.33170319 0.03779234
0.16822070 0.45648183 0.08972955
0.16822070 0.53226118 0.12333211
0.16822070 0.55904186 0.13860000
0.16822070 0.55904327 0.13955295
0.24171535 0.55904327 0.13955295
0.63565989 0.55904327 0.13955295
0.99999999 0.55904327 0.13955295
0.16822070 0.50861002 0.01755161
0.16822070 0.67875779 0.07843965
0.16822070 0.80364396 0.12234356
0.16822070 0.87953081 0.14791281
0.16822070 0.90641398 0.15515160
0.16822070 0.90641541 0.15515230
0.24171535 0.90641541 0.15515230
0.63565989 0.90641541 0.15515230
0.99999999 0.90641541 0.15515230
0.16822070 0.93853606 0.12263564
0.16822070 0.99999922 0.18241837
0.16822070 1.00000000 0.22519272
0.16822070 1.00000000 0.24963241
0.16822070 1.00000000 0.25593082
0.16822070 1.00000000 0.25593082
0.24171535 1.00000000 0.25593082
0.63565989 1.00000000 0.25593082
0.99999999 1.00000000 0.25593082
0.32804750 0.17694046 0.13925919
0.32804750 0.34640215 0.20679117
0.32804750 0.47058947 0.25745903
0.32804750 0.54577749 0.28979223
0.32804750 0.57196695 0.30379076
0.32804750 0.57196826 0.30442637
0.44361170 0.57196826 0.30442637
0.84389459 0.57196826 0.30442637
1.00000000 0.57196826 0.30442637
0.39637585 0.17694046 0.13925919
0.39637585 0.34640215 0.20679117
0.39637585 0.47058947 0.25745903
0.39637585 0.54577749 0.28979223
0.39637585 0.57196695 0.30379076
0.39637585 0.57196826 0.30442637
0.50288757 0.57196826 0.30442637
0.90164479 0.57196826 0.30442637
1.00000000 0.57196826 0.30442637
0.44980283 0.17694046 0.13925919
0.44980283 0.34640215 0.20679117
0.44980283 0.47058947 0.25745903
0.44980283 0.54577749 0.28979223
0.44980283 0.57196695 0.30379076
0.44980283 0.57196826 0.30442637
0.54709355 0.57196826 0.30442637
0.94427022 0.57196826 0.30442637
1.00000000 0.57196826 0.30442637
0.48686601 0.17694046 0.13925919
0.48686601 0.34640215 0.20679117
0.48686601 0.47058947 0.25745903
0.48686601 0.54577749 0.28979223
0.48686601 0.57196695 0.30379076
0.48686601 0.57196826 0.30442637
0.57493572 0.57196826 0.30442637
0.97053581 0.57196826 0.30442637
1.00000000 0.57196826 0.30442637
0.50756537 0.17694046 0.13925919
0.50756537 0.34640215 0.20679117
0.50756537 0.47058947 0.25745903
0.50756537 0.54577749 0.28979223
0.50756537 0.57196695 0.30379076
0.50756537 0.57196826 0.30442637
0.58641585 0.57196826 0.30442637
0.98045955 0.57196826 0.30442637
1.00000000 0.57196826 0.30442637
0.51235183 0.17694046 0.13925919
0.51235183 0.34640215 0.20679117
0.51235183 0.47058948 0.25745903
0.51235183 0.54577749 0.28979223
0.51235183 0.57196696 0.30379076
0.51235183 0.57196827 0.30442637
0.58673222 0.57196827 0.30442637
0.98046020 0.57196827 0.30442637
1.00000000 0.57196827 0.30442637
0.51235183 0.34804526 0.13925919
0.51235183 0.51841489 0.20679117
0.51235183 0.64352706 0.25745903
0.51235183 0.71963992 0.28979223
0.51235183 0.74675407 0.30379076
0.51235183 0.74675553 0.30442637
0.58673222 0.74675553 0.30442637
0.98046020 0.74675553 0.30442637
1.00000000 0.74675553 0.30442637
0.51235183 0.69497574 0.17585234
0.51235183 0.86549714 0.23765148
0.51235183 0.99067267 0.28247978
0.51235183 0.99998097 0.30897522
0.51235183 0.99999921 0.31713852
0.51235183 0.99999921 0.31713916
0.58673222 0.99999921 0.31713916
0.98046020 0.99999921 0.31713916
1.00000000 0.99999921 0.31713916
0.51235183 0.99999998 0.27926100
0.51235183 1.00000000 0.34025405
0.51235183 1.00000000 0.38426125
0.51235183 1.00000000 0.40993379
0.51235183 1.00000000 0.41727236
0.51235183 1.00000000 0.41727243
0.58673222 1.00000000 0.41727243
0.98046020 1.00000000 0.41727243
1.00000000 1.00000000 0.41727243
0.58134684 0.31249160 0.29643871
0.58134684 0.48200517 0.36270133
0.58134684 0.60624534 0.41207620
0.58134684 0.68148620 0.44311641
0.58134684 0.70772850 0.45582196
0.58134684 0.70772982 0.45613432
0.69144442 0.70772982 0.45613432
0.99998706 0.70772982 0.45613432
1.00000000 0.70772982 0.45613432
0.64885103 0.31249160 0.29643871
0.64885103 0.48200517 0.36270133
0.64885103 0.60624534 0.41207620
0.64885103 0.68148620 0.44311641
0.64885103 0.70772850 0.45582196
0.64885103 0.70772982 0.45613432
0.75127641 0.70772982 0.45613432
0.99999999 0.70772982 0.45613432
1.00000000 0.70772982 0.45613432
0.70143852 0.31249160 0.29643871
0.70143852 0.48200517 0.36270133
0.70143852 0.60624534 0.41207620
0.70143852 0.68148620 0.44311641
0.70143852 0.70772850 0.45582196
0.70143852 0.70772982 0.45613432
0.79604886 0.70772982 0.45613432
1.00000000 0.70772982 0.45613432
1.00000000 0.70772982 0.45613432
0.73766219 0.31249160 0.29643871
0.73766219 0.48200517 0.36270133
0.73766219 0.60624534 0.41207620
0.73766219 0.68148620 0.44311641
0.73766219 0.70772850 0.45582196
0.73766219 0.70772982 0.45613432
0.82445751 0.70772982 0.45613432
1.00000000 0.70772982 0.45613432
1.00000000 0.70772982 0.45613432
0.75752205 0.31249160 0.29643871
0.75752205 0.48200517 0.36270133
0.75752205 0.60624534 0.41207620
0.75752205 0.68148620 0.44311641
0.75752205 0.70772850 0.45582196
0.75752205 0.70772982 0.45613432
0.83650402 0.70772982 0.45613432
1.00000000 0.70772982 0.45613432
1.00000000 0.70772982 0.45613432
0.76167889 0.31249161 0.29643871
0.76167889 0.48200518 0.36270133
0.76167889 0.60624534 0.41207620
0.76167889 0.68148621 0.44311641
0.76167889 0.70772851 0.45582196
0.76167889 0.70772982 0.45613432
0.83696150 0.70772982 0.45613432
1.00000000 0.70772982 0.45613432
1.00000000 0.70772982 0.45613432
0.76167889 0.48348328 0.29643871
0.76167889 0.65418643 0.36270133
0.76167889 0.77963832 0.41207620
0.76167889 0.85609091 0.44311641
0.76167889 0.88354472 0.45582196
0.76167889 0.88354624 0.45613432
0.83696150 0.88354624 0.45613432
1.00000000 0.88354624 0.45613432
1.00000000 0.88354624 0.45613432
0.76167889 0.83039485 0.32086891
0.76167889 0.99989331 0.38359313
0.76167889 0.99999999 0.42936536
0.76167889 1.00000000 0.45680293
0.76167889 1.00000000 0.46590623
0.76167889 1.00000000 0.46590681
0.83696150 1.00000000 0.46590681
1.00000000 1.00000000 0.46590681
1.00000000 1.00000000 0.46590681
0.76167889 1.00000000 0.42256734
0.76167889 1.00000000 0.48479324
0.76167889 1.00000000 0.53005624
0.76167889 1.00000000 0.55698459
0.76167889 1.00000000 0.56557875
0.76167889 1.00000000 0.56557903
0.83696150 1.00000000 0.56557903
1.00000000 1.00000000 0.56557903
1.00000000 1.00000000 0.56557903
0.73224405 0.39298603 0.43800879
0.73224405 0.56255148 0.50300206
0.73224405 0.68684449 0.55108394
0.73224405 0.76213820 0.58083117
0.73224405 0.78843333 0.59224373
0.73224405 0.78843466 0.59224454
0.83687500 0.78843466 0.59224454
1.00000000 0.78843466 0.59224454
1.00000000 0.78843466 0.59224454
0.79892409 0.39298603 0.43800879
0.79892409 0.56255148 0.50300206
0.79892409 0.68684449 0.55108394
0.79892409 0.76213820 0.58083117
0.79892409 0.78843333 0.59224373
0.79892409 0.78843466 0.59224454
0.89726310 0.78843466 0.59224454
1.00000000 0.78843466 0.59224454
1.00000000 0.78843466 0.59224454
0.85067207 0.39298603 0.43800879
0.85067207 0.56255148 0.50300206
0.85067207 0.68684449 0.55108394
0.85067207 0.76213820 0.58083117
0.85067207 0.78843333 0.59224373
0.85067207 0.78843466 0.59224454
0.94258096 0.78843466 0.59224454
1.00000000 0.78843466 0.59224454
1.00000000 0.78843466 0.59224454
0.88605624 0.39298603 0.43800879
0.88605624 0.56255148 0.50300206
0.88605624 0.68684449 0.55108394
0.88605624 0.76213820 0.58083117
0.88605624 0.78843333 0.59224373
0.88605624 0.78843466 0.59224454
0.97153684 0.78843466 0.59224454
1.00000000 0.78843466 0.59224454
1.00000000 0.78843466 0.59224454
0.90507661 0.39298603 0.43800879
0.90507661 0.56255148 0.50300206
0.90507661 0.68684449 0.55108394
0.90507661 0.76213820 0.58083117
0.90507661 0.78843333 0.59224373
0.90507661 0.78843466 0.59224454
0.98413805 0.78843466 0.59224454
1.00000000 0.78843466 0.59224454
1.00000000 0.78843466 0.59224454
0.90860382 0.39298603 0.43800879
0.90860382 0.56255148 0.50300206
0.90860382 0.68684449 0.55108394
0.90860382 0.76213820 0.58083117
0.90860382 0.78843334 0.59224373
0.90860382 0.78843466 0.59224454
0.98473586 0.78843466 0.59224454
1.00000000 0.78843466 0.59224454
1.00000000 0.78843466 0.59224454
0.90860382 0.56386458 0.43800879
0.90860382 0.73490125 0.50300206
0.90860382 0.86069286 0.55108394
0.90860382 0.93747456 0.58083117
0.90860382 0.96524938 0.59224373
0.90860382 0.96525095 0.59224454
0.98473586 0.96525095 0.59224454
1.00000000 0.96525095 0.59224454
1.00000000 0.96525095 0.59224454
0.90860382 0.91074937 0.45028231
0.90860382 0.99999107 0.51393110
0.90860382 1.00000000 0.56064349
0.90860382 1.00000000 0.58902121
0.90860382 1.00000000 0.59906451
0.90860382 1.00000000 0.59906504
0.98473586 1.00000000 0.59906504
1.00000000 1.00000000 0.59906504
1.00000000 1.00000000 0.59906504
0.90860382 1.00000000 0.55026425
0.90860382 1.00000000 0.61372300
0.90860382 1.00000000 0.66024181
0.90860382 1.00000000 0.68842596
0.90860382 1.00000000 0.69827571
0.90860382 1.00000000 0.69827621
0.98473586 1.00000000 0.69827621
1.00000000 1.00000000 0.69827621
1.00000000 1.00000000 0.69827621
0.78074173 0.41842523 0.56396945
0.78074173 0.58804256 0.62769336
0.78074173 0.71238840 0.67448226
0.78074173 0.78773495 0.70293649
0.78074173 0.81408291 0.71305629
0.78074173 0.81408425 0.71305684
0.87990697 0.81408425 0.71305684
1.00000000 0.81408425 0.71305684
1.00000000 0.81408425 0.71305684
0.84659775 0.41842523 0.56396945
0.84659775 0.58804256 0.62769336
0.84659775 0.71238840 0.67448226
0.84659775 0.78773495 0.70293649
0.84659775 0.81408291 0.71305629
0.84659775 0.81408425 0.71305684
0.94083114 0.81408425 0.71305684
1.00000000 0.81408425 0.71305684
1.00000000 0.81408425 0.71305684
0.89750637 0.41842523 0.56396945
0.89750637 0.58804256 0.62769336
0.89750637 0.71238840 0.67448226
0.89750637 0.78773495 0.70293649
0.89750637 0.81408291 0.71305629
0.89750637 0.81408425 0.71305684
0.98670582 0.81408425 0.71305684
1.00000000 0.81408425 0.71305684
1.00000000 0.81408425 0.71305684
0.93205118 0.41842523 0.56396945
0.93205118 0.58804256 0.62769336
0.93205118 0.71238840 0.67448226
0.93205118 0.78773495 0.70293649
0.93205118 0.81408291 0.71305629
0.93205118 0.81408425 0.71305684
0.99995617 0.81408425 0.71305684
1.00000000 0.81408425 0.71305684
1.00000000 0.81408425 0.71305684
0.95023219 0.41842523 0.56396945
0.95023219 0.58804256 0.62769336
0.95023219 0.71238840 0.67448226
0.95023219 0.78773495 0.70293649
0.95023219 0.81408291 0.71305629
0.95023219 0.81408425 0.71305684
0.99996665 0.81408425 0.71305684
1.00000000 0.81408425 0.71305684
1.00000000 0.81408425 0.71305684
0.95318695 0.41842524 0.56396945
0.95318695 0.58804256 0.62769336
0.95318695 0.71238841 0.67448226
0.95318695 0.78773495 0.70293649
0.95318695 0.81408292 0.71305629
0.95318695 0.81408425 0.71305684
0.99996863 0.81408425 0.71305684
1.00000000 0.81408425 0.71305684
1.00000000 0.81408425 0.71305684
0.95318695 0.58919069 0.56396945
0.95318695 0.76056082 0.62769336
0.95318695 0.88669210 0.67448226
0.95318695 0.96379579 0.70293649
0.95318695 0.99190999 0.71305629
0.95318695 0.99191162 0.71305684
0.99996863 0.99191162 0.71305684
1.00000000 0.99191162 0.71305684
1.00000000 0.99191162 0.71305684
0.95318695 0.93603961 0.56408986
0.95318695 0.99999998 0.62866068
0.95318695 1.00000000 0.67631227
0.95318695 1.00000000 0.70563006
0.95318695 1.00000000 0.71661336
0.95318695 1.00000000 0.71661405
0.99996863 1.00000000 0.71661405
1.00000000 1.00000000 0.71661405
1.00000000 1.00000000 0.71661405
0.95318695 1.00000000 0.66235173
0.95318695 1.00000000 0.72704334
0.95318695 1.00000000 0.77481795
0.95318695 1.00000000 0.80425790
0.95318695 1.00000000 0.81536324
0.95318695 1.00000000 0.81536395
0.99996863 1.00000000 0.81536395
1.00000000 1.00000000 0.81536395
1.00000000 1.00000000 0.81536395
0.78074342 0.41842604 0.67432068
0.78074342 0.58804337 0.73677523
0.78074342 0.71238922 0.78227114
0.78074342 0.78773578 0.80943239
0.78074342 0.81408375 0.81825942
0.78074342 0.81408509 0.81825975
0.87990774 0.81408509 0.81825975
1.00000000 0.81408509 0.81825975
1.00000000 0.81408509 0.81825975
0.84659930 0.41842604 0.67432068
0.84659930 0.58804337 0.73677523
0.84659930 0.71238922 0.78227114
0.84659930 0.78773578 0.80943239
0.84659930 0.81408375 0.81825942
0.84659930 0.81408509 0.81825975
0.94083201 0.81408509 0.81825975
1.00000000 0.81408509 0.81825975
1.00000000 0.81408509 0.81825975
0.89750778 0.41842604 0.67432068
0.89750778 0.58804337 0.73677523
0.89750778 0.71238922 0.78227114
0.89750778 0.78773578 0.80943239
0.89750778 0.81408375 0.81825942
0.89750778 0.81408509 0.81825975
0.98670678 0.81408509 0.81825975
1.00000000 0.81408509 0.81825975
1.00000000 0.81408509 0.81825975
0.93205245 0.41842604 0.67432068
0.93205245 0.58804337 0.73677523
0.93205245 0.71238922 0.78227114
0.93205245 0.78773578 0.80943239
0.93205245 0.81408375 0.81825942
0.93205245 0.81408509 0.81825975
0.99995617 0.81408509 0.81825975
1.00000000 0.81408509 0.81825975
1.00000000 0.81408509 0.81825975
0.95023332 0.41842604 0.67432068
0.95023332 0.58804337 0.73677523
0.95023332 0.71238922 0.78227114
0.95023332 0.78773578 0.80943239
0.95023332 0.81408375 0.81825942
0.95023332 0.81408509 0.81825975
0.99996665 0.81408509 0.81825975
1.00000000 0.81408509 0.81825975
1.00000000 0.81408509 0.81825975
0.95318801 0.41842604 0.67432068
0.95318801 0.58804337 0.73677523
0.95318801 0.71238923 0.78227114
0.95318801 0.78773578 0.80943239
0.95318801 0.81408375 0.81825942
0.95318801 0.81408509 0.81825975
0.99996863 0.81408509 0.81825975
1.00000000 0.81408509 0.81825975
1.00000000 0.81408509 0.81825975
0.95318801 0.58919147 0.67432068
0.95318801 0.76056166 0.73677523
0.95318801 0.88669299 0.78227114
0.95318801 0.96379675 0.80943239
0.95318801 0.99191100 0.81825942
0.95318801 0.99191263 0.81825975
0.99996863 0.99191263 0.81825975
1.00000000 0.99191263 0.81825975
1.00000000 0.99191263 0.81825975
0.95318801 0.93604039 0.67432755
0.95318801 0.99999998 0.73678421
0.95318801 1.00000000 0.78228227
0.95318801 1.00000000 0.80944567
0.95318801 1.00000000 0.81855355
0.95318801 1.00000000 0.81867036
0.99996863 1.00000000 0.81867036
1.00000000 1.00000000 0.81867036
1.00000000 1.00000000 0.81867036
0.95318801 1.00000000 0.75882979
0.95318801 1.00000000 0.82475424
0.95318801 1.00000000 0.87378466
0.95318801 1.00000000 0.90448041
0.95318801 1.00000000 0.91684150
0.95318801 1.00000000 0.91706775
0.99996863 1.00000000 0.91706775
1.00000000 1.00000000 0.91706775
1.00000000 1.00000000 0.91706775
0.78074342 0.41842604 0.76906248
0.78074342 0.58804337 0.83024767
0.78074342 0.71238922 0.87445060
0.78074342 0.78773578 0.90031886
0.78074342 0.81408375 0.90785312
0.78074342 0.81408509 0.90785323
0.87990774 0.81408509 0.90785323
1.00000000 0.81408509 0.90785323
1.00000000 0.81408509 0.90785323
0.84659930 0.41842604 0.76906248
0.84659930 0.58804337 0.83024767
0.84659930 0.71238922 0.87445060
0.84659930 0.78773578 0.90031886
0.84659930 0.81408375 0.90785312
0.84659930 0.81408509 0.90785323
0.94083201 0.81408509 0.90785323
1.00000000 0.81408509 0.90785323
1.00000000 0.81408509 0.90785323
0.89750778 0.41842604 0.76906248
0.89750778 0.58804337 0.83024767
0.89750778 0.71238922 0.87445060
0.89750778 0.78773578 0.90031886
0.89750778 0.81408375 0.90785312
0.89750778 0.81408509 0.90785323
0.98670678 0.81408509 0.90785323
1.00000000 0.81408509 0.90785323
1.00000000 0.81408509 0.90785323
0.93205245 0.41842604 0.76906248
0.93205245 0.58804337 0.83024767
0.93205245 0.71238922 0.87445060
0.93205245 0.78773578 0.90031886
0.93205245 0.81408375 0.90785312
0.93205245 0.81408509 0.90785323
0.99995617 0.81408509 0.90785323
1.00000000 0.81408509 0.90785323
1.00000000 0.81408509 0.90785323
0.95023332 0.41842604 0.76906248
0.95023332 0.58804337 0.83024767
0.95023332 0.71238922 0.87445060
0.95023332 0.78773578 0.90031886
0.95023332 0.81408375 0.90785312
0.95023332 0.81408509 0.90785323
0.99996665 0.81408509 0.90785323
1.00000000 0.81408509 0.90785323
1.00000000 0.81408509 0.90785323
0.95318801 0.41842604 0.76906248
0.95318801 0.58804337 0.83024767
0.95318801 0.71238923 0.87445060
0.95318801 0.78773578 0.90031886
0.95318801 0.81408375 0.90785312
0.95318801 0.81408509 0.90785323
0.99996863 0.81408509 0.90785323
1.00000000 0.81408509 0.90785323
1.00000000 0.81408509 0.90785323
0.95318801 0.58919147 0.76906248
0.95318801 0.76056166 0.83024767
0.95318801 0.88669299 0.87445060
0.95318801 0.96379675 0.90031886
0.95318801 0.99191100 0.90785312
0.95318801 0.99191263 0.90785323
0.99996863 0.99191263 0.90785323
1.00000000 0.99191263 0.90785323
1.00000000 0.99191263 0.90785323
0.95318801 0.93604039 0.76906248
0.95318801 0.99999998 0.83024973
0.95318801 1.00000000 0.87445636
0.95318801 1.00000000 0.90032833
0.95318801 1.00000000 0.90786629
0.95318801 1.00000000 0.90786667
0.99996863 1.00000000 0.90786667
1.00000000 1.00000000 0.90786667
1.00000000 1.00000000 0.90786667
0.95318801 1.00000000 0.83969842
0.95318801 1.00000000 0.90685572
0.95318801 1.00000000 0.95714194
0.95318801 1.00000000 0.98908825
0.95318801 1.00000000 0.99997333
0.95318801 1.00000000 0.99997397
0.99996863 1.00000000 0.99997397
1.00000000 1.00000000 0.99997397
1.00000000 1.00000000 0.99997397
0.78074342 0.41842604 0.84819485
0.78074342 0.58804337 0.90811069
0.78074342 0.71238922 0.95102063
0.78074342 0.78773578 0.97559591
0.78074342 0.81408375 0.98199601
0.78074342 0.81408509 0.98199601
0.87990774 0.81408509 0.98199601
1.00000000 0.81408509 0.98199601
1.00000000 0.81408509 0.98199601
0.84659930 0.41842604 0.84819485
0.84659930 0.58804337 0.90811069
0.84659930 0.71238922 0.95102063
0.84659930 0.78773578 0.97559591
0.84659930 0.81408375 0.98199601
0.84659930 0.81408509 0.98199601
0.94083201 0.81408509 0.98199601
1.00000000 0.81408509 0.98199601
1.00000000 0.81408509 0.98199601
0.89750778 0.41842604 0.84819485
0.89750778 0.58804337 0.90811069
0.89750778 0.71238922 0.95102063
0.89750778 0.78773578 0.97559591
0.89750778 0.81408375 0.98199601
0.89750778 0.81408509 0.98199601
0.98670678 0.81408509 0.98199601
1.00000000 0.81408509 0.98199601
1.00000000 0.81408509 0.98199601
0.93205245 0.41842604 0.84819485
0.93205245 0.58804337 0.90811069
0.93205245 0.71238922 0.95102063
0.93205245 0.78773578 0.97559591
0.93205245 0.81408375 0.98199601
0.93205245 0.81408509 0.98199601
0.99995617 0.81408509 0.98199601
1.00000000 0.81408509 0.98199601
1.00000000 0.81408509 0.98199601
0.95023332 0.41842604 0.84819485
0.95023332 0.58804337 0.90811069
0.95023332 0.71238922 0.95102063
0.95023332 0.78773578 0.97559591
0.95023332 0.81408375 0.98199601
0.95023332 0.81408509 0.98199601
0.99996665 0.81408509 0.98199601
1.00000000 0.81408509 0.98199601
1.00000000 0.81408509 0.98199601
0.95318801 0.41842604 0.84819485
0.95318801 0.58804337 0.90811069
0.95318801 0.71238923 0.95102063
0.95318801 0.78773578 0.97559591
0.95318801 0.81408375 0.98199601
0.95318801 0.81408509 0.98199601
0.99996863 0.81408509 0.98199601
1.00000000 0.81408509 0.98199601
1.00000000 0.81408509 0.98199601
0.95318801 0.58919147 0.84819485
0.95318801 0.76056166 0.90811069
0.95318801 0.88669299 0.95102063
0.95318801 0.96379675 0.97559591
0.95318801 0.99191100 0.98199601
0.95318801 0.99191263 0.98199601
0.99996863 0.99191263 0.98199601
1.00000000 0.99191263 0.98199601
1.00000000 0.99191263 0.98199601
0.95318801 0.93604039 0.84819485
0.95318801 0.99999998 0.90811069
0.95318801 1.00000000 0.95102102
0.95318801 1.00000000 0.97560155
0.95318801 1.00000000 0.98200679
0.95318801 1.00000000 0.98200723
0.99996863 1.00000000 0.98200723
1.00000000 1.00000000 0.98200723
1.00000000 1.00000000 0.98200723
0.95318801 1.00000000 0.90495761
0.95318801 1.00000000 0.97334777
0.95318801 1.00000000 0.99999998
0.95318801 1.00000000 1.00000000
0.95318801 1.00000000 1.00000000
0.95318801 1.00000000 1.00000000
0.99996863 1.00000000 1.00000000
1.00000000 1.00000000 1.00000000
1.00000000 1.00000000 1.00000000
0.78074342 0.41842604 0.91152744
0.78074342 0.58804337 0.97019712
0.78074342 0.71238922 0.99999879
0.78074342 0.78773578 1.00000000
0.78074342 0.81408375 1.00000000
0.78074342 0.81408509 1.00000000
0.87990774 0.81408509 1.00000000
1.00000000 0.81408509 1.00000000
1.00000000 0.81408509 1.00000000
0.84659930 0.41842604 0.91152744
0.84659930 0.58804337 0.97019712
0.84659930 0.71238922 0.99999879
0.84659930 0.78773578 1.00000000
0.84659930 0.81408375 1.00000000
0.84659930 0.81408509 1.00000000
0.94083201 0.81408509 1.00000000
1.00000000 0.81408509 1.00000000
1.00000000 0.81408509 1.00000000
0.89750778 0.41842604 0.91152744
0.89750778 0.58804337 0.97019712
0.89750778 0.71238922 0.99999879
0.89750778 0.78773578 1.00000000
0.89750778 0.81408375 1.00000000
0.89750778 0.81408509 1.00000000
0.98670678 0.81408509 1.00000000
1.00000000 0.81408509 1.00000000
1.00000000 0.81408509 1.00000000
0.93205245 0.41842604 0.91152744
0.93205245 0.58804337 0.97019712
0.93205245 0.71238922 0.99999879
0.93205245 0.78773578 1.00000000
0.93205245 0.81408375 1.00000000
0.93205245 0.81408509 1.00000000
0.99995617 0.81408509 1.00000000
1.00000000 0.81408509 1.00000000
1.00000000 0.81408509 1.00000000
0.95023332 0.41842604 0.91152744
0.95023332 0.58804337 0.97019712
0.95023332 0.71238922 0.99999879
0.95023332 0.78773578 1.00000000
0.95023332 0.81408375 1.00000000
0.95023332 0.81408509 1.00000000
0.99996665 0.81408509 1.00000000
1.00000000 0.81408509 1.00000000
1.00000000 0.81408509 1.00000000
0.95318801 0.41842604 0.91152744
0.95318801 0.58804337 0.97019712
0.95318801 0.71238923 0.99999879
0.95318801 0.78773578 1.00000000
0.95318801 0.81408375 1.00000000
0.95318801 0.81408509 1.00000000
0.99996863 0.81408509 1.00000000
1.00000000 0.81408509 1.00000000
1.00000000 0.81408509 1.00000000
0.95318801 0.58919147 0.91152744
0.95318801 0.76056166 0.97019712
0.95318801 0.88669299 0.99999879
0.95318801 0.96379675 1.00000000
0.95318801 0.99191100 1.00000000
0.95318801 0.99191263 1.00000000
0.99996863 0.99191263 1.00000000
1.00000000 0.99191263 1.00000000
1.00000000 0.99191263 1.00000000
0.95318801 0.93604039 0.91152744
0.95318801 0.99999998 0.97019712
0.95318801 1.00000000 0.99999879
0.95318801 1.00000000 1.00000000
0.95318801 1.00000000 1.00000000
0.95318801 1.00000000 1.00000000
0.99996863 1.00000000 1.00000000
1.00000000 1.00000000 1.00000000
1.00000000 1.00000000 1.00000000
0.95318801 1.00000000 0.95467057
0.95318801 1.00000000 0.99999998
0.95318801 1.00000000 1.00000000
0.95318801 1.00000000 1.00000000
0.95318801 1.00000000 1.00000000
0.95318801 1.00000000 1.00000000
0.99996863 1.00000000 1.00000000
1.00000000 1.00000000 1.00000000
1.00000000 1.00000000 1.00000000
