data/manual_verify/canoncgt_candidates2/candidate_b.cube
TITLE "LocalColorService CanonCGT fitted transform"
LUT_3D_SIZE 33
DOMAIN_MIN 0.0 0.0 0.0
DOMAIN_MAX 1.0 1.0 1.0
0.00004752 0.00004941 0.00000747
0.00004752 0.03460966 0.00002264
0.00004752 0.07941343 0.00495709
0.00004752 0.12116588 0.02194325
0.00004752 0.15985588 0.03779234
0.00004752 0.19548343 0.05249552
0.00004752 0.22804851 0.06605278
0.00004752 0.25755115 0.07846412
0.00004752 0.28399132 0.08972955
0.00004752 0.30736904 0.09984907
0.00004752 0.32768430 0.10882266
0.00004752 0.34493711 0.11665034
0.00004752 0.35912746 0.12333211
0.00004752 0.37025536 0.12886795
0.00004752 0.37832079 0.13325789
0.00004752 0.38332377 0.13650190
0.00004752 0.38526505 0.13860000
0.00004752 0.38526635 0.13955231
0.00004752 0.38526635 0.13955295
0.00004752 0.38526635 0.13955295
0.00004752 0.38526635 0.13955295
0.00004752 0.38526635 0.13955295
0.00005936 0.38526635 0.13955295
0.01775136 0.38526635 0.13955295
0.10094760 0.38526635 0.13955295
0.19100697 0.38526635 0.13955295
0.28789011 0.38526635 0.13955295
0.39159701 0.38526635 0.13955295
0.50212767 0.38526635 0.13955295
0.61948210 0.38526635 0.13955295
0.74366029 0.38526635 0.13955295
0.87464799 0.38526635 0.13955295
0.99991597 0.38526635 0.13955295
0.00006996 0.00004941 0.00000747
0.00006996 0.03460966 0.00002264
0.00006996 0.07941343 0.00495709
0.00006996 0.12116588 0.02194325
0.00006996 0.15985588 0.03779234
0.00006996 0.19548343 0.05249552
0.00006996 0.22804851 0.06605278
0.00006996 0.25755115 0.07846412
0.00006996 0.28399132 0.08972955
0.00006996 0.30736904 0.09984907
0.00006996 0.32768430 0.10882266
0.00006996 0.34493711 0.11665034
0.00006996 0.35912746 0.12333211
0.00006996 0.37025536 0.12886795
0.00006996 0.37832079 0.13325789
0.00006996 0.38332377 0.13650190
0.00006996 0.38526505 0.13860000
0.00006996 0.38526635 0.13955231
0.00006996 0.38526635 0.13955295
0.00006996 0.38526635 0.13955295
0.00006996 0.38526635 0.13955295
0.00006997 0.38526635 0.13955295
0.00009208 0.38526635 0.13955295
0.03309909 0.38526635 0.13955295
0.11620300 0.38526635 0.13955295
0.20615969 0.38526635 0.13955295
0.30294015 0.38526635 0.13955295
0.40654437 0.38526635 0.13955295
0.51697236 0.38526635 0.13955295
0.63422411 0.38526635 0.13955295
0.75829962 0.38526635 0.13955295
0.88917498 0.38526635 0.13955295
0.99992571 0.38526635 0.13955295
0.01589370 0.00004941 0.00000747
0.01589370 0.03460966 0.00002264
0.01589370 0.07941343 0.00495709
0.01589370 0.12116588 0.02194325
0.01589370 0.15985588 0.03779234
0.01589370 0.19548343 0.05249552
0.01589370 0.22804851 0.06605278
0.01589370 0.25755115 0.07846412
0.01589370 0.28399132 0.08972955
0.01589370 0.30736904 0.09984907
0.01589370 0.32768430 0.10882266
0.01589370 0.34493711 0.11665034
0.01589370 0.35912746 0.12333211
0.01589370 0.37025536 0.12886795
0.01589370 0.37832079 0.13325789
0.01589370 0.38332377 0.13650190
0.01589370 0.38526505 0.13860000
0.01589370 0.38526635 0.13955231
0.01589370 0.38526635 0.13955295
0.01589370 0.38526635 0.13955295
0.01589370 0.38526635 0.13955295
0.01589370 0.38526635 0.13955295
0.01591568 0.38526635 0.13955295
0.04872307 0.38526635 0.13955295
0.13171616 0.38526635 0.13955295
0.22156210 0.38526635 0.13955295
0.31823180 0.38526635 0.13955295
0.42172527 0.38526635 0.13955295
0.53204251 0.38526635 0.13955295
0.64918350 0.38526635 0.13955295
0.77314825 0.38526635 0.13955295
0.90390306 0.38526635 0.13955295
0.99993559 0.38526635 0.13955295
0.03303450 0.00004941 0.00000747
0.03303450 0.03460966 0.00002264
0.03303450 0.07941343 0.00495709
0.03303450 0.12116588 0.02194325
0.03303450 0.15985588 0.03779234
0.03303450 0.19548343 0.05249552
0.03303450 0.22804851 0.06605278
0.03303450 0.25755115 0.07846412
0.03303450 0.28399132 0.08972955
0.03303450 0.30736904 0.09984907
0.03303450 0.32768430 0.10882266
0.03303450 0.34493711 0.11665034
0.03303450 0.35912746 0.12333211
0.03303450 0.37025536 0.12886795
0.03303450 0.37832079 0.13325789
0.03303450 0.38332377 0.13650190
0.03303450 0.38526505 0.13860000
0.03303450 0.38526635 0.13955231
0.03303450 0.38526635 0.13955295
0.03303450 0.38526635 0.13955295
0.03303450 0.38526635 0.13955295
0.03303450 0.38526635 0.13955295
0.03305478 0.38526635 0.13955295
0.06332750 0.38526635 0.13955295
0.14620820 0.38526635 0.13955295
0.23594338 0.38526635 0.13955295
0.33250232 0.38526635 0.13955295
0.43588503 0.38526635 0.13955295
0.54609149 0.38526635 0.13955295
0.66312173 0.38526635 0.13955295
0.78697571 0.38526635 0.13955295
0.91760593 0.38526635 0.13955295
0.99994478 0.38526635 0.13955295
0.04915413 0.00004941 0.00000747
0.04915413 0.03460966 0.00002264
0.04915413 0.07941343 0.00495709
0.04915413 0.12116588 0.02194325
0.04915413 0.15985588 0.03779234
0.04915413 0.19548343 0.05249552
0.04915413 0.22804851 0.06605278
0.04915413 0.25755115 0.07846412
0.04915413 0.28399132 0.08972955
0.04915413 0.30736904 0.09984907
0.04915413 0.32768430 0.10882266
0.04915413 0.34493711 0.11665034
0.04915413 0.35912746 0.12333211
0.04915413 0.37025536 0.12886795
0.04915413 0.37832079 0.13325789
0.04915413 0.38332377 0.13650190
0.04915413 0.38526505 0.13860000
0.04915413 0.38526635 0.13955231
0.04915413 0.38526635 0.13955295
0.04915413 0.38526635 0.13955295
0.04915413 0.38526635 0.13955295
0.04915413 0.38526635 0.13955295
0.04917271 0.38526635 0.13955295
0.07690921 0.38526635 0.13955295
0.15967751 0.38526635 0.13955295
0.24930192 0.38526635 0.13955295
0.34575010 0.38526635 0.13955295
0.44902204 0.38526635 0.13955295
0.55911775 0.38526635 0.13955295
0.67603721 0.38526635 0.13955295
0.79978042 0.38526635 0.13955295
0.93028293 0.38526635 0.13955295
0.99995328 0.38526635 0.13955295
0.06425102 0.00004941 0.00000747
0.06425102 0.03460966 0.00002264
0.06425102 0.07941343 0.00495709
0.06425102 0.12116588 0.02194325
0.06425102 0.15985588 0.03779234
0.06425102 0.19548343 0.05249552
0.06425102 0.22804851 0.06605278
0.06425102 0.25755115 0.07846412
0.06425102 0.28399132 0.08972955
0.06425102 0.30736904 0.09984907
0.06425102 0.32768430 0.10882266
0.06425102 0.34493711 0.11665034
0.06425102 0.35912746 0.12333211
0.06425102 0.37025536 0.12886795
0.06425102 0.37832079 0.13325789
0.06425102 0.38332377 0.13650190
0.06425102 0.38526505 0.13860000
0.06425102 0.38526635 0.13955231
0.06425102 0.38526635 0.13955295
0.06425102 0.38526635 0.13955295
0.06425102 0.38526635 0.13955295
0.06425102 0.38526635 0.13955295
0.06426790 0.38526635 0.13955295
0.08946817 0.38526635 0.13955295
0.17212409 0.38526635 0.13955295
0.26163773 0.38526635 0.13955295
0.35797514 0.38526635 0.13955295
0.46113632 0.38526635 0.13955295
0.57112126 0.38526635 0.13955295
0.68792996 0.38526635 0.13955295
0.81156240 0.38526635 0.13955295
0.94193856 0.38526635 0.13955295
0.99996110 0.38526635 0.13955295
0.07832517 0.00004941 0.00000747
0.07832517 0.03460966 0.00002264
0.07832517 0.07941343 0.00495709
0.07832517 0.12116588 0.02194325
0.07832517 0.15985588 0.03779234
0.07832517 0.19548343 0.05249552
0.07832517 0.22804851 0.06605278
0.07832517 0.25755115 0.07846412
0.07832517 0.28399132 0.08972955
0.07832517 0.30736904 0.09984907
0.07832517 0.32768430 0.10882266
0.07832517 0.34493711 0.11665034
0.07832517 0.35912746 0.12333211
0.07832517 0.37025536 0.12886795
0.07832517 0.37832079 0.13325789
0.07832517 0.38332377 0.13650190
0.07832517 0.38526505 0.13860000
0.07832517 0.38526635 0.13955231
0.07832517 0.38526635 0.13955295
0.07832517 0.38526635 0.13955295
0.07832517 0.38526635 0.13955295
0.07832518 0.38526635 0.13955295
0.07834035 0.38526635 0.13955295
0.10100439 0.38526635 0.13955295
0.18354792 0.38526635 0.13955295
0.27295080 0.38526635 0.13955295
0.36917745 0.38526635 0.13955295
0.47222786 0.38526635 0.13955295
0.58210203 0.38526635 0.13955295
0.69879997 0.38526635 0.13955295
0.82232164 0.38526635 0.13955295
0.95257282 0.38526635 0.13955295
0.99996823 0.38526635 0.13955295
0.09137659 0.00004941 0.00000747
0.09137659 0.03460966 0.00002264
0.09137659 0.07941343 0.00495709
0.09137659 0.12116588 0.02194325
0.09137659 0.15985588 0.03779234
0.09137659 0.19548343 0.05249552
0.09137659 0.22804851 0.06605278
0.09137659 0.25755115 0.07846412
0.09137659 0.28399132 0.08972955
0.09137659 0.30736904 0.09984907
0.09137659 0.32768430 0.10882266
0.09137659 0.34493711 0.11665034
0.09137659 0.35912746 0.12333211
0.09137659 0.37025536 0.12886795
0.09137659 0.37832079 0.13325789
0.09137659 0.38332377 0.13650190
0.09137659 0.38526505 0.13860000
0.09137659 0.38526635 0.13955231
0.09137659 0.38526635 0.13955295
0.09137659 0.38526635 0.13955295
0.09137659 0.38526635 0.13955295
0.09137659 0.38526635 0.13955295
0.09139007 0.38526635 0.13955295
0.11151788 0.38526635 0.13955295
0.19394902 0.38526635 0.13955295
0.28324113 0.38526635 0.13955295
0.37935701 0.38526635 0.13955295
0.48229666 0.38526635 0.13955295
0.59206007 0.38526635 0.13955295
0.70864725 0.38526635 0.13955295
0.83205814 0.38526635 0.13955295
0.96218571 0.38526635 0.13955295
0.99997468 0.38526635 0.13955295
0.10340527 0.00004941 0.00000747
0.10340527 0.03460966 0.00002264
0.10340527 0.07941343 0.00495709
0.10340527 0.12116588 0.02194325
0.10340527 0.15985588 0.03779234
0.10340527 0.19548343 0.05249552
0.10340527 0.22804851 0.06605278
0.10340527 0.25755115 0.07846412
0.10340527 0.28399132 0.08972955
0.10340527 0.30736904 0.09984907
0.10340527 0.32768430 0.10882266
0.10340527 0.34493711 0.11665034
0.10340527 0.35912746 0.12333211
0.10340527 0.37025536 0.12886795
0.10340527 0.37832079 0.13325789
0.10340527 0.38332377 0.13650190
0.10340527 0.38526505 0.13860000
0.10340527 0.38526635 0.13955231
0.10340527 0.38526635 0.13955295
0.10340527 0.38526635 0.13955295
0.10340527 0.38526635 0.13955295
0.10340527 0.38526635 0.13955295
0.10341704 0.38526635 0.13955295
0.12100863 0.38526635 0.13955295
0.20332737 0.38526635 0.13955295
0.29250872 0.38526635 0.13955295
0.38851384 0.38526635 0.13955295
0.49134273 0.38526635 0.13955295
0.60099537 0.38526635 0.13955295
0.71747178 0.38526635 0.13955295
0.84077191 0.38526635 0.13955295
0.97077723 0.38526635 0.13955295
0.99998044 0.38526635 0.13955295
0.11441121 0.00004941 0.00000747
0.11441121 0.03460966 0.00002264
0.11441121 0.07941343 0.00495709
0.11441121 0.12116588 0.02194325
0.11441121 0.15985588 0.03779234
0.11441121 0.19548343 0.05249552
0.11441121 0.22804851 0.06605278
0.11441121 0.25755115 0.07846412
0.11441121 0.28399132 0.08972955
0.11441121 0.30736904 0.09984907
0.11441121 0.32768430 0.10882266
0.11441121 0.34493711 0.11665034
0.11441121 0.35912746 0.12333211
0.11441121 0.37025536 0.12886795
0.11441121 0.37832079 0.13325789
0.11441121 0.38332377 0.13650190
0.11441121 0.38526505 0.13860000
0.11441121 0.38526635 0.13955231
0.11441121 0.38526635 0.13955295
0.11441121 0.38526635 0.13955295
0.11441121 0.38526635 0.13955295
0.11441121 0.38526635 0.13955295
0.11442128 0.38526635 0.13955295
0.12947664 0.38526635 0.13955295
0.21168299 0.38526635 0.13955295
0.30075358 0.38526635 0.13955295
0.39664793 0.38526635 0.13955295
0.49936605 0.38526635 0.13955295
0.60890793 0.38526635 0.13955295
0.72527358 0.38526635 0.13955295
0.84846294 0.38526635 0.13955295
0.97834739 0.38526635 0.13955295
0.99998552 0.38526635 0.13955295
0.12439441 0.00004941 0.00000747
0.12439441 0.03460966 0.00002264
0.12439441 0.07941343 0.00495709
0.12439441 0.12116588 0.02194325
0.12439441 0.15985588 0.03779234
0.12439441 0.19548343 0.05249552
0.12439441 0.22804851 0.06605278
0.12439441 0.25755115 0.07846412
0.12439441 0.28399132 0.08972955
0.12439441 0.30736904 0.09984907
0.12439441 0.32768430 0.10882266
0.12439441 0.34493711 0.11665034
0.12439441 0.35912746 0.12333211
0.12439441 0.37025536 0.12886795
0.12439441 0.37832079 0.13325789
0.12439441 0.38332377 0.13650190
0.12439441 0.38526505 0.13860000
0.12439441 0.38526635 0.13955231
0.12439441 0.38526635 0.13955295
0.12439441 0.38526635 0.13955295
0.12439441 0.38526635 0.13955295
0.12439441 0.38526635 0.13955295
0.12440278 0.38526635 0.13955295
0.13692192 0.38526635 0.13955295
0.21901588 0.38526635 0.13955295
0.30797570 0.38526635 0.13955295
0.40375929 0.38526635 0.13955295
0.50636664 0.38526635 0.13955295
0.61579776 0.38526635 0.13955295
0.73205264 0.38526635 0.13955295
0.85513123 0.38526635 0.13955295
0.98489618 0.38526635 0.13955295
0.99998991 0.38526635 0.13955295
0.13335487 0.00004941 0.00000747
0.13335487 0.03460966 0.00002264
0.13335487 0.07941343 0.00495709
0.13335487 0.12116588 0.02194325
0.13335487 0.15985588 0.03779234
0.13335487 0.19548343 0.05249552
0.13335487 0.22804851 0.06605278
0.13335487 0.25755115 0.07846412
0.13335487 0.28399132 0.08972955
0.13335487 0.30736904 0.09984907
0.13335487 0.32768430 0.10882266
0.13335487 0.34493711 0.11665034
0.13335487 0.35912746 0.12333211
0.13335487 0.37025536 0.12886795
0.13335487 0.37832079 0.13325789
0.13335487 0.38332377 0.13650190
0.13335487 0.38526505 0.13860000
0.13335487 0.38526635 0.13955231
0.13335487 0.38526635 0.13955295
0.13335487 0.38526635 0.13955295
0.13335487 0.38526635 0.13955295
0.13335487 0.38526635 0.13955295
0.13336154 0.38526635 0.13955295
0.14334445 0.38526635 0.13955295
0.22532602 0.38526635 0.13955295
0.31417507 0.38526635 0.13955295
0.40984790 0.38526635 0.13955295
0.51234449 0.38526635 0.13955295
0.62166484 0.38526635 0.13955295
0.73780896 0.38526635 0.13955295
0.86077678 0.38526635 0.13955295
0.99042359 0.38526635 0.13955295
0.99999362 0.38526635 0.13955295
0.14129260 0.00004941 0.00000747
0.14129260 0.03460966 0.00002264
0.14129260 0.07941343 0.00495709
0.14129260 0.12116588 0.02194325
0.14129260 0.15985588 0.03779234
0.14129260 0.19548343 0.05249552
0.14129260 0.22804851 0.06605278
0.14129260 0.25755115 0.07846412
0.14129260 0.28399132 0.08972955
0.14129260 0.30736904 0.09984907
0.14129260 0.32768430 0.10882266
0.14129260 0.34493711 0.11665034
0.14129260 0.35912746 0.12333211
0.14129260 0.37025536 0.12886795
0.14129260 0.37832079 0.13325789
0.14129260 0.38332377 0.13650190
0.14129260 0.38526505 0.13860000
0.14129260 0.38526635 0.13955231
0.14129260 0.38526635 0.13955295
0.14129260 0.38526635 0.13955295
0.14129260 0.38526635 0.13955295
0.14129260 0.38526635 0.13955295
0.14129757 0.38526635 0.13955295
0.14874425 0.38526635 0.13955295
0.23061343 0.38526635 0.13955295
0.31935172 0.38526635 0.13955295
0.41491378 0.38526635 0.13955295
0.51729960 0.38526635 0.13955295
0.62650919 0.38526635 0.13955295
0.74254254 0.38526635 0.13955295
0.86539959 0.38526635 0.13955295
0.99492965 0.38526635 0.13955295
0.99999664 0.38526635 0.13955295
0.14820759 0.00004941 0.00000747
0.14820759 0.03460966 0.00002264
0.14820759 0.07941343 0.00495709
0.14820759 0.12116588 0.02194325
0.14820759 0.15985588 0.03779234
0.14820759 0.19548343 0.05249552
0.14820759 0.22804851 0.06605278
0.14820759 0.25755115 0.07846412
0.14820759 0.28399132 0.08972955
0.14820759 0.30736904 0.09984907
0.14820759 0.32768430 0.10882266
0.14820759 0.34493711 0.11665034
0.14820759 0.35912746 0.12333211
0.14820759 0.37025536 0.12886795
0.14820759 0.37832079 0.13325789
0.14820759 0.38332377 0.13650190
0.14820759 0.38526505 0.13860000
0.14820759 0.38526635 0.13955231
0.14820759 0.38526635 0.13955295
0.14820759 0.38526635 0.13955295
0.14820759 0.38526635 0.13955295
0.14820759 0.38526635 0.13955295
0.14821085 0.38526635 0.13955295
0.15312131 0.38526635 0.13955295
0.23487809 0.38526635 0.13955295
0.32350562 0.38526635 0.13955295
0.41895692 0.38526635 0.13955295
0.52123198 0.38526635 0.13955295
0.63033080 0.38526635 0.13955295
0.74625339 0.38526635 0.13955295
0.86899967 0.38526635 0.13955295
0.99841368 0.38526635 0.13955295
0.99999898 0.38526635 0.13955295
0.15409984 0.00004941 0.00000747
0.15409984 0.03460966 0.00002264
0.15409984 0.07941343 0.00495709
0.15409984 0.12116588 0.02194325
0.15409984 0.15985588 0.03779234
0.15409984 0.19548343 0.05249552
0.15409984 0.22804851 0.06605278
0.15409984 0.25755115 0.07846412
0.15409984 0.28399132 0.08972955
0.15409984 0.30736904 0.09984907
0.15409984 0.32768430 0.10882266
0.15409984 0.34493711 0.11665034
0.15409984 0.35912746 0.12333211
0.15409984 0.37025536 0.12886795
0.15409984 0.37832079 0.13325789
0.15409984 0.38332377 0.13650190
0.15409984 0.38526505 0.13860000
0.15409984 0.38526635 0.13955231
0.15409984 0.38526635 0.13955295
0.15409984 0.38526635 0.13955295
0.15409984 0.38526635 0.13955295
0.15409984 0.38526635 0.13955295
0.15410140 0.38526635 0.13955295
0.15647578 0.38526635 0.13955295
0.23812002 0.38526635 0.13955295
0.32663678 0.38526635 0.13955295
0.42197732 0.38526635 0.13955295
0.52414161 0.38526635 0.13955295
0.63312967 0.38526635 0.13955295
0.74894149 0.38526635 0.13955295
0.87157637 0.38526635 0.13955295
0.99991292 0.38526635 0.13955295
0.99999998 0.38526635 0.13955295
0.15896935 0.00004941 0.00000747
0.15896935 0.03460966 0.00002264
0.15896935 0.07941343 0.00495709
0.15896935 0.12116588 0.02194325
0.15896935 0.15985588 0.03779234
0.15896935 0.19548343 0.05249552
0.15896935 0.22804851 0.06605278
0.15896935 0.25755115 0.07846412
0.15896935 0.28399132 0.08972955
0.15896935 0.30736904 0.09984907
0.15896935 0.32768430 0.10882266
0.15896935 0.34493711 0.11665034
0.15896935 0.35912746 0.12333211
0.15896935 0.37025536 0.12886795
0.15896935 0.37832079 0.13325789
0.15896935 0.38332377 0.13650190
0.15896935 0.38526505 0.13860000
0.15896935 0.38526635 0.13955231
0.15896935 0.38526635 0.13955295
0.15896935 0.38526635 0.13955295
0.15896935 0.38526635 0.13955295
0.15896935 0.38526635 0.13955295
0.15896936 0.38526635 0.13955295
0.15902544 0.38526635 0.13955295
0.24033936 0.38526635 0.13955295
0.32874521 0.38526635 0.13955295
0.42397498 0.38526635 0.13955295
0.52602851 0.38526635 0.13955295
0.63490581 0.38526635 0.13955295
0.75060686 0.38526635 0.13955295
0.87313000 0.38526635 0.13955295
0.99991496 0.38526635 0.13955295
0.99999999 0.38526635 0.13955295
0.16281612 0.00004941 0.00000747
0.16281612 0.03460966 0.00002264
0.16281612 0.07941343 0.00495709
0.16281612 0.12116588 0.02194325
0.16281612 0.15985588 0.03779234
0.16281612 0.19548343 0.05249552
0.16281612 0.22804851 0.06605278
0.16281612 0.25755115 0.07846412
0.16281612 0.28399132 0.08972955
0.16281612 0.30736904 0.09984907
0.16281612 0.32768430 0.10882266
0.16281612 0.34493711 0.11665034
0.16281612 0.35912746 0.12333211
0.16281612 0.37025536 0.12886795
0.16281612 0.37832079 0.13325789
0.16281612 0.38332377 0.13650190
0.16281612 0.38526505 0.13860000
0.16281612 0.38526635 0.13955231
0.16281612 0.38526635 0.13955295
0.16281612 0.38526635 0.13955295
0.16281612 0.38526635 0.13955295
0.16281612 0.38526635 0.13955295
0.16281613 0.38526635 0.13955295
0.16286888 0.38526635 0.13955295
0.24153752 0.38526635 0.13955295
0.32983090 0.38526635 0.13955295
0.42494994 0.38526635 0.13955295
0.52689278 0.38526635 0.13955295
0.63565938 0.38526635 0.13955295
0.75124975 0.38526635 0.13955295
0.87366192 0.38526635 0.13955295
0.99991532 0.38526635 0.13955295
0.99999999 0.38526635 0.13955295
0.16564016 0.00004941 0.00000747
0.16564016 0.03460966 0.00002264
0.16564016 0.07941343 0.00495709
0.16564016 0.12116588 0.02194325
0.16564016 0.15985588 0.03779234
0.16564016 0.19548343 0.05249552
0.16564016 0.22804851 0.06605278
0.16564016 0.25755115 0.07846412
0.16564016 0.28399132 0.08972955
0.16564016 0.30736904 0.09984907
0.16564016 0.32768430 0.10882266
0.16564016 0.34493711 0.11665034
0.16564016 0.35912746 0.12333211
0.16564016 0.37025536 0.12886795
0.16564016 0.37832079 0.13325789
0.16564016 0.38332377 0.13650190
0.16564016 0.38526505 0.13860000
0.16564016 0.38526635 0.13955231
0.16564016 0.38526635 0.13955295
0.16564016 0.38526635 0.13955295
0.16564016 0.38526635 0.13955295
0.16564016 0.38526635 0.13955295
0.16564017 0.38526635 0.13955295
0.16569114 0.38526635 0.13955295
0.24171350 0.38526635 0.13955295
0.32989453 0.38526635 0.13955295
0.42495063 0.38526635 0.13955295
0.52689336 0.38526635 0.13955295
0.63565989 0.38526635 0.13955295
0.75125018 0.38526635 0.13955295
0.87366227 0.38526635 0.13955295
0.99991532 0.38526635 0.13955295
0.99999999 0.38526635 0.13955295
0.16744146 0.00004941 0.00000747
0.16744146 0.03460966 0.00002264
0.16744146 0.07941343 0.00495709
0.16744146 0.12116588 0.02194325
0.16744146 0.15985588 0.03779234
0.16744146 0.19548343 0.05249552
0.16744146 0.22804851 0.06605278
0.16744146 0.25755115 0.07846412
0.16744146 0.28399132 0.08972955
0.16744146 0.30736904 0.09984907
0.16744146 0.32768430 0.10882266
0.16744146 0.34493711 0.11665034
0.16744146 0.35912746 0.12333211
0.16744146 0.37025536 0.12886795
0.16744146 0.37832079 0.13325789
0.16744146 0.38332377 0.13650190
0.16744146 0.38526505 0.13860000
0.16744146 0.38526635 0.13955231
0.16744146 0.38526635 0.13955295
0.16744146 0.38526635 0.13955295
0.16744146 0.38526635 0.13955295
0.16744146 0.38526635 0.13955295
0.16744146 0.38526635 0.13955295
0.16749123 0.38526635 0.13955295
0.24171483 0.38526635 0.13955295
0.32989457 0.38526635 0.13955295
0.42495063 0.38526635 0.13955295
0.52689336 0.38526635 0.13955295
0.63565989 0.38526635 0.13955295
0.75125018 0.38526635 0.13955295
0.87366227 0.38526635 0.13955295
0.99991532 0.38526635 0.13955295
0.99999999 0.38526635 0.13955295
0.16822018 0.00004941 0.00000747
0.16822018 0.03460966 0.00002264
0.16822018 0.07941343 0.00495709
0.16822018 0.12116588 0.02194325
0.16822018 0.15985588 0.03779234
0.16822018 0.19548343 0.05249552
0.16822018 0.22804851 0.06605278
0.16822018 0.25755115 0.07846412
0.16822018 0.28399132 0.08972955
0.16822018 0.30736904 0.09984907
0.16822018 0.32768430 0.10882266
0.16822018 0.34493711 0.11665034
0.16822018 0.35912746 0.12333211
0.16822018 0.37025536 0.12886795
0.16822018 0.37832079 0.13325789
0.16822018 0.38332377 0.13650190
0.16822018 0.38526505 0.13860000
0.16822018 0.38526635 0.13955231
0.16822018 0.38526635 0.13955295
0.16822018 0.38526635 0.13955295
0.16822018 0.38526635 0.13955295
0.16822018 0.38526635 0.13955295
0.16822019 0.38526635 0.13955295
0.16826944 0.38526635 0.13955295
0.24171535 0.38526635 0.13955295
0.32989457 0.38526635 0.13955295
0.42495063 0.38526635 0.13955295
0.52689336 0.38526635 0.13955295
0.63565989 0.38526635 0.13955295
0.75125018 0.38526635 0.13955295
0.87366227 0.38526635 0.13955295
0.99991532 0.38526635 0.13955295
0.99999999 0.38526635 0.13955295
0.16822070 0.00004941 0.00000747
0.16822070 0.03460967 0.00002264
0.16822070 0.07941343 0.00495709
0.16822070 0.12116588 0.02194325
0.16822070 0.15985589 0.03779234
0.16822070 0.19548343 0.05249552
0.16822070 0.22804852 0.06605278
0.16822070 0.25755115 0.07846412
0.16822070 0.28399133 0.08972955
0.16822070 0.30736905 0.09984907
0.16822070 0.32768431 0.10882266
0.16822070 0.34493712 0.11665034
0.16822070 0.35912747 0.12333211
0.16822070 0.37025536 0.12886795
0.16822070 0.37832080 0.13325789
0.16822070 0.38332378 0.13650190
0.16822070 0.38526506 0.13860000
0.16822070 0.38526636 0.13955231
0.16822070 0.38526636 0.13955295
0.16822070 0.38526636 0.13955295
0.16822070 0.38526636 0.13955295
0.16822070 0.38526636 0.13955295
0.16822071 0.38526636 0.13955295
0.16826996 0.38526636 0.13955295
0.24171535 0.38526636 0.13955295
0.32989457 0.38526636 0.13955295
0.42495063 0.38526636 0.13955295
0.52689336 0.38526636 0.13955295
0.63565989 0.38526636 0.13955295
0.75125018 0.38526636 0.13955295
0.87366227 0.38526636 0.13955295
0.99991532 0.38526636 0.13955295
0.99999999 0.38526636 0.13955295
0.16822070 0.00006439 0.00000747
0.16822070 0.03463117 0.00002264
0.16822070 0.07943504 0.00495709
0.16822070 0.12118759 0.02194325
0.16822070 0.15987769 0.03779234
0.16822070 0.19550533 0.05249552
0.16822070 0.22807052 0.06605278
0.16822070 0.25757325 0.07846412
0.16822070 0.28401352 0.08972955
0.16822070 0.30739134 0.09984907
0.16822070 0.32770670 0.10882266
0.16822070 0.34495961 0.11665034
0.16822070 0.35915006 0.12333211
0.16822070 0.37027805 0.12886795
0.16822070 0.37834359 0.13325789
0.16822070 0.38334667 0.13650190
0.16822070 0.38528804 0.13860000
0.16822070 0.38528934 0.13955231
0.16822070 0.38528934 0.13955295
0.16822070 0.38528934 0.13955295
0.16822070 0.38528934 0.13955295
0.16822070 0.38528934 0.13955295
0.16822071 0.38528934 0.13955295
0.16826996 0.38528934 0.13955295
0.24171535 0.38528934 0.13955295
0.32989457 0.38528934 0.13955295
0.42495063 0.38528934 0.13955295
0.52689336 0.38528934 0.13955295
0.63565989 0.38528934 0.13955295
0.75125018 0.38528934 0.13955295
