data/v02_acceptance/jobs/624942cbb5a6/shot_luts/scene_0001.cube
# Generated by Local Color Service V0.1.3 using OpenColorIO Baker
# Recipe Hash: 9682a964d22bb9afdc92c83725b5228a6d0f350e71c286b2fd546bea0fd88f09
# OCIO Config: studio-config-v4.0.0_aces-v2.0_ocio-v2.5
LUT_3D_SIZE 9
-0.000956 -0.001025 -0.001063
0.117788 -0.000977 -0.001014
0.241947 -0.000676 -0.000828
0.365925 -0.000283 -0.000609
0.492074 -0.000261 -0.000357
0.617510 -0.000157 -0.000160
0.741394 0.038803 -0.000080
0.863552 0.068663 0.013755
0.984056 0.095434 0.034404
-0.000727 0.118149 -0.000863
0.119740 0.118552 -0.000814
0.243601 0.120322 -0.000642
0.368964 0.120300 -0.000445
0.494473 0.120561 -0.000273
0.619320 0.122526 -0.000133
0.742774 0.127666 -0.000093
0.864629 0.136660 0.012520
0.984919 0.149185 0.034552
0.033278 0.244800 -0.000282
0.125832 0.245086 -0.000264
0.249512 0.245791 -0.000218
0.374960 0.246510 -0.000176
0.500025 0.247428 -0.000143
0.624215 0.248889 -0.000170
0.746934 0.251360 -0.000132
0.868153 0.255246 0.011751
0.987904 0.260869 0.036224
0.065411 0.372353 -0.000108
0.136365 0.372506 -0.000113
0.256561 0.372997 -0.000132
0.380999 0.373643 -0.000164
0.505708 0.374384 -0.000190
0.629505 0.375372 -0.000179
0.751826 0.376871 -0.000087
0.872639 0.379128 0.024310
0.991979 0.382360 0.042893
0.109307 0.498866 0.013852
0.158420 0.498957 0.013568
0.267594 0.499285 0.012587
0.388548 0.499778 0.012114
0.511799 0.500357 0.015292
0.634737 0.501078 0.023006
0.756581 0.502065 0.033133
0.877076 0.503467 0.044699
0.996160 0.505430 0.057298
0.156247 0.623438 0.051545
0.190699 0.623494 0.051603
0.285006 0.623708 0.051883
0.399574 0.624056 0.052619
0.519585 0.624493 0.054283
0.640786 0.625020 0.057426
0.761657 0.625696 0.062457
0.881580 0.626613 0.069393
1.000302 0.627875 0.078061
0.205833 0.745841 0.082741
0.230772 0.745877 0.082814
0.309587 0.746023 0.083142
0.415059 0.746277 0.083885
0.530155 0.746610 0.085264
0.648549 0.747011 0.087555
0.767741 0.747502 0.091031
0.886629 0.748138 0.095889
1.004698 0.748990 0.102218
0.255898 0.866214 0.113141
0.274721 0.866239 0.113212
0.340036 0.866343 0.113521
0.435316 0.866530 0.114190
0.544154 0.866785 0.115362
0.658697 0.867094 0.117210
0.775446 0.867466 0.119924
0.892745 0.867928 0.123675
1.009763 0.868529 0.128587
0.306076 0.984689 0.143661
0.320819 0.984708 0.143727
0.375166 0.984783 0.144014
0.460198 0.984923 0.144618
0.561874 0.985120 0.145643
0.671665 0.985363 0.147209
0.785235 0.985652 0.149453
0.900370 0.986005 0.152504
1.015924 0.986451 0.156472
-0.000927 -0.001002 0.115919
0.118040 -0.000954 0.116346
0.242076 -0.000656 0.117914
0.366278 -0.000276 0.119729
0.492545 -0.000262 0.120749
0.617999 -0.000154 0.121466
0.741805 0.039069 0.122425
0.863892 0.068825 0.124063
0.984340 0.095555 0.126808
-0.000698 0.118343 0.117632
0.119989 0.118745 0.118048
0.243812 0.120411 0.119475
0.369328 0.120396 0.120733
0.494927 0.120676 0.121209
0.619778 0.122652 0.121706
0.743160 0.127782 0.122574
0.864954 0.136764 0.124192
0.985192 0.149278 0.126961
0.033292 0.245048 0.121428
0.125982 0.245328 0.121539
0.249781 0.246019 0.121766
0.375301 0.246723 0.121884
0.500393 0.247615 0.121969
0.624558 0.249041 0.122240
0.747241 0.251484 0.123060
0.868424 0.255350 0.124779
0.988142 0.260956 0.127670
0.065978 0.372574 0.122558
0.136636 0.372723 0.122585
0.256776 0.373201 0.122649
0.381218 0.373829 0.122713
0.505937 0.374548 0.122853
0.629731 0.375514 0.123301
0.752044 0.376993 0.124385
0.872842 0.379232 0.126367
0.992168 0.382450 0.129488
0.109587 0.499024 0.125087
0.158612 0.499113 0.125108
0.267735 0.499436 0.125190
0.388686 0.499920 0.125363
0.511941 0.500488 0.125717
0.634883 0.501197 0.126472
0.756727 0.502172 0.127889
0.877219 0.503562 0.130231
0.996298 0.505514 0.133713
0.156404 0.623554 0.131655
0.190829 0.623609 0.131687
0.285107 0.623821 0.131827
0.399666 0.624164 0.132135
0.519677 0.624596 0.132732
0.640882 0.625117 0.133781
0.761755 0.625786 0.135482
0.881680 0.626695 0.138034
1.000402 0.627949 0.141606
0.205932 0.745930 0.143466
0.230861 0.745966 0.143506
0.309658 0.746111 0.143687
0.415123 0.746362 0.144081
0.530218 0.746693 0.144789
0.648613 0.747090 0.145950
0.767809 0.747576 0.147728
0.886699 0.748207 0.150288
1.004769 0.749055 0.153775
0.255962 0.866284 0.160018
0.274780 0.866310 0.160064
0.340086 0.866413 0.160270
0.435362 0.866599 0.160710
0.544199 0.866851 0.161471
0.658742 0.867159 0.162664
0.775493 0.867528 0.164422
0.892795 0.867988 0.166878
1.009815 0.868584 0.170160
0.306117 0.984747 0.180550
0.320860 0.984765 0.180600
0.375200 0.984840 0.180816
0.460229 0.984980 0.181270
0.561906 0.985175 0.182037
0.671697 0.985416 0.183206
0.785269 0.985704 0.184880
0.900406 0.986056 0.187169
1.015963 0.986499 0.190172
-0.000599 -0.000910 0.235636
0.120686 -0.000864 0.236193
0.242863 -0.000576 0.237944
0.367307 -0.000234 0.240027
0.493562 -0.000257 0.242371
0.618954 -0.000140 0.244264
0.742693 0.039958 0.245950
0.864711 0.069380 0.247658
0.985091 0.095978 0.249575
-0.000406 0.119062 0.237854
0.122172 0.119453 0.238446
0.244741 0.120717 0.240106
0.370278 0.120670 0.241845
0.495859 0.120955 0.243457
0.620678 0.122953 0.244937
0.744010 0.128101 0.246396
0.865746 0.137081 0.247977
0.985923 0.149580 0.249820
0.037437 0.245577 0.243231
0.126975 0.245829 0.243494
0.250552 0.246466 0.244212
0.376045 0.247132 0.245020
0.501144 0.247992 0.245837
0.625307 0.249387 0.246715
0.747972 0.251802 0.247760
0.869123 0.255642 0.249068
0.988800 0.261227 0.250725
0.068330 0.373065 0.246582
0.137651 0.373206 0.246688
0.257416 0.373659 0.247042
0.381793 0.374257 0.247526
0.506515 0.374945 0.248072
0.630311 0.375880 0.248721
0.752623 0.377329 0.249566
0.873412 0.379539 0.250706
0.992717 0.382728 0.252236
0.110804 0.499455 0.249478
0.159404 0.499540 0.249533
0.268240 0.499851 0.249740
0.389125 0.500316 0.250075
0.512368 0.500862 0.250512
0.635314 0.501547 0.251093
0.757164 0.502497 0.251896
0.877659 0.503861 0.253018
0.996736 0.505787 0.254555
0.157124 0.623918 0.253160
0.191406 0.623972 0.253197
0.285512 0.624176 0.253347
0.400003 0.624508 0.253622
0.519994 0.624926 0.254035
0.641199 0.625430 0.254627
0.762080 0.626081 0.255466
0.882011 0.626971 0.256639
1.000738 0.628205 0.258235
0.206394 0.746235 0.258602
0.231269 0.746271 0.258633
0.309967 0.746411 0.258766
0.415378 0.746656 0.259030
0.530454 0.746977 0.259455
0.648848 0.747363 0.260081
0.768049 0.747837 0.260974
0.886946 0.748455 0.262210
1.005023 0.749287 0.263873
0.256256 0.866541 0.266459
0.275056 0.866565 0.266490
0.340313 0.866666 0.266623
0.435552 0.866848 0.266895
0.544374 0.867096 0.267342
0.658914 0.867396 0.268009
0.775669 0.867756 0.268952
0.892978 0.868205 0.270243
1.010005 0.868792 0.271956
0.306307 0.984965 0.277103
0.321040 0.984983 0.277134
0.375360 0.985056 0.277273
0.460370 0.985192 0.277559
0.562036 0.985384 0.278029
0.671825 0.985620 0.278726
0.785398 0.985902 0.279700
0.900541 0.986247 0.281012
1.016106 0.986683 0.282721
0.018218 -0.000771 0.352964
0.125220 -0.000724 0.353863
0.244135 -0.000453 0.356328
0.368606 -0.000159 0.359565
0.494664 -0.000239 0.362918
0.619914 -0.000107 0.365615
0.743570 0.041749 0.367882
0.865541 0.070453 0.369906
0.985885 0.096775 0.371842
0.026754 0.120115 0.356588
0.123984 0.120624 0.357441
0.246175 0.121083 0.359640
0.371432 0.121004 0.362105
0.496849 0.121333 0.364460
0.621576 0.123402 0.366592
0.744850 0.128607 0.368533
0.866550 0.137601 0.370362
0.986701 0.150089 0.372177
0.046467 0.246131 0.364141
0.129204 0.246342 0.364483
0.251796 0.246907 0.365489
0.376983 0.247538 0.366706
0.501967 0.248386 0.367953
0.626076 0.249775 0.369208
0.748714 0.252187 0.370503
0.869852 0.256024 0.371873
0.989517 0.261604 0.373364
0.073874 0.373571 0.368919
0.139973 0.373699 0.369072
0.258572 0.374120 0.369593
0.382617 0.374690 0.370319
0.507226 0.375358 0.371107
0.630967 0.376281 0.371936
0.753260 0.377719 0.372846
0.874044 0.379916 0.373884
0.993348 0.383092 0.375102
0.113821 0.499939 0.372434
0.161289 0.500020 0.372513
0.269261 0.500315 0.372811
0.389852 0.500761 0.373281
0.512974 0.501289 0.373845
0.635868 0.501958 0.374484
0.757702 0.502892 0.375226
0.878195 0.504240 0.376117
0.997274 0.506149 0.377213
0.158931 0.624372 0.375737
0.192811 0.624423 0.375786
0.286389 0.624619 0.375978
0.400625 0.624939 0.376313
0.520501 0.625343 0.376762
0.641659 0.625833 0.377316
0.762524 0.626469 0.377996
0.882454 0.627343 0.378841
1.001186 0.628562 0.379904
0.207533 0.746653 0.379611
0.232251 0.746688 0.379646
0.310656 0.746823 0.379789
0.415884 0.747060 0.380056
0.530869 0.747371 0.380447
0.649222 0.747745 0.380963
0.768408 0.748207 0.381626
0.887304 0.748811 0.382467
1.005386 0.749630 0.383533
0.256984 0.866921 0.384615
0.275721 0.866945 0.384644
0.340830 0.867042 0.384763
0.435953 0.867218 0.384997
0.544707 0.867458 0.385356
0.659215 0.867750 0.385851
0.775957 0.868100 0.386504
0.893266 0.868538 0.387346
1.010296 0.869114 0.388416
0.306797 0.985307 0.391080
0.321505 0.985324 0.391106
0.375746 0.985396 0.391213
0.460683 0.985528 0.391430
0.562301 0.985714 0.391772
0.672064 0.985945 0.392256
0.785628 0.986219 0.392904
0.900769 0.986556 0.393747
1.016342 0.986982 0.394819
0.057801 -0.000553 0.469359
0.128731 -0.000480 0.470328
0.246504 -0.000267 0.473179
0.370622 -0.000110 0.477299
0.496123 -0.000185 0.481307
0.621045 -0.000029 0.484652
0.744506 0.045072 0.487476
0.866365 0.072388 0.489926
0.986646 0.098153 0.492137
0.051929 0.121401 0.474105
0.128526 0.121535 0.474933
0.248697 0.121705 0.477331
0.373171 0.121607 0.480271
0.498157 0.122014 0.483194
0.622625 0.124185 0.485884
0.745739 0.129465 0.488311
0.867347 0.138458 0.490515
0.987442 0.150907 0.492568
0.061790 0.246793 0.482936
0.134006 0.246959 0.483310
0.254076 0.247437 0.484489
0.378435 0.248030 0.486016
0.503057 0.248869 0.487627
0.626965 0.250259 0.489245
0.749491 0.252678 0.490855
0.870567 0.256521 0.492460
0.990198 0.262103 0.494075
0.084299 0.374105 0.488921
0.144691 0.374217 0.489105
0.260709 0.374599 0.489751
0.383936 0.375136 0.490679
0.508198 0.375786 0.491698
0.631744 0.376705 0.492748
0.753939 0.378141 0.493833
0.874674 0.380338 0.494972
0.993956 0.383511 0.496192
0.119829 0.500424 0.493237
0.165081 0.500499 0.493337
0.271185 0.500775 0.493714
0.391063 0.501198 0.494313
0.513843 0.501711 0.495022
0.636558 0.502370 0.495787
0.758302 0.503297 0.496604
0.878752 0.504638 0.497494
0.997813 0.506540 0.498487
0.162604 0.624829 0.496793
0.195646 0.624878 0.496853
0.288068 0.625063 0.497090
0.401697 0.625370 0.497498
0.521271 0.625762 0.498025
0.642271 0.626242 0.498631
0.763054 0.626869 0.499307
0.882944 0.627735 0.500071
1.001659 0.628945 0.500949
0.209877 0.747092 0.500243
0.234261 0.747124 0.500284
0.312004 0.747255 0.500447
0.416794 0.747483 0.500746
0.531537 0.747784 0.501159
0.649758 0.748149 0.501666
0.768872 0.748602 0.502263
0.887732 0.749198 0.502960
1.005798 0.750008 0.503782
0.258528 0.867341 0.504068
0.277125 0.867363 0.504098
0.341879 0.867457 0.504222
0.436709 0.867627 0.504457
0.545278 0.867860 0.504801
0.659677 0.868144 0.505247
0.776358 0.868485 0.505795
0.893633 0.868916 0.506456
1.010650 0.869483 0.507251
0.307858 0.985704 0.508630
0.322499 0.985720 0.508654
0.376552 0.985789 0.508755
0.461299 0.985918 0.508954
0.562780 0.986099 0.509256
0.672458 0.986323 0.509663
0.785971 0.986590 0.510181
0.901085 0.986919 0.510821
1.016647 0.987338 0.511600
0.074537 -0.000208 0.584581
0.135950 -0.000158 0.585486
0.250613 -0.000004 0.588577
0.373608 -0.000015 0.593111
0.498190 -0.000065 0.597455
0.622553 0.023534 0.601253
0.745666 0.050342 0.604526
0.867312 0.075563 0.607370
0.987460 0.100400 0.609891
0.073806 0.122680 0.589977
0.136921 0.122743 0.590716
0.252888 0.122787 0.593094
0.375845 0.122702 0.596263
0.500045 0.123229 0.599559
0.624032 0.125527 0.602673
0.746840 0.130892 0.605510
0.868258 0.139844 0.608073
0.988233 0.152208 0.610408
0.082184 0.247636 0.599460
0.142505 0.247763 0.599833
0.257984 0.248156 0.601085
0.380763 0.248714 0.602818
0.504679 0.249542 0.604713
0.628174 0.250939 0.606639
0.750454 0.253370 0.608545
0.871381 0.257221 0.610407
0.990919 0.262807 0.612219
0.099969 0.374723 0.606378
0.152764 0.374819 0.606579
0.264390 0.375157 0.607303
0.386104 0.375658 0.608380
0.509672 0.376289 0.609593
0.632820 0.377206 0.610848
0.754790 0.378647 0.612122
0.875395 0.380850 0.613417
0.994601 0.384023 0.614741
0.129886 0.500941 0.611440
0.171699 0.501009 0.611554
0.274554 0.501262 0.611992
0.393090 0.501660 0.612696
0.515196 0.502156 0.613539
0.637541 0.502808 0.614439
0.759075 0.503731 0.615371
0.879404 0.505071 0.616339
0.998394 0.506972 0.617359
0.169101 0.625291 0.615423
0.200708 0.625336 0.615493
0.291037 0.625510 0.615771
0.403522 0.625803 0.616250
0.522502 0.626181 0.616863
0.643171 0.626653 0.617551
0.763761 0.627275 0.618288
0.883538 0.628137 0.619074
1.002186 0.629344 0.619921
0.214130 0.747528 0.618912
0.237909 0.747559 0.618959
0.314427 0.747684 0.619148
0.418378 0.747902 0.619489
0.532637 0.748194 0.619952
0.650572 0.748551 0.620502
0.769514 0.748998 0.621116
0.888271 0.749588 0.621792
1.006275 0.750394 0.622541
0.261396 0.867761 0.622345
0.279720 0.867783 0.622378
0.343799 0.867874 0.622515
0.438047 0.868038 0.622772
0.546239 0.868264 0.623137
0.660402 0.868540 0.623593
0.776935 0.868875 0.624125
0.894119 0.869300 0.624733
1.011081 0.869862 0.625422
0.309855 0.986112 0.626057
0.324367 0.986128 0.626082
0.378044 0.986195 0.626188
0.462406 0.986319 0.626392
0.563606 0.986494 0.626695
0.673093 0.986712 0.627087
0.786481 0.986975 0.627563
0.901516 0.987299 0.628123
1.017036 0.987711 0.628774
0.097135 0.029830 0.698514
0.148011 0.031521 0.699392
0.257216 0.032153 0.702556
0.377852 0.026882 0.706914
0.501095 0.025662 0.711366
0.624624 0.037629 0.715456
0.747205 0.057570 0.719085
0.868512 0.080226 0.722283
0.988437 0.103752 0.725120
0.098897 0.124557 0.703954
0.149881 0.124572 0.704603
0.259301 0.124542 0.706849
0.379781 0.124527 0.710071
0.502756 0.125213 0.713583
0.625986 0.127647 0.717008
0.748309 0.133082 0.720187
0.869415 0.141943 0.723083
0.989183 0.154154 0.725716
0.105930 0.248740 0.713677
0.155232 0.248836 0.714035
0.264007 0.249161 0.715297
0.384314 0.249687 0.717157
0.507086 0.250500 0.719270
0.629894 0.251910 0.721461
0.751760 0.254355 0.723643
0.872422 0.258215 0.725767
0.991785 0.263799 0.727813
0.119861 0.375478 0.721338
0.164671 0.375559 0.721546
0.270115 0.375855 0.722312
0.389460 0.376317 0.723497
0.511891 0.376929 0.724873
0.634381 0.377847 0.726319
0.755961 0.379295 0.727789
0.876325 0.381507 0.729267
0.995376 0.384681 0.730749
0.144230 0.501528 0.727097
0.181733 0.501588 0.727221
0.279849 0.501817 0.727703
0.396262 0.502186 0.728494
0.517263 0.502665 0.729457
0.638989 0.503310 0.730494
0.760155 0.504233 0.731561
0.880255 0.505574 0.732650
0.999102 0.507476 0.733764
0.179013 0.625782 0.731595
0.208592 0.625824 0.731673
0.295731 0.625985 0.731987
0.406401 0.626261 0.732531
0.524410 0.626627 0.733231
0.644517 0.627090 0.734015
0.764766 0.627709 0.734842
0.884328 0.628570 0.735700
1.002840 0.629777 0.736593
0.220864 0.747972 0.735354
0.243721 0.748002 0.735406
0.318323 0.748119 0.735619
0.420913 0.748328 0.736006
0.534363 0.748610 0.736529
0.651809 0.748959 0.737141
0.770444 0.749401 0.737811
0.889003 0.749989 0.738523
1.006880 0.750793 0.739279
0.266059 0.868182 0.738770
0.283953 0.868203 0.738808
0.346934 0.868289 0.738960
0.440220 0.868447 0.739245
0.547771 0.868665 0.739648
0.661522 0.868935 0.740140
0.777787 0.869265 0.740700
0.894794 0.869686 0.741314
1.011639 0.870245 0.741982
0.313176 0.986517 0.742157
0.327475 0.986533 0.742185
0.380524 0.986597 0.742300
0.464231 0.986717 0.742520
0.564939 0.986888 0.742841
0.674091 0.987100 0.743249
0.787251 0.987358 0.743729
0.902130 0.987678 0.744273
1.017556 0.988087 0.744879
0.123922 0.045719 0.811426
0.165182 0.045317 0.812182
0.266454 0.043605 0.814902
0.383575 0.041375 0.818926
0.505013 0.042139 0.823323
0.627399 0.050574 0.827561
0.749248 0.066445 0.831443
0.870074 0.086421 0.834930
0.989672 0.108346 0.838056
0.125971 0.127217 0.816190
0.167023 0.127213 0.816757
0.268195 0.127170 0.818822
0.385222 0.127275 0.821972
0.506481 0.128132 0.825568
0.628638 0.130715 0.829190
0.750276 0.136183 0.832631
0.870929 0.144898 0.835810
0.990386 0.156882 0.838720
0.131856 0.250177 0.825850
0.171972 0.250251 0.826185
0.272453 0.250531 0.827420
0.389355 0.251027 0.829339
0.510473 0.251829 0.831605
0.632287 0.253256 0.834006
0.753539 0.255717 0.836426
0.873800 0.259584 0.838794
0.992891 0.265160 0.841074
0.142744 0.376414 0.834072
0.180281 0.376482 0.834279
0.278212 0.376740 0.835061
0.394277 0.377164 0.836314
0.515058 0.377760 0.837817
0.636586 0.378681 0.839429
0.757584 0.380139 0.841083
0.877575 0.382361 0.842745
0.996379 0.385535 0.844402
0.162374 0.502218 0.840448
0.195284 0.502271 0.840579
0.287410 0.502475 0.841088
0.400834 0.502815 0.841944
0.520244 0.503278 0.843008
0.641062 0.503917 0.844171
0.761671 0.504840 0.845375
0.881415 0.506184 0.846596
1.000026 0.508089 0.847833
0.192474 0.626329 0.845470
0.219587 0.626366 0.845555
0.302480 0.626515 0.845895
0.410594 0.626774 0.846494
0.527190 0.627125 0.847273
0.646464 0.627581 0.848151
0.766192 0.628197 0.849078
0.885416 0.629060 0.850030
1.003704 0.630268 0.851003
0.230427 0.748444 0.849594
0.252066 0.748472 0.849652
0.324022 0.748582 0.849887
0.424652 0.748780 0.850316
0.536908 0.749051 0.850898
0.653617 0.749393 0.851580
0.771779 0.749831 0.852320
0.890026 0.750417 0.853095
1.007692 0.751221 0.853899
0.272911 0.868612 0.853183
0.290200 0.868632 0.853224
0.351600 0.868714 0.853392
0.443470 0.868865 0.853708
0.550057 0.869075 0.854153
0.663177 0.869339 0.854694
0.779024 0.869665 0.855300
0.895747 0.870084 0.855952
1.012399 0.870640 0.856642
0.318171 0.986925 0.856525
0.332157 0.986939 0.856555
0.384271 0.987002 0.856682
0.466995 0.987117 0.856922
0.566956 0.987282 0.857271
0.675584 0.987490 0.857709
0.788384 0.987743 0.858216
0.903009 0.988061 0.858777
1.018273 0.988467 0.859384
0.152573 0.056845 0.922688
0.186056 0.056592 0.923310
0.278198 0.055698 0.925639
0.390950 0.054928 0.929303
0.510080 0.056538 0.933540
0.630999 0.063445 0.937811
0.751901 0.076581 0.941847
0.872091 0.094048 0.945555
0.991250 0.114219 0.948924
0.154261 0.130834 0.926803
0.187611 0.130829 0.927299
0.279650 0.130843 0.929172
0.392346 0.131101 0.932174
0.511364 0.132110 0.935749
0.632113 0.134848 0.939471
0.752848 0.140294 0.943092
0.872893 0.148806 0.946496
0.991928 0.160489 0.949644
0.159072 0.252024 0.936192
0.191899 0.252087 0.936504
0.283464 0.252334 0.937689
0.396089 0.252802 0.939615
0.515002 0.253600 0.941972
0.635488 0.255048 0.944529
0.755907 0.257528 0.947142
0.875615 0.261398 0.949722
0.994324 0.266960 0.952217
0.167712 0.377572 0.944811
0.199108 0.377630 0.945012
0.288839 0.377854 0.945789
0.400763 0.378245 0.947077
0.519339 0.378829 0.948674
0.639578 0.379757 0.950422
0.759776 0.381227 0.952237
0.879244 0.383459 0.954073
0.997694 0.386631 0.955905
0.183573 0.503040 0.951714
0.212102 0.503087 0.951848
0.297427 0.503268 0.952372
0.407007 0.503581 0.953271
0.524312 0.504029 0.954415
0.643899 0.504663 0.955688
0.763739 0.505587 0.957018
0.882981 0.506935 0.958372
1.001251 0.508843 0.959740
0.209189 0.626955 0.957232
0.233638 0.626989 0.957322
0.311490 0.627125 0.957683
0.416311 0.627367 0.958323
0.531016 0.627705 0.959169
0.649151 0.628153 0.960134
0.768156 0.628767 0.961158
0.886900 0.629631 0.962210
1.004860 0.630844 0.963279
0.242916 0.748963 0.961755
0.263112 0.748988 0.961817
0.331760 0.749090 0.962070
0.429807 0.749277 0.962536
0.540445 0.749538 0.963172
0.656135 0.749872 0.963921
0.773633 0.750306 0.964734
0.891431 0.750893 0.965584
1.008788 0.751698 0.966457
0.282186 0.869068 0.965608
0.298706 0.869086 0.965653
0.358045 0.869164 0.965837
0.448006 0.869307 0.966181
0.553265 0.869510 0.966667
0.665504 0.869767 0.967259
0.780756 0.870088 0.967920
0.897070 0.870505 0.968624
1.013438 0.871063 0.969362
0.325111 0.987344 0.969063
0.338677 0.987358 0.969096
0.389535 0.987416 0.969233
0.470902 0.987527 0.969495
0.569815 0.987686 0.969875
0.677702 0.987889 0.970351
0.789981 0.988139 0.970898
0.904242 0.988455 0.971496
1.019260 0.988859 0.972132
