data/v02_acceptance/jobs/624942cbb5a6/shot_luts/scene_0001.cube
# Generated by Local Color Service V0.1.3 using OpenColorIO Baker
# Recipe Hash: 9682a964d22bb9afdc92c83725b5228a6d0f350e71c286b2fd546bea0fd88f09
# OCIO Config: studio-config-v4.0.0_aces-v2.0_ocio-v2.5
LUT_3D_SIZE 5
-0.000956 -0.001025 -0.001063
0.241947 -0.000676 -0.000828
0.492074 -0.000261 -0.000357
0.741394 0.038803 -0.000080
0.984056 0.095434 0.034404
0.033278 0.244800 -0.000282
0.249512 0.245791 -0.000218
0.500025 0.247428 -0.000143
0.746934 0.251360 -0.000132
0.987904 0.260869 0.036224
0.109307 0.498866 0.013852
0.267594 0.499285 0.012587
0.511799 0.500357 0.015292
0.756581 0.502065 0.033133
0.996160 0.505430 0.057298
0.205833 0.745841 0.082741
0.309587 0.746023 0.083142
0.530155 0.746610 0.085264
0.767741 0.747502 0.091031
1.004698 0.748990 0.102218
0.306076 0.984689 0.143661
0.375166 0.984783 0.144014
0.561874 0.985120 0.145643
0.785235 0.985652 0.149453
1.015924 0.986451 0.156472
-0.000599 -0.000910 0.235636
0.242863 -0.000576 0.237944
0.493562 -0.000257 0.242371
0.742693 0.039958 0.245950
0.985091 0.095978 0.249575
0.037437 0.245577 0.243231
0.250552 0.246466 0.244212
0.501144 0.247992 0.245837
0.747972 0.251802 0.247760
0.988800 0.261227 0.250725
0.110804 0.499455 0.249478
0.268240 0.499851 0.249740
0.512368 0.500862 0.250512
0.757164 0.502497 0.251896
0.996736 0.505787 0.254555
0.206394 0.746235 0.258602
0.309967 0.746411 0.258766
0.530454 0.746977 0.259455
0.768049 0.747837 0.260974
1.005023 0.749287 0.263873
0.306307 0.984965 0.277103
0.375360 0.985056 0.277273
0.562036 0.985384 0.278029
0.785398 0.985902 0.279700
1.016106 0.986683 0.282721
0.057801 -0.000553 0.469359
0.246504 -0.000267 0.473179
0.496123 -0.000185 0.481307
0.744506 0.045072 0.487476
0.986646 0.098153 0.492137
0.061790 0.246793 0.482936
0.254076 0.247437 0.484489
0.503057 0.248869 0.487627
0.749491 0.252678 0.490855
0.990198 0.262103 0.494075
0.119829 0.500424 0.493237
0.271185 0.500775 0.493714
0.513843 0.501711 0.495022
0.758302 0.503297 0.496604
0.997813 0.506540 0.498487
0.209877 0.747092 0.500243
0.312004 0.747255 0.500447
0.531537 0.747784 0.501159
0.768872 0.748602 0.502263
1.005798 0.750008 0.503782
0.307858 0.985704 0.508630
0.376552 0.985789 0.508755
0.562780 0.986099 0.509256
0.785971 0.986590 0.510181
1.016647 0.987338 0.511600
0.097135 0.029830 0.698514
0.257216 0.032153 0.702556
0.501095 0.025662 0.711366
0.747205 0.057570 0.719085
0.988437 0.103752 0.725120
0.105930 0.248740 0.713677
0.264007 0.249161 0.715297
0.507086 0.250500 0.719270
0.751760 0.254355 0.723643
0.991785 0.263799 0.727813
0.144230 0.501528 0.727097
0.279849 0.501817 0.727703
0.517263 0.502665 0.729457
0.760155 0.504233 0.731561
0.999102 0.507476 0.733764
0.220864 0.747972 0.735354
0.318323 0.748119 0.735619
0.534363 0.748610 0.736529
0.770444 0.749401 0.737811
1.006880 0.750793 0.739279
0.313176 0.986517 0.742157
0.380524 0.986597 0.742300
0.564939 0.986888 0.742841
0.787251 0.987358 0.743729
1.017556 0.988087 0.744879
0.152573 0.056845 0.922688
0.278198 0.055698 0.925639
0.510080 0.056538 0.933540
0.751901 0.076581 0.941847
0.991250 0.114219 0.948924
0.159072 0.252024 0.936192
0.283464 0.252334 0.937689
0.515002 0.253600 0.941972
0.755907 0.257528 0.947142
0.994324 0.266960 0.952217
0.183573 0.503040 0.951714
0.297427 0.503268 0.952372
0.524312 0.504029 0.954415
0.763739 0.505587 0.957018
1.001251 0.508843 0.959740
0.242916 0.748963 0.961755
0.331760 0.749090 0.962070
0.540445 0.749538 0.963172
0.773633 0.750306 0.964734
1.008788 0.751698 0.966457
0.325111 0.987344 0.969063
0.389535 0.987416 0.969233
0.569815 0.987686 0.969875
0.789981 0.988139 0.970898
1.019260 0.988859 0.972132
