data/v02_acceptance/jobs/624942cbb5a6/shot_luts/scene_0001.cube
# Generated by Local Color Service V0.1.3 using OpenColorIO Baker
# Recipe Hash: 9682a964d22bb9afdc92c83725b5228a6d0f350e71c286b2fd546bea0fd88f09
# OCIO Config: studio-config-v4.0.0_aces-v2.0_ocio-v2.5
LUT_3D_SIZE 33
-0.000956 -0.001025 -0.001063
-0.000710 -0.001023 -0.001061
0.035937 -0.001016 -0.001054
0.082074 -0.001001 -0.001038
0.117788 -0.000977 -0.001014
0.151340 -0.000945 -0.000979
0.181847 -0.000869 -0.000930
0.211684 -0.000774 -0.000879
0.241947 -0.000676 -0.000828
0.272575 -0.000577 -0.000775
0.303472 -0.000478 -0.000721
0.334600 -0.000379 -0.000666
0.365925 -0.000283 -0.000609
0.397399 -0.000194 -0.000550
0.428999 -0.000219 -0.000481
0.460561 -0.000245 -0.000416
0.492074 -0.000261 -0.000357
0.523536 -0.000264 -0.000302
0.554944 -0.000251 -0.000251
0.586278 -0.000217 -0.000204
0.617510 -0.000157 -0.000160
0.648639 -0.000067 -0.000118
0.679666 0.017130 -0.000096
0.710584 0.029679 -0.000091
0.741394 0.038803 -0.000080
0.772094 0.046847 -0.000063
0.802686 0.054384 -0.000039
0.833171 0.061644 -0.000007
0.863552 0.068663 0.013755
0.893830 0.075502 0.020138
0.924006 0.082219 0.025297
0.954081 0.088855 0.029972
0.984056 0.095434 0.034404
-0.000947 -0.000775 -0.001056
-0.000702 -0.000774 -0.001054
0.036302 -0.000766 -0.001047
0.082191 -0.000751 -0.001031
0.117860 -0.000728 -0.001006
0.151392 -0.000695 -0.000971
0.181838 -0.000619 -0.000923
0.211706 -0.000524 -0.000872
0.241994 -0.000427 -0.000821
0.272644 -0.000329 -0.000769
0.303559 -0.000230 -0.000715
0.334703 -0.000133 -0.000660
0.366042 -0.000038 -0.000603
0.397533 0.014421 -0.000543
0.429125 0.007504 -0.000475
0.460675 -0.000016 -0.000411
0.492177 -0.000030 -0.000353
0.523630 -0.000032 -0.000299
0.555030 -0.000017 -0.000249
0.586358 0.010434 -0.000202
0.617583 0.019540 -0.000159
0.648707 0.026972 -0.000117
0.679729 0.033899 -0.000096
0.710642 0.040535 -0.000091
0.741447 0.047041 -0.000080
0.772144 0.053496 -0.000063
0.802733 0.059944 -0.000039
0.833215 0.066402 -0.000007
0.863593 0.072810 0.013706
0.893868 0.079168 0.020118
0.924042 0.085496 0.025288
0.954114 0.091813 0.029972
0.984089 0.098121 0.034407
-0.000912 0.033711 -0.001025
-0.000666 0.033794 -0.001023
0.037806 0.034144 -0.001016
0.082688 0.034837 -0.001000
0.118167 0.035897 -0.000976
0.151614 0.037310 -0.000941
0.181810 0.040401 -0.000893
0.211808 0.043629 -0.000843
0.242203 0.046631 -0.000793
0.272943 0.049400 -0.000741
0.303934 0.051970 -0.000689
0.335148 0.054335 -0.000635
0.366548 0.056503 -0.000579
0.398095 0.056398 -0.000514
0.429635 0.055827 -0.000451
0.461139 0.055416 -0.000392
0.492602 0.055235 -0.000338
0.524020 0.055357 -0.000287
0.555389 0.055849 -0.000239
0.586688 0.056814 -0.000195
0.617888 0.058350 -0.000154
0.648989 0.060483 -0.000114
0.679990 0.063148 -0.000099
0.710886 0.066290 -0.000093
0.741674 0.069871 -0.000082
0.772355 0.073849 -0.000065
0.802930 0.078185 -0.000041
0.833400 0.082825 -0.000009
0.863767 0.087673 0.013502
0.894032 0.092694 0.020036
0.924196 0.097870 0.025257
0.954260 0.103179 0.029970
0.984226 0.108606 0.034424
-0.000840 0.081882 -0.000963
-0.000594 0.081906 -0.000961
0.040606 0.082010 -0.000953
0.083677 0.082217 -0.000938
0.118781 0.082544 -0.000913
0.151924 0.083022 -0.000878
0.181815 0.084112 -0.000832
0.212066 0.085244 -0.000784
0.242669 0.086384 -0.000736
0.273584 0.087502 -0.000687
0.304725 0.088594 -0.000636
0.336099 0.089200 -0.000581
0.367599 0.088971 -0.000521
0.399087 0.088764 -0.000464
0.430551 0.088611 -0.000409
0.461987 0.088545 -0.000358
0.493387 0.088599 -0.000310
0.524748 0.088808 -0.000264
0.556066 0.089209 -0.000222
0.587316 0.089858 -0.000182
0.618472 0.090819 -0.000144
0.649533 0.092103 -0.000108
0.680498 0.093708 -0.000104
0.711358 0.095643 -0.000098
0.742115 0.097914 -0.000087
0.772767 0.100524 -0.000069
0.803317 0.103468 -0.000044
0.833763 0.106706 -0.000012
0.864109 0.110198 0.013105
0.894354 0.113929 0.019886
0.924500 0.117885 0.025203
0.954548 0.122048 0.029972
0.984499 0.126403 0.034466
-0.000727 0.118149 -0.000863
-0.000481 0.118164 -0.000862
0.044536 0.118226 -0.000854
0.085202 0.118352 -0.000839
0.119740 0.118552 -0.000814
0.151692 0.118935 -0.000778
0.181995 0.119531 -0.000735
0.212625 0.120116 -0.000691
0.243601 0.120322 -0.000642
0.274804 0.120362 -0.000591
0.306120 0.120365 -0.000541
0.337531 0.120335 -0.000492
0.368964 0.120300 -0.000445
0.400381 0.120286 -0.000399
0.431774 0.120311 -0.000355
0.463140 0.120396 -0.000313
0.494473 0.120561 -0.000273
0.525771 0.120829 -0.000235
0.557029 0.121222 -0.000199
0.588219 0.121780 -0.000165
0.619320 0.122526 -0.000133
0.650331 0.123472 -0.000112
0.681246 0.124634 -0.000111
0.712060 0.126028 -0.000105
0.742774 0.127666 -0.000093
0.773387 0.129558 -0.000075
0.803900 0.131700 -0.000050
0.834314 0.134068 -0.000016
0.864629 0.136660 0.012520
0.894847 0.139473 0.019688
0.924967 0.142503 0.025151
0.954991 0.145742 0.030003
0.984919 0.149185 0.034552
-0.000447 0.150556 -0.000707
-0.000200 0.150558 -0.000706
0.052701 0.150569 -0.000698
0.088898 0.150592 -0.000683
0.122071 0.150639 -0.000659
0.152522 0.150826 -0.000624
0.183168 0.151010 -0.000588
0.214040 0.151173 -0.000550
0.245118 0.151308 -0.000512
0.276350 0.151413 -0.000474
0.307671 0.151497 -0.000437
0.339068 0.151562 -0.000400
0.370461 0.151632 -0.000365
0.401831 0.151721 -0.000330
0.433173 0.151843 -0.000296
0.464483 0.152013 -0.000263
0.495760 0.152243 -0.000232
0.527001 0.152551 -0.000203
0.558204 0.152943 -0.000175
0.589337 0.153441 -0.000147
0.620383 0.154069 -0.000122
0.651339 0.154841 -0.000123
0.682199 0.155771 -0.000121
0.712961 0.156871 -0.000115
0.743626 0.158156 -0.000102
0.774194 0.159622 -0.000083
0.804666 0.161265 -0.000056
0.835041 0.163088 -0.000021
0.865320 0.165096 0.011823
0.895504 0.167290 0.019499
0.925592 0.169672 0.025145
0.955585 0.172241 0.030099
0.985485 0.174994 0.034715
-0.000062 0.181563 -0.000543
0.027782 0.181571 -0.000541
0.061452 0.181607 -0.000535
0.093193 0.181685 -0.000522
0.123278 0.181851 -0.000502
0.153750 0.182037 -0.000478
0.184493 0.182227 -0.000451
0.215455 0.182407 -0.000424
0.246608 0.182570 -0.000396
0.277873 0.182717 -0.000368
0.309218 0.182850 -0.000341
0.340612 0.182976 -0.000315
0.371986 0.183110 -0.000290
0.403329 0.183264 -0.000265
0.434639 0.183446 -0.000241
0.465914 0.183665 -0.000217
0.497153 0.183925 -0.000195
0.528354 0.184236 -0.000173
0.559514 0.184609 -0.000152
0.590598 0.185065 -0.000132
0.621594 0.185620 -0.000135
0.652496 0.186286 -0.000137
0.683303 0.187073 -0.000134
0.714015 0.187989 -0.000127
0.744632 0.189031 -0.000113
0.775155 0.190208 -0.000092
0.805584 0.191524 -0.000063
0.835918 0.192986 -0.000026
0.866158 0.194598 0.011203
0.896304 0.196366 0.019431
0.926357 0.198291 0.025262
0.956317 0.200377 0.030318
0.986185 0.202624 0.035005
0.029040 0.213023 -0.000399
0.039858 0.213037 -0.000398
0.065384 0.213096 -0.000393
0.094425 0.213205 -0.000383
0.124484 0.213355 -0.000370
0.155006 0.213532 -0.000353
0.185820 0.213721 -0.000335
0.216858 0.213909 -0.000316
0.248062 0.214090 -0.000297
0.279357 0.214264 -0.000279
0.310729 0.214429 -0.000261
0.342122 0.214591 -0.000243
0.373486 0.214761 -0.000226
0.404818 0.214944 -0.000210
0.436113 0.215148 -0.000194
0.467370 0.215379 -0.000178
0.498587 0.215644 -0.000164
0.529764 0.215951 -0.000150
0.560893 0.216308 -0.000140
0.591936 0.216734 -0.000148
0.622886 0.217237 -0.000152
0.653742 0.217822 -0.000153
0.684505 0.218494 -0.000149
0.715174 0.219259 -0.000140
0.745749 0.220125 -0.000124
0.776230 0.221099 -0.000100
0.806617 0.222187 -0.000069
0.836912 0.223395 -0.000029
0.867113 0.224727 0.011027
0.897222 0.226188 0.019632
0.927239 0.227782 0.025600
0.957164 0.229513 0.030741
0.987000 0.231382 0.035481
0.033278 0.244800 -0.000282
0.042846 0.244812 -0.000281
0.067221 0.244861 -0.000278
0.095879 0.244954 -0.000272
0.125832 0.245086 -0.000264
0.156351 0.245247 -0.000253
0.187205 0.245425 -0.000242
0.218291 0.245607 -0.000230
0.249512 0.245791 -0.000218
0.280830 0.245971 -0.000207
0.312219 0.246147 -0.000196
0.343603 0.246324 -0.000186
0.374960 0.246510 -0.000176
0.406285 0.246708 -0.000167
0.437573 0.246923 -0.000158
0.468820 0.247161 -0.000150
0.500025 0.247428 -0.000143
0.531187 0.247727 -0.000151
0.562290 0.248062 -0.000161
0.593299 0.248447 -0.000167
0.624215 0.248889 -0.000170
0.655036 0.249395 -0.000169
0.685763 0.249971 -0.000163
0.716395 0.250624 -0.000151
0.746934 0.251360 -0.000132
0.777378 0.252184 -0.000106
0.807729 0.253104 -0.000072
0.837987 0.254123 -0.000029
0.868153 0.255246 0.011751
0.898227 0.256479 0.020285
0.928210 0.257824 0.026283
0.958102 0.259286 0.031456
0.987904 0.260869 0.036224
0.039009 0.276685 -0.000191
0.047175 0.276695 -0.000190
0.069887 0.276736 -0.000189
0.097843 0.276816 -0.000186
0.127517 0.276931 -0.000181
0.157933 0.277076 -0.000176
0.188757 0.277239 -0.000170
0.219811 0.277415 -0.000164
0.251017 0.277596 -0.000158
0.282336 0.277778 -0.000153
0.313706 0.277960 -0.000148
0.345070 0.278147 -0.000145
0.376414 0.278339 -0.000141
0.407731 0.278540 -0.000139
0.439013 0.278754 -0.000140
0.470256 0.278983 -0.000152
0.501453 0.279232 -0.000163
0.532603 0.279503 -0.000173
0.563681 0.279805 -0.000180
0.594665 0.280149 -0.000185
0.625554 0.280539 -0.000185
0.656347 0.280982 -0.000182
0.687044 0.281484 -0.000173
0.717647 0.282049 -0.000158
0.748154 0.282684 -0.000136
0.778567 0.283394 -0.000107
0.808887 0.284184 -0.000069
0.839113 0.285057 -0.000023
0.869248 0.286020 0.013605
0.899290 0.287076 0.021556
0.929242 0.288229 0.027434
0.959104 0.289482 0.032560
0.988875 0.290840 0.037299
0.046263 0.308625 -0.000124
0.053054 0.308633 -0.000124
0.073679 0.308668 -0.000123
0.100551 0.308735 -0.000122
0.129719 0.308834 -0.000121
0.159879 0.308961 -0.000119
0.190538 0.309109 -0.000118
0.221494 0.309271 -0.000116
0.252647 0.309441 -0.000115
0.283926 0.309614 -0.000115
0.315244 0.309791 -0.000118
0.346572 0.309973 -0.000129
0.377891 0.310159 -0.000140
0.409189 0.310352 -0.000151
0.440456 0.310554 -0.000162
0.471684 0.310768 -0.000173
0.502869 0.310997 -0.000182
0.534006 0.311245 -0.000189
0.565060 0.311520 -0.000195
0.596021 0.311829 -0.000196
0.626885 0.312177 -0.000194
0.657654 0.312570 -0.000188
0.688327 0.313011 -0.000175
0.718904 0.313507 -0.000157
0.749386 0.314062 -0.000132
0.779773 0.314681 -0.000099
0.810066 0.315367 -0.000058
0.840266 0.316126 -0.000008
0.870372 0.316962 0.016473
0.900388 0.317877 0.023540
0.930312 0.318878 0.029144
0.960146 0.319965 0.034128
0.989891 0.321144 0.038741
0.055331 0.340522 -0.000094
0.060854 0.340529 -0.000094
0.079049 0.340558 -0.000095
0.104359 0.340615 -0.000097
0.132664 0.340701 -0.000099
0.162326 0.340812 -0.000103
0.192690 0.340944 -0.000108
0.223465 0.341091 -0.000114
0.254496 0.341247 -0.000121
0.285655 0.341410 -0.000129
0.316882 0.341579 -0.000138
0.348142 0.341753 -0.000148
0.379412 0.341930 -0.000158
0.410672 0.342114 -0.000167
0.441910 0.342304 -0.000176
0.473116 0.342505 -0.000185
0.504283 0.342717 -0.000192
0.535398 0.342945 -0.000197
0.566426 0.343197 -0.000200
0.597361 0.343478 -0.000199
0.628202 0.343792 -0.000194
0.658948 0.344143 -0.000184
0.689599 0.344536 -0.000168
0.720153 0.344975 -0.000146
0.750613 0.345465 -0.000117
0.780978 0.346010 -0.000080
0.811247 0.346613 -0.000035
0.841424 0.347279 0.010983
0.871507 0.348012 0.020110
0.901499 0.348814 0.026244
0.931399 0.349690 0.031447
0.961209 0.350643 0.036161
0.990930 0.351676 0.040592
0.065411 0.372353 -0.000108
0.069912 0.372359 -0.000108
0.085736 0.372384 -0.000109
0.109192 0.372432 -0.000110
0.136365 0.372506 -0.000113
0.165343 0.372604 -0.000116
0.195280 0.372721 -0.000120
0.225767 0.372853 -0.000126
0.256561 0.372997 -0.000132
0.287544 0.373150 -0.000140
0.318641 0.373310 -0.000147
0.349803 0.373474 -0.000156
0.380999 0.373643 -0.000164
0.412202 0.373817 -0.000172
0.443396 0.373998 -0.000179
0.474568 0.374186 -0.000185
0.505708 0.374384 -0.000190
0.536788 0.374596 -0.000192
0.567783 0.374829 -0.000192
0.598690 0.375087 -0.000188
0.629505 0.375372 -0.000179
0.660227 0.375689 -0.000165
0.690855 0.376042 -0.000146
0.721388 0.376435 -0.000120
0.751826 0.376871 -0.000087
0.782170 0.377355 -0.000046
0.812420 0.377890 0.005855
0.842576 0.378480 0.017873
0.872639 0.379128 0.024310
0.902611 0.379837 0.029563
0.932489 0.380611 0.034271
0.962279 0.381452 0.038672
0.991979 0.382360 0.042893
0.076015 0.404108 -0.000107
0.079742 0.404113 -0.000107
0.093479 0.404134 -0.000108
0.115004 0.404176 -0.000109
0.140859 0.404240 -0.000112
0.168982 0.404325 -0.000115
0.198330 0.404430 -0.000118
0.228386 0.404550 -0.000123
0.258871 0.404683 -0.000129
0.289626 0.404826 -0.000135
0.320552 0.404976 -0.000141
0.351585 0.405132 -0.000147
0.382679 0.405292 -0.000154
0.413803 0.405458 -0.000160
0.444936 0.405629 -0.000165
0.476059 0.405806 -0.000169
0.507156 0.405992 -0.000171
0.538188 0.406191 -0.000170
0.569142 0.406408 -0.000166
0.600013 0.406646 -0.000159
0.630797 0.406907 -0.000146
0.661492 0.407196 -0.000129
0.692095 0.407516 -0.000105
0.722606 0.407871 -0.000075
0.753023 0.408263 -0.000037
0.783347 0.408697 0.007859
0.813577 0.409175 0.017861
0.843714 0.409701 0.023864
0.873759 0.410275 0.028857
0.903713 0.410901 0.033378
0.933575 0.411582 0.037635
0.963347 0.412319 0.041731
0.993032 0.413115 0.045724
0.087043 0.435782 -0.000087
0.090174 0.435786 -0.000088
0.102119 0.435805 -0.000088
0.121723 0.435841 -0.000089
0.146103 0.435898 -0.000091
0.173183 0.435974 -0.000093
0.201806 0.436068 -0.000097
0.231347 0.436177 -0.000100
0.261457 0.436300 -0.000105
0.291932 0.436433 -0.000109
0.322645 0.436574 -0.000114
0.353513 0.436721 -0.000119
0.384477 0.436873 -0.000123
0.415499 0.437030 -0.000127
0.446550 0.437192 -0.000130
0.477608 0.437360 -0.000131
0.508639 0.437536 -0.000130
0.539611 0.437724 -0.000126
0.570513 0.437928 -0.000119
0.601341 0.438149 -0.000107
0.632088 0.438391 -0.000091
0.662750 0.438656 -0.000069
0.693325 0.438947 -0.000041
0.723811 0.439267 -0.000006
0.754206 0.439618 0.014281
0.784509 0.440004 0.020435
0.814721 0.440427 0.025329
0.844841 0.440891 0.029701
0.874870 0.441397 0.033796
0.904807 0.441948 0.037733
0.934655 0.442547 0.041569
0.964412 0.443196 0.045346
0.994080 0.443897 0.049087
0.098134 0.467376 -0.000043
0.100806 0.467380 -0.000043
0.111260 0.467396 -0.000043
0.129074 0.467428 -0.000044
0.151948 0.467478 -0.000045
0.177910 0.467546 -0.000047
0.205724 0.467631 -0.000050
0.234674 0.467731 -0.000052
0.264346 0.467844 -0.000055
0.294489 0.467968 -0.000059
0.324945 0.468100 -0.000062
0.355611 0.468238 -0.000064
0.386417 0.468381 -0.000067
0.417312 0.468530 -0.000068
0.448261 0.468682 -0.000068
0.479230 0.468840 -0.000066
0.510174 0.469005 -0.000061
0.541073 0.469181 -0.000054
0.571915 0.469370 -0.000042
0.602691 0.469572 -0.000026
0.633394 0.469792 -0.000005
0.664018 0.470031 0.011400
0.694561 0.470292 0.016765
0.725018 0.470577 0.021051
0.755388 0.470890 0.024922
0.785670 0.471233 0.028583
0.815861 0.471608 0.032134
0.845963 0.472018 0.035630
0.875974 0.472465 0.039095
0.905895 0.472953 0.042550
0.935727 0.473482 0.046006
0.965470 0.474056 0.049475
0.995123 0.474677 0.052959
0.109307 0.498866 0.013852
0.111622 0.498870 0.013844
0.120842 0.498884 0.013797
0.137031 0.498913 0.013707
0.158420 0.498957 0.013568
0.183208 0.499017 0.013377
0.210137 0.499093 0.013146
0.238424 0.499183 0.012873
0.267594 0.499285 0.012587
0.297350 0.499398 0.012321
0.327505 0.499518 0.012110
0.357933 0.499646 0.012020
0.388548 0.499778 0.012114
0.419289 0.499915 0.012429
0.450112 0.500056 0.013037
0.480960 0.500203 0.013989
0.511799 0.500357 0.015292
0.542608 0.500520 0.016898
0.573376 0.500693 0.018742
0.604088 0.500878 0.020791
0.634737 0.501078 0.023006
0.665316 0.501294 0.025364
0.695818 0.501529 0.027848
0.726241 0.501786 0.030442
0.756581 0.502065 0.033133
0.786835 0.502371 0.035911
0.817003 0.502705 0.038768
0.847083 0.503070 0.041700
0.877076 0.503467 0.044699
0.906979 0.503899 0.047763
0.936794 0.504370 0.050886
0.966521 0.504879 0.054065
0.996160 0.505430 0.057298
0.120723 0.530218 0.025838
0.122747 0.530221 0.025836
0.130926 0.530233 0.025830
0.145639 0.530258 0.025818
0.165573 0.530297 0.025799
0.189142 0.530351 0.025777
0.215114 0.530419 0.025758
0.242664 0.530500 0.025748
0.271262 0.530592 0.025751
0.300574 0.530694 0.025785
0.330377 0.530805 0.025861
0.360524 0.530922 0.025995
0.390911 0.531044 0.026198
0.421467 0.531170 0.026494
0.452122 0.531301 0.026911
0.482821 0.531439 0.027476
0.513534 0.531582 0.028210
0.544238 0.531733 0.029127
0.574915 0.531893 0.030234
0.605551 0.532063 0.031530
0.636134 0.532245 0.033016
0.666656 0.532442 0.034685
0.697110 0.532655 0.036526
0.727490 0.532886 0.038528
0.757793 0.533138 0.040681
0.788015 0.533412 0.042973
0.818155 0.533710 0.045392
0.848210 0.534036 0.047929
0.878180 0.534390 0.050572
0.908062 0.534776 0.053315
0.937859 0.535195 0.056149
0.967569 0.535648 0.059067
0.997192 0.536139 0.062061
0.132361 0.561429 0.035103
0.134148 0.561432 0.035103
0.141444 0.561443 0.035105
0.154830 0.561465 0.035111
0.173368 0.561500 0.035121
0.195702 0.561548 0.035137
0.220664 0.561609 0.035162
0.247411 0.561681 0.035203
0.275377 0.561765 0.035264
0.304187 0.561858 0.035351
0.333588 0.561958 0.035475
0.363409 0.562066 0.035641
0.393532 0.562178 0.035866
0.423857 0.562296 0.036160
0.454306 0.562418 0.036550
0.484832 0.562546 0.037049
0.515399 0.562680 0.037667
0.545979 0.562820 0.038423
0.576550 0.562968 0.039323
0.607094 0.563125 0.040374
0.637598 0.563293 0.041584
0.668052 0.563472 0.042951
0.698448 0.563666 0.044478
0.728777 0.563875 0.046160
0.759036 0.564102 0.047991
0.789219 0.564349 0.049968
0.819325 0.564617 0.052080
0.849350 0.564909 0.054322
0.879293 0.565227 0.056685
0.909152 0.565571 0.059163
0.938927 0.565946 0.061741
0.968618 0.566351 0.064403
0.998224 0.566790 0.067144
0.144208 0.592502 0.043499
0.145798 0.592505 0.043499
0.152342 0.592514 0.043506
0.164541 0.592534 0.043519
0.181759 0.592565 0.043541
0.202866 0.592608 0.043573
0.226785 0.592662 0.043621
0.252678 0.592727 0.043686
0.279955 0.592803 0.043771
0.308209 0.592887 0.043884
0.337160 0.592980 0.044029
0.366614 0.593078 0.044216
0.396420 0.593181 0.044455
0.426468 0.593291 0.044756
0.456684 0.593405 0.045137
0.487013 0.593525 0.045604
0.517411 0.593650 0.046170
0.547847 0.593781 0.046847
0.578294 0.593918 0.047642
0.608732 0.594063 0.048564
0.639145 0.594218 0.049619
0.669519 0.594383 0.050811
0.699845 0.594560 0.052143
0.730114 0.594750 0.053616
0.760320 0.594956 0.055228
0.790458 0.595179 0.056978
0.820523 0.595421 0.058863
0.850512 0.595684 0.060870
0.880424 0.595969 0.062991
0.910255 0.596279 0.065218
0.940006 0.596614 0.067547
0.969673 0.596978 0.069972
0.999258 0.597372 0.072486
0.156247 0.623438 0.051545
0.157672 0.623440 0.051548
0.163570 0.623449 0.051555
0.174714 0.623466 0.051574
0.190699 0.623494 0.051603
0.210607 0.623532 0.051646
0.233463 0.623581 0.051704
0.258465 0.623639 0.051782
0.285006 0.623708 0.051883
0.312656 0.623784 0.052010
0.341110 0.623868 0.052170
0.370135 0.623959 0.052370
0.399574 0.624056 0.052619
0.429314 0.624158 0.052926
0.459270 0.624264 0.053300
0.489377 0.624376 0.053749
0.519585 0.624493 0.054283
0.549858 0.624614 0.054910
0.580164 0.624743 0.055637
0.610480 0.624878 0.056475
0.640786 0.625020 0.057426
0.671069 0.625172 0.058500
0.701314 0.625335 0.059697
0.731513 0.625508 0.061018
0.761657 0.625696 0.062457
0.791741 0.625899 0.064016
0.821758 0.626118 0.065694
0.851706 0.626355 0.067487
0.881580 0.626613 0.069393
0.911378 0.626892 0.071407
0.941098 0.627194 0.073526
0.970741 0.627521 0.075745
1.000302 0.627875 0.078061
0.168461 0.654238 0.059448
0.169746 0.654239 0.059451
0.175091 0.654247 0.059460
0.185295 0.654263 0.059482
0.200138 0.654287 0.059515
0.218888 0.654321 0.059563
0.240686 0.654365 0.059630
0.264769 0.654418 0.059715
0.290534 0.654480 0.059824
0.317525 0.654550 0.059962
0.345415 0.654627 0.060134
0.373967 0.654711 0.060345
0.403008 0.654801 0.060600
0.432410 0.654896 0.060909
0.462078 0.654996 0.061277
0.491938 0.655100 0.061711
0.521935 0.655209 0.062220
0.552024 0.655323 0.062812
0.582172 0.655443 0.063487
0.612350 0.655568 0.064255
0.642536 0.655700 0.065119
0.672713 0.655841 0.066084
0.702867 0.655990 0.067155
0.732984 0.656150 0.068334
0.763057 0.656322 0.069624
0.793079 0.656506 0.071023
0.823041 0.656705 0.072533
0.852939 0.656921 0.074155
0.882770 0.657154 0.075885
0.912529 0.657406 0.077721
0.942217 0.657679 0.079661
0.971828 0.657974 0.081703
1.001362 0.658292 0.083840
0.180842 0.684903 0.067302
0.182006 0.684904 0.067304
0.186871 0.684911 0.067316
0.196240 0.684925 0.067338
0.210032 0.684947 0.067373
0.227673 0.684978 0.067425
0.248417 0.685017 0.067495
0.271553 0.685065 0.067587
0.296491 0.685122 0.067703
0.322778 0.685186 0.067846
0.350071 0.685257 0.068021
0.378117 0.685335 0.068233
0.406728 0.685418 0.068486
0.435765 0.685507 0.068785
0.465119 0.685600 0.069138
0.494710 0.685698 0.069548
0.524473 0.685800 0.070021
0.554360 0.685907 0.070563
0.584331 0.686018 0.071183
0.614354 0.686135 0.071883
0.644406 0.686258 0.072669
0.674465 0.686389 0.073545
0.704513 0.686527 0.074518
0.734540 0.686674 0.075587
0.764532 0.686831 0.076757
0.794481 0.687000 0.078029
0.824380 0.687182 0.079404
0.854222 0.687378 0.080884
0.884002 0.687589 0.082467
0.913718 0.687818 0.084151
0.943365 0.688065 0.085938
0.972941 0.688332 0.087823
1.002443 0.688620 0.089805
0.193334 0.715436 0.075068
0.194394 0.715437 0.075070
0.198836 0.715444 0.075080
0.207457 0.715457 0.075103
0.220275 0.715476 0.075139
0.236855 0.715504 0.075192
0.256562 0.715540 0.075263
0.278747 0.715584 0.075354
0.302847 0.715636 0.075470
0.328407 0.715695 0.075611
0.355077 0.715761 0.075782
0.382590 0.715832 0.075988
0.410745 0.715910 0.076232
0.439387 0.715993 0.076518
0.468403 0.716080 0.076852
0.497701 0.716171 0.077237
0.527210 0.716267 0.077681
0.556874 0.716367 0.078188
0.586652 0.716471 0.078762
0.616505 0.716580 0.079409
0.646407 0.716695 0.080134
0.676333 0.716816 0.080940
0.706266 0.716944 0.081831
0.736189 0.717079 0.082813
0.766090 0.717224 0.083886
0.795958 0.717380 0.085053
0.825785 0.717546 0.086317
0.855563 0.717725 0.087679
0.885287 0.717918 0.089136
0.914950 0.718126 0.090693
0.944552 0.718350 0.092345
0.974086 0.718592 0.094095
1.003552 0.718854 0.095937
0.205833 0.745841 0.082741
0.206803 0.745842 0.082744
0.210881 0.745848 0.082755
0.218837 0.745859 0.082778
0.230772 0.745877 0.082814
0.246363 0.745903 0.082867
0.265076 0.745936 0.082937
0.286329 0.745975 0.083029
0.309587 0.746023 0.083142
0.334406 0.746077 0.083281
0.360431 0.746138 0.083450
0.387386 0.746205 0.083650
0.415059 0.746277 0.083885
0.443285 0.746354 0.084160
0.471939 0.746435 0.084478
0.500921 0.746521 0.084844
0.530155 0.746610 0.085264
0.559579 0.746704 0.085740
0.589144 0.746801 0.086277
0.618812 0.746904 0.086881
0.648549 0.747011 0.087555
0.678330 0.747123 0.088303
0.708134 0.747242 0.089129
0.737942 0.747368 0.090038
0.767741 0.747502 0.091031
0.797519 0.747645 0.092111
0.827264 0.747798 0.093280
0.856970 0.747962 0.094538
0.886629 0.748138 0.095889
0.916235 0.748327 0.097334
0.945785 0.748532 0.098869
0.975273 0.748753 0.100498
1.004698 0.748990 0.102218
0.218338 0.776119 0.090364
0.219230 0.776120 0.090366
0.222987 0.776125 0.090377
0.230356 0.776136 0.090400
0.241491 0.776152 0.090437
0.256164 0.776175 0.090488
0.273930 0.776205 0.090559
0.294272 0.776242 0.090649
0.316694 0.776286 0.090760
0.340765 0.776335 0.090899
0.366129 0.776391 0.091063
0.392506 0.776453 0.091257
0.419674 0.776520 0.091485
0.447461 0.776592 0.091750
0.475730 0.776668 0.092055
0.504376 0.776748 0.092404
0.533316 0.776832 0.092802
0.562481 0.776920 0.093253
0.591818 0.777011 0.093760
0.621283 0.777107 0.094326
0.650841 0.777208 0.094957
0.680463 0.777312 0.095658
0.710125 0.777423 0.096429
0.739808 0.777540 0.097276
0.769495 0.777664 0.098201
0.799171 0.777796 0.099206
0.828828 0.777937 0.100294
0.858452 0.778087 0.101466
0.888039 0.778249 0.102724
0.917581 0.778422 0.104071
0.947072 0.778609 0.105504
0.976508 0.778810 0.107026
1.005885 0.779027 0.108634
0.230850 0.806273 0.097960
0.231674 0.806273 0.097963
0.235151 0.806278 0.097975
0.241995 0.806288 0.097997
