data/luts/render_4ba32017a868.cube
# Generated by Local Color Service V0.1
TITLE "LocalColorService_Grade_33"
LUT_3D_SIZE 33
DOMAIN_MIN 0.0 0.0 0.0
DOMAIN_MAX 1.0 1.0 1.0
0.000000 0.000000 0.000000
0.000000 0.000000 0.000000
0.000000 0.000000 0.000000
0.000000 0.000000 0.000169
0.000000 0.000000 0.000841
0.000000 0.000000 0.002236
0.000000 0.000000 0.004595
0.000000 0.000000 0.008173
0.000000 0.000000 0.013235
0.000000 0.000000 0.020052
0.000000 0.000000 0.028907
0.000000 0.000000 0.040088
0.000000 0.000000 0.053889
0.000000 0.000000 0.070618
0.000000 0.000000 0.090577
0.000000 0.000000 0.114080
0.000000 0.000000 0.141451
0.000000 0.000000 0.172996
0.000000 0.000000 0.209076
0.000000 0.000000 0.250002
0.000000 0.000000 0.296117
0.000000 0.000000 0.347753
0.000000 0.000000 0.405267
0.000000 0.000000 0.469001
0.000000 0.000000 0.539314
0.000000 0.000000 0.616586
0.000000 0.000000 0.701170
0.000000 0.000000 0.793411
0.000000 0.000000 0.893658
0.000000 0.000000 1.000000
0.000000 0.000000 1.000000
0.000000 0.000000 1.000000
0.000000 0.000000 1.000000
0.000000 0.000000 0.000000
0.000000 0.000000 0.000000
0.000000 0.000000 0.000000
0.000000 0.000000 0.000169
0.000000 0.000000 0.000841
0.000000 0.000000 0.002236
0.000000 0.000000 0.004595
0.000000 0.000000 0.008173
0.000000 0.000000 0.013235
0.000000 0.000000 0.020052
0.000000 0.000000 0.028907
0.000000 0.000000 0.040088
0.000000 0.000000 0.053889
0.000000 0.000000 0.070618
0.000000 0.000000 0.090577
0.000000 0.000000 0.114080
0.000000 0.000000 0.141451
0.000000 0.000000 0.172996
0.000000 0.000000 0.209076
0.000000 0.000000 0.250002
0.000000 0.000000 0.296117
0.000000 0.000000 0.347753
0.000000 0.000000 0.405267
0.000000 0.000000 0.469001
0.000000 0.000000 0.539314
0.000000 0.000000 0.616586
0.000000 0.000000 0.701170
0.000000 0.000000 0.793411
0.000000 0.000000 0.893658
0.000000 0.000000 1.000000
0.000000 0.000000 1.000000
0.000000 0.000000 1.000000
0.000000 0.000000 1.000000
0.000000 0.000000 0.000000
0.000000 0.000000 0.000000
0.000000 0.000000 0.000000
0.000000 0.000000 0.000169
0.000000 0.000000 0.000841
0.000000 0.000000 0.002236
0.000000 0.000000 0.004595
0.000000 0.000000 0.008173
0.000000 0.000000 0.013235
0.000000 0.000000 0.020052
0.000000 0.000000 0.028907
0.000000 0.000000 0.040088
0.000000 0.000000 0.053889
0.000000 0.000000 0.070618
0.000000 0.000000 0.090577
0.000000 0.000000 0.114080
0.000000 0.000000 0.141451
0.000000 0.000000 0.172996
0.000000 0.000000 0.209076
0.000000 0.000000 0.250002
0.000000 0.000000 0.296117
0.000000 0.000000 0.347753
0.000000 0.000000 0.405267
0.000000 0.000000 0.469001
0.000000 0.000000 0.539314
0.000000 0.000000 0.616586
0.000000 0.000000 0.701170
0.000000 0.000000 0.793411
0.000000 0.000000 0.893658
0.000000 0.000000 1.000000
0.000000 0.000000 1.000000
0.000000 0.000000 1.000000
0.000000 0.000000 1.000000
0.000000 0.000169 0.000000
0.000000 0.000169 0.000000
0.000000 0.000169 0.000000
0.000000 0.000169 0.000169
0.000000 0.000169 0.000841
0.000000 0.000169 0.002236
0.000000 0.000169 0.004595
0.000000 0.000169 0.008173
0.000000 0.000169 0.013235
0.000000 0.000169 0.020052
0.000000 0.000169 0.028907
0.000000 0.000169 0.040088
0.000000 0.000169 0.053889
0.000000 0.000169 0.070618
0.000000 0.000169 0.090577
0.000000 0.000169 0.114080
0.000000 0.000169 0.141451
0.000000 0.000169 0.172996
0.000000 0.000169 0.209076
0.000000 0.000169 0.250002
0.000000 0.000169 0.296117
0.000000 0.000169 0.347753
0.000000 0.000169 0.405267
0.000000 0.000169 0.469001
0.000000 0.000169 0.539314
0.000000 0.000169 0.616586
0.000000 0.000169 0.701170
0.000000 0.000169 0.793411
0.000000 0.000169 0.893658
0.000000 0.000169 1.000000
0.000000 0.000169 1.000000
0.000000 0.000169 1.000000
0.000000 0.000169 1.000000
0.000000 0.000841 0.000000
0.000000 0.000841 0.000000
0.000000 0.000841 0.000000
0.000000 0.000841 0.000169
0.000000 0.000841 0.000841
0.000000 0.000841 0.002236
0.000000 0.000841 0.004595
0.000000 0.000841 0.008173
0.000000 0.000841 0.013235
0.000000 0.000841 0.020052
0.000000 0.000841 0.028907
0.000000 0.000841 0.040088
0.000000 0.000841 0.053889
0.000000 0.000841 0.070618
0.000000 0.000841 0.090577
0.000000 0.000841 0.114080
0.000000 0.000841 0.141451
0.000000 0.000841 0.172996
0.000000 0.000841 0.209076
0.000000 0.000841 0.250002
0.000000 0.000841 0.296117
0.000000 0.000841 0.347753
0.000000 0.000841 0.405267
0.000000 0.000841 0.469001
0.000000 0.000841 0.539314
0.000000 0.000841 0.616586
0.000000 0.000841 0.701170
0.000000 0.000841 0.793411
0.000000 0.000841 0.893658
0.000000 0.000841 1.000000
0.000000 0.000841 1.000000
0.000000 0.000841 1.000000
0.000000 0.000841 1.000000
0.000000 0.002236 0.000000
0.000000 0.002236 0.000000
0.000000 0.002236 0.000000
0.000000 0.002236 0.000169
0.000000 0.002236 0.000841
0.000000 0.002236 0.002236
0.000000 0.002236 0.004595
0.000000 0.002236 0.008173
0.000000 0.002236 0.013235
0.000000 0.002236 0.020052
0.000000 0.002236 0.028907
0.000000 0.002236 0.040088
0.000000 0.002236 0.053889
0.000000 0.002236 0.070618
0.000000 0.002236 0.090577
0.000000 0.002236 0.114080
0.000000 0.002236 0.141451
0.000000 0.002236 0.172996
0.000000 0.002236 0.209076
0.000000 0.002236 0.250002
0.000000 0.002236 0.296117
0.000000 0.002236 0.347753
0.000000 0.002236 0.405267
0.000000 0.002236 0.469001
0.000000 0.002236 0.539314
0.000000 0.002236 0.616586
0.000000 0.002236 0.701170
0.000000 0.002236 0.793411
0.000000 0.002236 0.893658
0.000000 0.002236 1.000000
0.000000 0.002236 1.000000
0.000000 0.002236 1.000000
0.000000 0.002236 1.000000
0.000000 0.004595 0.000000
0.000000 0.004595 0.000000
0.000000 0.004595 0.000000
0.000000 0.004595 0.000169
0.000000 0.004595 0.000841
0.000000 0.004595 0.002236
0.000000 0.004595 0.004595
0.000000 0.004595 0.008173
0.000000 0.004595 0.013235
0.000000 0.004595 0.020052
0.000000 0.004595 0.028907
0.000000 0.004595 0.040088
0.000000 0.004595 0.053889
0.000000 0.004595 0.070618
0.000000 0.004595 0.090577
0.000000 0.004595 0.114080
0.000000 0.004595 0.141451
0.000000 0.004595 0.172996
0.000000 0.004595 0.209076
0.000000 0.004595 0.250002
0.000000 0.004595 0.296117
0.000000 0.004595 0.347753
0.000000 0.004595 0.405267
0.000000 0.004595 0.469001
0.000000 0.004595 0.539314
0.000000 0.004595 0.616586
0.000000 0.004595 0.701170
0.000000 0.004595 0.793411
0.000000 0.004595 0.893658
0.000000 0.004595 1.000000
0.000000 0.004595 1.000000
0.000000 0.004595 1.000000
0.000000 0.004595 1.000000
0.000000 0.008173 0.000000
0.000000 0.008173 0.000000
0.000000 0.008173 0.000000
0.000000 0.008173 0.000169
0.000000 0.008173 0.000841
0.000000 0.008173 0.002236
0.000000 0.008173 0.004595
0.000000 0.008173 0.008173
0.000000 0.008173 0.013235
0.000000 0.008173 0.020052
0.000000 0.008173 0.028907
0.000000 0.008173 0.040088
0.000000 0.008173 0.053889
0.000000 0.008173 0.070618
0.000000 0.008173 0.090577
0.000000 0.008173 0.114080
0.000000 0.008173 0.141451
0.000000 0.008173 0.172996
0.000000 0.008173 0.209076
0.000000 0.008173 0.250002
0.000000 0.008173 0.296117
0.000000 0.008173 0.347753
0.000000 0.008173 0.405267
0.000000 0.008173 0.469001
0.000000 0.008173 0.539314
0.000000 0.008173 0.616586
0.000000 0.008173 0.701170
0.000000 0.008173 0.793411
0.000000 0.008173 0.893658
0.000000 0.008173 1.000000
0.000000 0.008173 1.000000
0.000000 0.008173 1.000000
0.000000 0.008173 1.000000
0.000000 0.013235 0.000000
0.000000 0.013235 0.000000
0.000000 0.013235 0.000000
0.000000 0.013235 0.000169
0.000000 0.013235 0.000841
0.000000 0.013235 0.002236
0.000000 0.013235 0.004595
0.000000 0.013235 0.008173
0.000000 0.013235 0.013235
0.000000 0.013235 0.020052
0.000000 0.013235 0.028907
0.000000 0.013235 0.040088
0.000000 0.013235 0.053889
0.000000 0.013235 0.070618
0.000000 0.013235 0.090577
0.000000 0.013235 0.114080
0.000000 0.013235 0.141451
0.000000 0.013235 0.172996
0.000000 0.013235 0.209076
0.000000 0.013235 0.250002
0.000000 0.013235 0.296117
0.000000 0.013235 0.347753
0.000000 0.013235 0.405267
0.000000 0.013235 0.469001
0.000000 0.013235 0.539314
0.000000 0.013235 0.616586
0.000000 0.013235 0.701170
0.000000 0.013235 0.793411
0.000000 0.013235 0.893658
0.000000 0.013235 1.000000
0.000000 0.013235 1.000000
0.000000 0.013235 1.000000
0.000000 0.013235 1.000000
0.000000 0.020052 0.000000
0.000000 0.020052 0.000000
0.000000 0.020052 0.000000
0.000000 0.020052 0.000169
0.000000 0.020052 0.000841
0.000000 0.020052 0.002236
0.000000 0.020052 0.004595
0.000000 0.020052 0.008173
0.000000 0.020052 0.013235
0.000000 0.020052 0.020052
0.000000 0.020052 0.028907
0.000000 0.020052 0.040088
0.000000 0.020052 0.053889
0.000000 0.020052 0.070618
0.000000 0.020052 0.090577
0.000000 0.020052 0.114080
0.000000 0.020052 0.141451
0.000000 0.020052 0.172996
0.000000 0.020052 0.209076
0.000000 0.020052 0.250002
0.000000 0.020052 0.296117
0.000000 0.020052 0.347753
0.000000 0.020052 0.405267
0.000000 0.020052 0.469001
0.000000 0.020052 0.539314
0.000000 0.020052 0.616586
0.000000 0.020052 0.701170
0.000000 0.020052 0.793411
0.000000 0.020052 0.893658
0.000000 0.020052 1.000000
0.000000 0.020052 1.000000
0.000000 0.020052 1.000000
0.000000 0.020052 1.000000
0.000000 0.028907 0.000000
0.000000 0.028907 0.000000
0.000000 0.028907 0.000000
0.000000 0.028907 0.000169
0.000000 0.028907 0.000841
0.000000 0.028907 0.002236
0.000000 0.028907 0.004595
0.000000 0.028907 0.008173
0.000000 0.028907 0.013235
0.000000 0.028907 0.020052
0.000000 0.028907 0.028907
0.000000 0.028907 0.040088
0.000000 0.028907 0.053889
0.000000 0.028907 0.070618
0.000000 0.028907 0.090577
0.000000 0.028907 0.114080
0.000000 0.028907 0.141451
0.000000 0.028907 0.172996
0.000000 0.028907 0.209076
0.000000 0.028907 0.250002
0.000000 0.028907 0.296117
0.000000 0.028907 0.347753
0.000000 0.028907 0.405267
0.000000 0.028907 0.469001
0.000000 0.028907 0.539314
0.000000 0.028907 0.616586
0.000000 0.028907 0.701170
0.000000 0.028907 0.793411
0.000000 0.028907 0.893658
0.000000 0.028907 1.000000
0.000000 0.028907 1.000000
0.000000 0.028907 1.000000
0.000000 0.028907 1.000000
0.000000 0.040088 0.000000
0.000000 0.040088 0.000000
0.000000 0.040088 0.000000
0.000000 0.040088 0.000169
0.000000 0.040088 0.000841
0.000000 0.040088 0.002236
0.000000 0.040088 0.004595
0.000000 0.040088 0.008173
0.000000 0.040088 0.013235
0.000000 0.040088 0.020052
0.000000 0.040088 0.028907
0.000000 0.040088 0.040088
0.000000 0.040088 0.053889
0.000000 0.040088 0.070618
0.000000 0.040088 0.090577
0.000000 0.040088 0.114080
0.000000 0.040088 0.141451
0.000000 0.040088 0.172996
0.000000 0.040088 0.209076
0.000000 0.040088 0.250002
0.000000 0.040088 0.296117
0.000000 0.040088 0.347753
0.000000 0.040088 0.405267
0.000000 0.040088 0.469001
0.000000 0.040088 0.539314
0.000000 0.040088 0.616586
0.000000 0.040088 0.701170
0.000000 0.040088 0.793411
0.000000 0.040088 0.893658
0.000000 0.040088 1.000000
0.000000 0.040088 1.000000
0.000000 0.040088 1.000000
0.000000 0.040088 1.000000
0.000000 0.053889 0.000000
0.000000 0.053889 0.000000
0.000000 0.053889 0.000000
0.000000 0.053889 0.000169
0.000000 0.053889 0.000841
0.000000 0.053889 0.002236
0.000000 0.053889 0.004595
0.000000 0.053889 0.008173
0.000000 0.053889 0.013235
0.000000 0.053889 0.020052
0.000000 0.053889 0.028907
0.000000 0.053889 0.040088
0.000000 0.053889 0.053889
0.000000 0.053889 0.070618
0.000000 0.053889 0.090577
0.000000 0.053889 0.114080
0.000000 0.053889 0.141451
0.000000 0.053889 0.172996
0.000000 0.053889 0.209076
0.000000 0.053889 0.250002
0.000000 0.053889 0.296117
0.000000 0.053889 0.347753
0.000000 0.053889 0.405267
0.000000 0.053889 0.469001
0.000000 0.053889 0.539314
0.000000 0.053889 0.616586
0.000000 0.053889 0.701170
0.000000 0.053889 0.793411
0.000000 0.053889 0.893658
0.000000 0.053889 1.000000
0.000000 0.053889 1.000000
0.000000 0.053889 1.000000
0.000000 0.053889 1.000000
0.000000 0.070618 0.000000
0.000000 0.070618 0.000000
0.000000 0.070618 0.000000
0.000000 0.070618 0.000169
0.000000 0.070618 0.000841
0.000000 0.070618 0.002236
0.000000 0.070618 0.004595
0.000000 0.070618 0.008173
0.000000 0.070618 0.013235
0.000000 0.070618 0.020052
0.000000 0.070618 0.028907
0.000000 0.070618 0.040088
0.000000 0.070618 0.053889
0.000000 0.070618 0.070618
0.000000 0.070618 0.090577
0.000000 0.070618 0.114080
0.000000 0.070618 0.141451
0.000000 0.070618 0.172996
0.000000 0.070618 0.209076
0.000000 0.070618 0.250002
0.000000 0.070618 0.296117
0.000000 0.070618 0.347753
0.000000 0.070618 0.405267
0.000000 0.070618 0.469001
0.000000 0.070618 0.539314
0.000000 0.070618 0.616586
0.000000 0.070618 0.701170
0.000000 0.070618 0.793411
0.000000 0.070618 0.893658
0.000000 0.070618 1.000000
0.000000 0.070618 1.000000
0.000000 0.070618 1.000000
0.000000 0.070618 1.000000
0.000000 0.090577 0.000000
0.000000 0.090577 0.000000
0.000000 0.090577 0.000000
0.000000 0.090577 0.000169
0.000000 0.090577 0.000841
0.000000 0.090577 0.002236
0.000000 0.090577 0.004595
0.000000 0.090577 0.008173
0.000000 0.090577 0.013235
0.000000 0.090577 0.020052
0.000000 0.090577 0.028907
0.000000 0.090577 0.040088
0.000000 0.090577 0.053889
0.000000 0.090577 0.070618
0.000000 0.090577 0.090577
0.000000 0.090577 0.114080
0.000000 0.090577 0.141451
0.000000 0.090577 0.172996
0.000000 0.090577 0.209076
0.000000 0.090577 0.250002
0.000000 0.090577 0.296117
0.000000 0.090577 0.347753
0.000000 0.090577 0.405267
0.000000 0.090577 0.469001
0.000000 0.090577 0.539314
0.000000 0.090577 0.616586
0.000000 0.090577 0.701170
0.000000 0.090577 0.793411
0.000000 0.090577 0.893658
0.000000 0.090577 1.000000
0.000000 0.090577 1.000000
0.000000 0.090577 1.000000
0.000000 0.090577 1.000000
0.000000 0.114080 0.000000
0.000000 0.114080 0.000000
0.000000 0.114080 0.000000
0.000000 0.114080 0.000169
0.000000 0.114080 0.000841
0.000000 0.114080 0.002236
0.000000 0.114080 0.004595
0.000000 0.114080 0.008173
0.000000 0.114080 0.013235
0.000000 0.114080 0.020052
0.000000 0.114080 0.028907
0.000000 0.114080 0.040088
0.000000 0.114080 0.053889
0.000000 0.114080 0.070618
0.000000 0.114080 0.090577
0.000000 0.114080 0.114080
0.000000 0.114080 0.141451
0.000000 0.114080 0.172996
0.000000 0.114080 0.209076
0.000000 0.114080 0.250002
0.000000 0.114080 0.296117
0.000000 0.114080 0.347753
0.000000 0.114080 0.405267
0.000000 0.114080 0.469001
0.000000 0.114080 0.539314
0.000000 0.114080 0.616586
0.000000 0.114080 0.701170
0.000000 0.114080 0.793411
0.000000 0.114080 0.893658
0.000000 0.114080 1.000000
0.000000 0.114080 1.000000
0.000000 0.114080 1.000000
0.000000 0.114080 1.000000
0.000000 0.141451 0.000000
0.000000 0.141451 0.000000
0.000000 0.141451 0.000000
0.000000 0.141451 0.000169
0.000000 0.141451 0.000841
0.000000 0.141451 0.002236
0.000000 0.141451 0.004595
0.000000 0.141451 0.008173
0.000000 0.141451 0.013235
0.000000 0.141451 0.020052
0.000000 0.141451 0.028907
0.000000 0.141451 0.040088
0.000000 0.141451 0.053889
0.000000 0.141451 0.070618
0.000000 0.141451 0.090577
0.000000 0.141451 0.114080
0.000000 0.141451 0.141451
0.000000 0.141451 0.172996
0.000000 0.141451 0.209076
0.000000 0.141451 0.250002
0.000000 0.141451 0.296117
0.000000 0.141451 0.347753
0.000000 0.141451 0.405267
0.000000 0.141451 0.469001
0.000000 0.141451 0.539314
0.000000 0.141451 0.616586
0.000000 0.141451 0.701170
0.000000 0.141451 0.793411
0.000000 0.141451 0.893658
0.000000 0.141451 1.000000
0.000000 0.141451 1.000000
0.000000 0.141451 1.000000
0.000000 0.141451 1.000000
0.000000 0.172996 0.000000
0.000000 0.172996 0.000000
0.000000 0.172996 0.000000
0.000000 0.172996 0.000169
0.000000 0.172996 0.000841
0.000000 0.172996 0.002236
0.000000 0.172996 0.004595
0.000000 0.172996 0.008173
0.000000 0.172996 0.013235
0.000000 0.172996 0.020052
0.000000 0.172996 0.028907
0.000000 0.172996 0.040088
0.000000 0.172996 0.053889
0.000000 0.172996 0.070618
0.000000 0.172996 0.090577
0.000000 0.172996 0.114080
0.000000 0.172996 0.141451
0.000000 0.172996 0.172996
0.000000 0.172996 0.209076
0.000000 0.172996 0.250002
0.000000 0.172996 0.296117
0.000000 0.172996 0.347753
0.000000 0.172996 0.405267
0.000000 0.172996 0.469001
0.000000 0.172996 0.539314
0.000000 0.172996 0.616586
0.000000 0.172996 0.701170
0.000000 0.172996 0.793411
0.000000 0.172996 0.893658
0.000000 0.172996 1.000000
0.000000 0.172996 1.000000
0.000000 0.172996 1.000000
0.000000 0.172996 1.000000
0.000000 0.209076 0.000000
0.000000 0.209076 0.000000
0.000000 0.209076 0.000000
0.000000 0.209076 0.000169
0.000000 0.209076 0.000841
0.000000 0.209076 0.002236
0.000000 0.209076 0.004595
0.000000 0.209076 0.008173
0.000000 0.209076 0.013235
0.000000 0.209076 0.020052
0.000000 0.209076 0.028907
0.000000 0.209076 0.040088
0.000000 0.209076 0.053889
0.000000 0.209076 0.070618
0.000000 0.209076 0.090577
0.000000 0.209076 0.114080
0.000000 0.209076 0.141451
0.000000 0.209076 0.172996
0.000000 0.209076 0.209076
0.000000 0.209076 0.250002
0.000000 0.209076 0.296117
0.000000 0.209076 0.347753
0.000000 0.209076 0.405267
0.000000 0.209076 0.469001
0.000000 0.209076 0.539314
0.000000 0.209076 0.616586
0.000000 0.209076 0.701170
0.000000 0.209076 0.793411
0.000000 0.209076 0.893658
0.000000 0.209076 1.000000
0.000000 0.209076 1.000000
0.000000 0.209076 1.000000
0.000000 0.209076 1.000000
0.000000 0.250002 0.000000
0.000000 0.250002 0.000000
0.000000 0.250002 0.000000
0.000000 0.250002 0.000169
0.000000 0.250002 0.000841
0.000000 0.250002 0.002236
0.000000 0.250002 0.004595
0.000000 0.250002 0.008173
0.000000 0.250002 0.013235
0.000000 0.250002 0.020052
0.000000 0.250002 0.028907
0.000000 0.250002 0.040088
0.000000 0.250002 0.053889
0.000000 0.250002 0.070618
0.000000 0.250002 0.090577
0.000000 0.250002 0.114080
0.000000 0.250002 0.141451
0.000000 0.250002 0.172996
0.000000 0.250002 0.209076
0.000000 0.250002 0.250002
0.000000 0.250002 0.296117
0.000000 0.250002 0.347753
0.000000 0.250002 0.405267
0.000000 0.250002 0.469001
0.000000 0.250002 0.539314
0.000000 0.250002 0.616586
0.000000 0.250002 0.701170
0.000000 0.250002 0.793411
0.000000 0.250002 0.893658
0.000000 0.250002 1.000000
0.000000 0.250002 1.000000
0.000000 0.250002 1.000000
0.000000 0.250002 1.000000
0.000000 0.296117 0.000000
0.000000 0.296117 0.000000
0.000000 0.296117 0.000000
0.000000 0.296117 0.000169
0.000000 0.296117 0.000841
0.000000 0.296117 0.002236
0.000000 0.296117 0.004595
0.000000 0.296117 0.008173
0.000000 0.296117 0.013235
0.000000 0.296117 0.020052
0.000000 0.296117 0.028907
0.000000 0.296117 0.040088
0.000000 0.296117 0.053889
0.000000 0.296117 0.070618
0.000000 0.296117 0.090577
0.000000 0.296117 0.114080
0.000000 0.296117 0.141451
0.000000 0.296117 0.172996
0.000000 0.296117 0.209076
0.000000 0.296117 0.250002
0.000000 0.296117 0.296117
0.000000 0.296117 0.347753
0.000000 0.296117 0.405267
0.000000 0.296117 0.469001
0.000000 0.296117 0.539314
0.000000 0.296117 0.616586
0.000000 0.296117 0.701170
0.000000 0.296117 0.793411
0.000000 0.296117 0.893658
0.000000 0.296117 1.000000
0.000000 0.296117 1.000000
0.000000 0.296117 1.000000
0.000000 0.296117 1.000000
0.000000 0.347753 0.000000
0.000000 0.347753 0.000000
0.000000 0.347753 0.000000
0.000000 0.347753 0.000169
0.000000 0.347753 0.000841
0.000000 0.347753 0.002236
0.000000 0.347753 0.004595
0.000000 0.347753 0.008173
0.000000 0.347753 0.013235
0.000000 0.347753 0.020052
0.000000 0.347753 0.028907
0.000000 0.347753 0.040088
0.000000 0.347753 0.053889
0.000000 0.347753 0.070618
0.000000 0.347753 0.090577
0.000000 0.347753 0.114080
0.000000 0.347753 0.141451
0.000000 0.347753 0.172996
0.000000 0.347753 0.209076
0.000000 0.347753 0.250002
0.000000 0.347753 0.296117
0.000000 0.347753 0.347753
0.000000 0.347753 0.405267
0.000000 0.347753 0.469001
0.000000 0.347753 0.539314
0.000000 0.347753 0.616586
0.000000 0.347753 0.701170
0.000000 0.347753 0.793411
0.000000 0.347753 0.893658
0.000000 0.347753 1.000000
0.000000 0.347753 1.000000
0.000000 0.347753 1.000000
0.000000 0.347753 1.000000
0.000000 0.405267 0.000000
0.000000 0.405267 0.000000
0.000000 0.405267 0.000000
0.000000 0.405267 0.000169
0.000000 0.405267 0.000841
0.000000 0.405267 0.002236
0.000000 0.405267 0.004595
0.000000 0.405267 0.008173
0.000000 0.405267 0.013235
0.000000 0.405267 0.020052
0.000000 0.405267 0.028907
0.000000 0.405267 0.040088
0.000000 0.405267 0.053889
0.000000 0.405267 0.070618
0.000000 0.405267 0.090577
0.000000 0.405267 0.114080
0.000000 0.405267 0.141451
0.000000 0.405267 0.172996
0.000000 0.405267 0.209076
0.000000 0.405267 0.250002
0.000000 0.405267 0.296117
0.000000 0.405267 0.347753
0.000000 0.405267 0.405267
0.000000 0.405267 0.469001
0.000000 0.405267 0.539314
0.000000 0.405267 0.616586
0.000000 0.405267 0.701170
0.000000 0.405267 0.793411
0.000000 0.405267 0.893658
0.000000 0.405267 1.000000
0.000000 0.405267 1.000000
0.000000 0.405267 1.000000
0.000000 0.405267 1.000000
0.000000 0.469001 0.000000
0.000000 0.469001 0.000000
0.000000 0.469001 0.000000
0.000000 0.469001 0.000169
0.000000 0.469001 0.000841
0.000000 0.469001 0.002236
0.000000 0.469001 0.004595
0.000000 0.469001 0.008173
0.000000 0.469001 0.013235
0.000000 0.469001 0.020052
0.000000 0.469001 0.028907
0.000000 0.469001 0.040088
0.000000 0.469001 0.053889
0.000000 0.469001 0.070618
0.000000 0.469001 0.090577
0.000000 0.469001 0.114080
0.000000 0.469001 0.141451
0.000000 0.469001 0.172996
0.000000 0.469001 0.209076
0.000000 0.469001 0.250002
0.000000 0.469001 0.296117
0.000000 0.469001 0.347753
0.000000 0.469001 0.405267
0.000000 0.469001 0.469001
0.000000 0.469001 0.539314
0.000000 0.469001 0.616586
0.000000 0.469001 0.701170
0.000000 0.469001 0.793411
0.000000 0.469001 0.893658
0.000000 0.469001 1.000000
0.000000 0.469001 1.000000
0.000000 0.469001 1.000000
0.000000 0.469001 1.000000
0.000000 0.539314 0.000000
0.000000 0.539314 0.000000
0.000000 0.539314 0.000000
0.000000 0.539314 0.000169
0.000000 0.539314 0.000841
0.000000 0.539314 0.002236
0.000000 0.539314 0.004595
0.000000 0.539314 0.008173
0.000000 0.539314 0.013235
0.000000 0.539314 0.020052
0.000000 0.539314 0.028907
0.000000 0.539314 0.040088
0.000000 0.539314 0.053889
0.000000 0.539314 0.070618
0.000000 0.539314 0.090577
0.000000 0.539314 0.114080
0.000000 0.539314 0.141451
0.000000 0.539314 0.172996
0.000000 0.539314 0.209076
0.000000 0.539314 0.250002
0.000000 0.539314 0.296117
0.000000 0.539314 0.347753
0.000000 0.539314 0.405267
0.000000 0.539314 0.469001
0.000000 0.539314 0.539314
0.000000 0.539314 0.616586
0.000000 0.539314 0.701170
0.000000 0.539314 0.793411
0.000000 0.539314 0.893658
0.000000 0.539314 1.000000
0.000000 0.539314 1.000000
0.000000 0.539314 1.000000
0.000000 0.539314 1.000000
0.000000 0.616586 0.000000
0.000000 0.616586 0.000000
0.000000 0.616586 0.000000
0.000000 0.616586 0.000169
0.000000 0.616586 0.000841
0.000000 0.616586 0.002236
0.000000 0.616586 0.004595
0.000000 0.616586 0.008173
0.000000 0.616586 0.013235
0.000000 0.616586 0.020052
0.000000 0.616586 0.028907
0.000000 0.616586 0.040088
0.000000 0.616586 0.053889
0.000000 0.616586 0.070618
0.000000 0.616586 0.090577
0.000000 0.616586 0.114080
0.000000 0.616586 0.141451
0.000000 0.616586 0.172996
0.000000 0.616586 0.209076
0.000000 0.616586 0.250002
0.000000 0.616586 0.296117
0.000000 0.616586 0.347753
0.000000 0.616586 0.405267
0.000000 0.616586 0.469001
0.000000 0.616586 0.539314
0.000000 0.616586 0.616586
0.000000 0.616586 0.701170
0.000000 0.616586 0.793411
0.000000 0.616586 0.893658
0.000000 0.616586 1.000000
0.000000 0.616586 1.000000
0.000000 0.616586 1.000000
0.000000 0.616586 1.000000
0.000000 0.701170 0.000000
0.000000 0.701170 0.000000
0.000000 0.701170 0.000000
0.000000 0.701170 0.000169
0.000000 0.701170 0.000841
0.000000 0.701170 0.002236
0.000000 0.701170 0.004595
0.000000 0.701170 0.008173
0.000000 0.701170 0.013235
0.000000 0.701170 0.020052
0.000000 0.701170 0.028907
0.000000 0.701170 0.040088
0.000000 0.701170 0.053889
0.000000 0.701170 0.070618
0.000000 0.701170 0.090577
0.000000 0.701170 0.114080
0.000000 0.701170 0.141451
0.000000 0.701170 0.172996
0.000000 0.701170 0.209076
0.000000 0.701170 0.250002
0.000000 0.701170 0.296117
0.000000 0.701170 0.347753
0.000000 0.701170 0.405267
0.000000 0.701170 0.469001
0.000000 0.701170 0.539314
