data/luts/render_4ba32017a868.cube
# Generated by Local Color Service V0.1
TITLE "LocalColorService_Grade_33"
LUT_3D_SIZE 5
DOMAIN_MIN 0.0 0.0 0.0
DOMAIN_MAX 1.0 1.0 1.0
0.000000 0.000000 0.000000
0.000000 0.000000 0.013235
0.000000 0.000000 0.141451
0.000000 0.000000 0.539314
0.000000 0.000000 1.000000
0.000000 0.013235 0.000000
0.000000 0.013235 0.013235
0.000000 0.013235 0.141451
0.000000 0.013235 0.539314
0.000000 0.013235 1.000000
0.000000 0.141451 0.000000
0.000000 0.141451 0.013235
0.000000 0.141451 0.141451
0.000000 0.141451 0.539314
0.000000 0.141451 1.000000
0.000000 0.539314 0.000000
0.000000 0.539314 0.013235
0.000000 0.539314 0.141451
0.000000 0.539314 0.539314
0.000000 0.539314 1.000000
0.000000 1.000000 0.000000
0.000000 1.000000 0.013235
0.000000 1.000000 0.141451
0.000000 1.000000 0.539314
0.000000 1.000000 1.000000
0.013235 0.000000 0.000000
0.013235 0.000000 0.013235
0.013235 0.000000 0.141451
0.013235 0.000000 0.539314
0.013235 0.000000 1.000000
0.013235 0.013235 0.000000
0.013235 0.013235 0.013235
0.013235 0.013235 0.141451
0.013235 0.013235 0.539314
0.013235 0.013235 1.000000
0.013235 0.141451 0.000000
0.013235 0.141451 0.013235
0.013235 0.141451 0.141451
0.013235 0.141451 0.539314
0.013235 0.141451 1.000000
0.013235 0.539314 0.000000
0.013235 0.539314 0.013235
0.013235 0.539314 0.141451
0.013235 0.539314 0.539314
0.013235 0.539314 1.000000
0.013235 1.000000 0.000000
0.013235 1.000000 0.013235
0.013235 1.000000 0.141451
0.013235 1.000000 0.539314
0.013235 1.000000 1.000000
0.141451 0.000000 0.000000
0.141451 0.000000 0.013235
0.141451 0.000000 0.141451
0.141451 0.000000 0.539314
0.141451 0.000000 1.000000
0.141451 0.013235 0.000000
0.141451 0.013235 0.013235
0.141451 0.013235 0.141451
0.141451 0.013235 0.539314
0.141451 0.013235 1.000000
0.141451 0.141451 0.000000
0.141451 0.141451 0.013235
0.141451 0.141451 0.141451
0.141451 0.141451 0.539314
0.141451 0.141451 1.000000
0.141451 0.539314 0.000000
0.141451 0.539314 0.013235
0.141451 0.539314 0.141451
0.141451 0.539314 0.539314
0.141451 0.539314 1.000000
0.141451 1.000000 0.000000
0.141451 1.000000 0.013235
0.141451 1.000000 0.141451
0.141451 1.000000 0.539314
0.141451 1.000000 1.000000
0.539314 0.000000 0.000000
0.539314 0.000000 0.013235
0.539314 0.000000 0.141451
0.539314 0.000000 0.539314
0.539314 0.000000 1.000000
0.539314 0.013235 0.000000
0.539314 0.013235 0.013235
0.539314 0.013235 0.141451
0.539314 0.013235 0.539314
0.539314 0.013235 1.000000
0.539314 0.141451 0.000000
0.539314 0.141451 0.013235
0.539314 0.141451 0.141451
0.539314 0.141451 0.539314
0.539314 0.141451 1.000000
0.539314 0.539314 0.000000
0.539314 0.539314 0.013235
0.539314 0.539314 0.141451
0.539314 0.539314 0.539314
0.539314 0.539314 1.000000
0.539314 1.000000 0.000000
0.539314 1.000000 0.013235
0.539314 1.000000 0.141451
0.539314 1.000000 0.539314
0.539314 1.000000 1.000000
1.000000 0.000000 0.000000
1.000000 0.000000 0.013235
1.000000 0.000000 0.141451
1.000000 0.000000 0.539314
1.000000 0.000000 1.000000
1.000000 0.013235 0.000000
1.000000 0.013235 0.013235
1.000000 0.013235 0.141451
1.000000 0.013235 0.539314
1.000000 0.013235 1.000000
1.000000 0.141451 0.000000
1.000000 0.141451 0.013235
1.000000 0.141451 0.141451
1.000000 0.141451 0.539314
1.000000 0.141451 1.000000
1.000000 0.539314 0.000000
1.000000 0.539314 0.013235
1.000000 0.539314 0.141451
1.000000 0.539314 0.539314
1.000000 0.539314 1.000000
1.000000 1.000000 0.000000
1.000000 1.000000 0.013235
1.000000 1.000000 0.141451
1.000000 1.000000 0.539314
1.000000 1.000000 1.000000
