data/luts/render_4ba32017a868.cube
# Generated by Local Color Service V0.1
TITLE "LocalColorService_Grade_33"
LUT_3D_SIZE 9
DOMAIN_MIN 0.0 0.0 0.0
DOMAIN_MAX 1.0 1.0 1.0
0.000000 0.000000 0.000000
0.000000 0.000000 0.000841
0.000000 0.000000 0.013235
0.000000 0.000000 0.053889
0.000000 0.000000 0.141451
0.000000 0.000000 0.296117
0.000000 0.000000 0.539314
0.000000 0.000000 0.893658
0.000000 0.000000 1.000000
0.000000 0.000841 0.000000
0.000000 0.000841 0.000841
0.000000 0.000841 0.013235
0.000000 0.000841 0.053889
0.000000 0.000841 0.141451
0.000000 0.000841 0.296117
0.000000 0.000841 0.539314
0.000000 0.000841 0.893658
0.000000 0.000841 1.000000
0.000000 0.013235 0.000000
0.000000 0.013235 0.000841
0.000000 0.013235 0.013235
0.000000 0.013235 0.053889
0.000000 0.013235 0.141451
0.000000 0.013235 0.296117
0.000000 0.013235 0.539314
0.000000 0.013235 0.893658
0.000000 0.013235 1.000000
0.000000 0.053889 0.000000
0.000000 0.053889 0.000841
0.000000 0.053889 0.013235
0.000000 0.053889 0.053889
0.000000 0.053889 0.141451
0.000000 0.053889 0.296117
0.000000 0.053889 0.539314
0.000000 0.053889 0.893658
0.000000 0.053889 1.000000
0.000000 0.141451 0.000000
0.000000 0.141451 0.000841
0.000000 0.141451 0.013235
0.000000 0.141451 0.053889
0.000000 0.141451 0.141451
0.000000 0.141451 0.296117
0.000000 0.141451 0.539314
0.000000 0.141451 0.893658
0.000000 0.141451 1.000000
0.000000 0.296117 0.000000
0.000000 0.296117 0.000841
0.000000 0.296117 0.013235
0.000000 0.296117 0.053889
0.000000 0.296117 0.141451
0.000000 0.296117 0.296117
0.000000 0.296117 0.539314
0.000000 0.296117 0.893658
0.000000 0.296117 1.000000
0.000000 0.539314 0.000000
0.000000 0.539314 0.000841
0.000000 0.539314 0.013235
0.000000 0.539314 0.053889
0.000000 0.539314 0.141451
0.000000 0.539314 0.296117
0.000000 0.539314 0.539314
0.000000 0.539314 0.893658
0.000000 0.539314 1.000000
0.000000 0.893658 0.000000
0.000000 0.893658 0.000841
0.000000 0.893658 0.013235
0.000000 0.893658 0.053889
0.000000 0.893658 0.141451
0.000000 0.893658 0.296117
0.000000 0.893658 0.539314
0.000000 0.893658 0.893658
0.000000 0.893658 1.000000
0.000000 1.000000 0.000000
0.000000 1.000000 0.000841
0.000000 1.000000 0.013235
0.000000 1.000000 0.053889
0.000000 1.000000 0.141451
0.000000 1.000000 0.296117
0.000000 1.000000 0.539314
0.000000 1.000000 0.893658
0.000000 1.000000 1.000000
0.000841 0.000000 0.000000
0.000841 0.000000 0.000841
0.000841 0.000000 0.013235
0.000841 0.000000 0.053889
0.000841 0.000000 0.141451
0.000841 0.000000 0.296117
0.000841 0.000000 0.539314
0.000841 0.000000 0.893658
0.000841 0.000000 1.000000
0.000841 0.000841 0.000000
0.000841 0.000841 0.000841
0.000841 0.000841 0.013235
0.000841 0.000841 0.053889
0.000841 0.000841 0.141451
0.000841 0.000841 0.296117
0.000841 0.000841 0.539314
0.000841 0.000841 0.893658
0.000841 0.000841 1.000000
0.000841 0.013235 0.000000
0.000841 0.013235 0.000841
0.000841 0.013235 0.013235
0.000841 0.013235 0.053889
0.000841 0.013235 0.141451
0.000841 0.013235 0.296117
0.000841 0.013235 0.539314
0.000841 0.013235 0.893658
0.000841 0.013235 1.000000
0.000841 0.053889 0.000000
0.000841 0.053889 0.000841
0.000841 0.053889 0.013235
0.000841 0.053889 0.053889
0.000841 0.053889 0.141451
0.000841 0.053889 0.296117
0.000841 0.053889 0.539314
0.000841 0.053889 0.893658
0.000841 0.053889 1.000000
0.000841 0.141451 0.000000
0.000841 0.141451 0.000841
0.000841 0.141451 0.013235
0.000841 0.141451 0.053889
0.000841 0.141451 0.141451
0.000841 0.141451 0.296117
0.000841 0.141451 0.539314
0.000841 0.141451 0.893658
0.000841 0.141451 1.000000
0.000841 0.296117 0.000000
0.000841 0.296117 0.000841
0.000841 0.296117 0.013235
0.000841 0.296117 0.053889
0.000841 0.296117 0.141451
0.000841 0.296117 0.296117
0.000841 0.296117 0.539314
0.000841 0.296117 0.893658
0.000841 0.296117 1.000000
0.000841 0.539314 0.000000
0.000841 0.539314 0.000841
0.000841 0.539314 0.013235
0.000841 0.539314 0.053889
0.000841 0.539314 0.141451
0.000841 0.539314 0.296117
0.000841 0.539314 0.539314
0.000841 0.539314 0.893658
0.000841 0.539314 1.000000
0.000841 0.893658 0.000000
0.000841 0.893658 0.000841
0.000841 0.893658 0.013235
0.000841 0.893658 0.053889
0.000841 0.893658 0.141451
0.000841 0.893658 0.296117
0.000841 0.893658 0.539314
0.000841 0.893658 0.893658
0.000841 0.893658 1.000000
0.000841 1.000000 0.000000
0.000841 1.000000 0.000841
0.000841 1.000000 0.013235
0.000841 1.000000 0.053889
0.000841 1.000000 0.141451
0.000841 1.000000 0.296117
0.000841 1.000000 0.539314
0.000841 1.000000 0.893658
0.000841 1.000000 1.000000
0.013235 0.000000 0.000000
0.013235 0.000000 0.000841
0.013235 0.000000 0.013235
0.013235 0.000000 0.053889
0.013235 0.000000 0.141451
0.013235 0.000000 0.296117
0.013235 0.000000 0.539314
0.013235 0.000000 0.893658
0.013235 0.000000 1.000000
0.013235 0.000841 0.000000
0.013235 0.000841 0.000841
0.013235 0.000841 0.013235
0.013235 0.000841 0.053889
0.013235 0.000841 0.141451
0.013235 0.000841 0.296117
0.013235 0.000841 0.539314
0.013235 0.000841 0.893658
0.013235 0.000841 1.000000
0.013235 0.013235 0.000000
0.013235 0.013235 0.000841
0.013235 0.013235 0.013235
0.013235 0.013235 0.053889
0.013235 0.013235 0.141451
0.013235 0.013235 0.296117
0.013235 0.013235 0.539314
0.013235 0.013235 0.893658
0.013235 0.013235 1.000000
0.013235 0.053889 0.000000
0.013235 0.053889 0.000841
0.013235 0.053889 0.013235
0.013235 0.053889 0.053889
0.013235 0.053889 0.141451
0.013235 0.053889 0.296117
0.013235 0.053889 0.539314
0.013235 0.053889 0.893658
0.013235 0.053889 1.000000
0.013235 0.141451 0.000000
0.013235 0.141451 0.000841
0.013235 0.141451 0.013235
0.013235 0.141451 0.053889
0.013235 0.141451 0.141451
0.013235 0.141451 0.296117
0.013235 0.141451 0.539314
0.013235 0.141451 0.893658
0.013235 0.141451 1.000000
0.013235 0.296117 0.000000
0.013235 0.296117 0.000841
0.013235 0.296117 0.013235
0.013235 0.296117 0.053889
0.013235 0.296117 0.141451
0.013235 0.296117 0.296117
0.013235 0.296117 0.539314
0.013235 0.296117 0.893658
0.013235 0.296117 1.000000
0.013235 0.539314 0.000000
0.013235 0.539314 0.000841
0.013235 0.539314 0.013235
0.013235 0.539314 0.053889
0.013235 0.539314 0.141451
0.013235 0.539314 0.296117
0.013235 0.539314 0.539314
0.013235 0.539314 0.893658
0.013235 0.539314 1.000000
0.013235 0.893658 0.000000
0.013235 0.893658 0.000841
0.013235 0.893658 0.013235
0.013235 0.893658 0.053889
0.013235 0.893658 0.141451
0.013235 0.893658 0.296117
0.013235 0.893658 0.539314
0.013235 0.893658 0.893658
0.013235 0.893658 1.000000
0.013235 1.000000 0.000000
0.013235 1.000000 0.000841
0.013235 1.000000 0.013235
0.013235 1.000000 0.053889
0.013235 1.000000 0.141451
0.013235 1.000000 0.296117
0.013235 1.000000 0.539314
0.013235 1.000000 0.893658
0.013235 1.000000 1.000000
0.053889 0.000000 0.000000
0.053889 0.000000 0.000841
0.053889 0.000000 0.013235
0.053889 0.000000 0.053889
0.053889 0.000000 0.141451
0.053889 0.000000 0.296117
0.053889 0.000000 0.539314
0.053889 0.000000 0.893658
0.053889 0.000000 1.000000
0.053889 0.000841 0.000000
0.053889 0.000841 0.000841
0.053889 0.000841 0.013235
0.053889 0.000841 0.053889
0.053889 0.000841 0.141451
0.053889 0.000841 0.296117
0.053889 0.000841 0.539314
0.053889 0.000841 0.893658
0.053889 0.000841 1.000000
0.053889 0.013235 0.000000
0.053889 0.013235 0.000841
0.053889 0.013235 0.013235
0.053889 0.013235 0.053889
0.053889 0.013235 0.141451
0.053889 0.013235 0.296117
0.053889 0.013235 0.539314
0.053889 0.013235 0.893658
0.053889 0.013235 1.000000
0.053889 0.053889 0.000000
0.053889 0.053889 0.000841
0.053889 0.053889 0.013235
0.053889 0.053889 0.053889
0.053889 0.053889 0.141451
0.053889 0.053889 0.296117
0.053889 0.053889 0.539314
0.053889 0.053889 0.893658
0.053889 0.053889 1.000000
0.053889 0.141451 0.000000
0.053889 0.141451 0.000841
0.053889 0.141451 0.013235
0.053889 0.141451 0.053889
0.053889 0.141451 0.141451
0.053889 0.141451 0.296117
0.053889 0.141451 0.539314
0.053889 0.141451 0.893658
0.053889 0.141451 1.000000
0.053889 0.296117 0.000000
0.053889 0.296117 0.000841
0.053889 0.296117 0.013235
0.053889 0.296117 0.053889
0.053889 0.296117 0.141451
0.053889 0.296117 0.296117
0.053889 0.296117 0.539314
0.053889 0.296117 0.893658
0.053889 0.296117 1.000000
0.053889 0.539314 0.000000
0.053889 0.539314 0.000841
0.053889 0.539314 0.013235
0.053889 0.539314 0.053889
0.053889 0.539314 0.141451
0.053889 0.539314 0.296117
0.053889 0.539314 0.539314
0.053889 0.539314 0.893658
0.053889 0.539314 1.000000
0.053889 0.893658 0.000000
0.053889 0.893658 0.000841
0.053889 0.893658 0.013235
0.053889 0.893658 0.053889
0.053889 0.893658 0.141451
0.053889 0.893658 0.296117
0.053889 0.893658 0.539314
0.053889 0.893658 0.893658
0.053889 0.893658 1.000000
0.053889 1.000000 0.000000
0.053889 1.000000 0.000841
0.053889 1.000000 0.013235
0.053889 1.000000 0.053889
0.053889 1.000000 0.141451
0.053889 1.000000 0.296117
0.053889 1.000000 0.539314
0.053889 1.000000 0.893658
0.053889 1.000000 1.000000
0.141451 0.000000 0.000000
0.141451 0.000000 0.000841
0.141451 0.000000 0.013235
0.141451 0.000000 0.053889
0.141451 0.000000 0.141451
0.141451 0.000000 0.296117
0.141451 0.000000 0.539314
0.141451 0.000000 0.893658
0.141451 0.000000 1.000000
0.141451 0.000841 0.000000
0.141451 0.000841 0.000841
0.141451 0.000841 0.013235
0.141451 0.000841 0.053889
0.141451 0.000841 0.141451
0.141451 0.000841 0.296117
0.141451 0.000841 0.539314
0.141451 0.000841 0.893658
0.141451 0.000841 1.000000
0.141451 0.013235 0.000000
0.141451 0.013235 0.000841
0.141451 0.013235 0.013235
0.141451 0.013235 0.053889
0.141451 0.013235 0.141451
0.141451 0.013235 0.296117
0.141451 0.013235 0.539314
0.141451 0.013235 0.893658
0.141451 0.013235 1.000000
0.141451 0.053889 0.000000
0.141451 0.053889 0.000841
0.141451 0.053889 0.013235
0.141451 0.053889 0.053889
0.141451 0.053889 0.141451
0.141451 0.053889 0.296117
0.141451 0.053889 0.539314
0.141451 0.053889 0.893658
0.141451 0.053889 1.000000
0.141451 0.141451 0.000000
0.141451 0.141451 0.000841
0.141451 0.141451 0.013235
0.141451 0.141451 0.053889
0.141451 0.141451 0.141451
0.141451 0.141451 0.296117
0.141451 0.141451 0.539314
0.141451 0.141451 0.893658
0.141451 0.141451 1.000000
0.141451 0.296117 0.000000
0.141451 0.296117 0.000841
0.141451 0.296117 0.013235
0.141451 0.296117 0.053889
0.141451 0.296117 0.141451
0.141451 0.296117 0.296117
0.141451 0.296117 0.539314
0.141451 0.296117 0.893658
0.141451 0.296117 1.000000
0.141451 0.539314 0.000000
0.141451 0.539314 0.000841
0.141451 0.539314 0.013235
0.141451 0.539314 0.053889
0.141451 0.539314 0.141451
0.141451 0.539314 0.296117
0.141451 0.539314 0.539314
0.141451 0.539314 0.893658
0.141451 0.539314 1.000000
0.141451 0.893658 0.000000
0.141451 0.893658 0.000841
0.141451 0.893658 0.013235
0.141451 0.893658 0.053889
0.141451 0.893658 0.141451
0.141451 0.893658 0.296117
0.141451 0.893658 0.539314
0.141451 0.893658 0.893658
0.141451 0.893658 1.000000
0.141451 1.000000 0.000000
0.141451 1.000000 0.000841
0.141451 1.000000 0.013235
0.141451 1.000000 0.053889
0.141451 1.000000 0.141451
0.141451 1.000000 0.296117
0.141451 1.000000 0.539314
0.141451 1.000000 0.893658
0.141451 1.000000 1.000000
0.296117 0.000000 0.000000
0.296117 0.000000 0.000841
0.296117 0.000000 0.013235
0.296117 0.000000 0.053889
0.296117 0.000000 0.141451
0.296117 0.000000 0.296117
0.296117 0.000000 0.539314
0.296117 0.000000 0.893658
0.296117 0.000000 1.000000
0.296117 0.000841 0.000000
0.296117 0.000841 0.000841
0.296117 0.000841 0.013235
0.296117 0.000841 0.053889
0.296117 0.000841 0.141451
0.296117 0.000841 0.296117
0.296117 0.000841 0.539314
0.296117 0.000841 0.893658
0.296117 0.000841 1.000000
0.296117 0.013235 0.000000
0.296117 0.013235 0.000841
0.296117 0.013235 0.013235
0.296117 0.013235 0.053889
0.296117 0.013235 0.141451
0.296117 0.013235 0.296117
0.296117 0.013235 0.539314
0.296117 0.013235 0.893658
0.296117 0.013235 1.000000
0.296117 0.053889 0.000000
0.296117 0.053889 0.000841
0.296117 0.053889 0.013235
0.296117 0.053889 0.053889
0.296117 0.053889 0.141451
0.296117 0.053889 0.296117
0.296117 0.053889 0.539314
0.296117 0.053889 0.893658
0.296117 0.053889 1.000000
0.296117 0.141451 0.000000
0.296117 0.141451 0.000841
0.296117 0.141451 0.013235
0.296117 0.141451 0.053889
0.296117 0.141451 0.141451
0.296117 0.141451 0.296117
0.296117 0.141451 0.539314
0.296117 0.141451 0.893658
0.296117 0.141451 1.000000
0.296117 0.296117 0.000000
0.296117 0.296117 0.000841
0.296117 0.296117 0.013235
0.296117 0.296117 0.053889
0.296117 0.296117 0.141451
0.296117 0.296117 0.296117
0.296117 0.296117 0.539314
0.296117 0.296117 0.893658
0.296117 0.296117 1.000000
0.296117 0.539314 0.000000
0.296117 0.539314 0.000841
0.296117 0.539314 0.013235
0.296117 0.539314 0.053889
0.296117 0.539314 0.141451
0.296117 0.539314 0.296117
0.296117 0.539314 0.539314
0.296117 0.539314 0.893658
0.296117 0.539314 1.000000
0.296117 0.893658 0.000000
0.296117 0.893658 0.000841
0.296117 0.893658 0.013235
0.296117 0.893658 0.053889
0.296117 0.893658 0.141451
0.296117 0.893658 0.296117
0.296117 0.893658 0.539314
0.296117 0.893658 0.893658
0.296117 0.893658 1.000000
0.296117 1.000000 0.000000
0.296117 1.000000 0.000841
0.296117 1.000000 0.013235
0.296117 1.000000 0.053889
0.296117 1.000000 0.141451
0.296117 1.000000 0.296117
0.296117 1.000000 0.539314
0.296117 1.000000 0.893658
0.296117 1.000000 1.000000
0.539314 0.000000 0.000000
0.539314 0.000000 0.000841
0.539314 0.000000 0.013235
0.539314 0.000000 0.053889
0.539314 0.000000 0.141451
0.539314 0.000000 0.296117
0.539314 0.000000 0.539314
0.539314 0.000000 0.893658
0.539314 0.000000 1.000000
0.539314 0.000841 0.000000
0.539314 0.000841 0.000841
0.539314 0.000841 0.013235
0.539314 0.000841 0.053889
0.539314 0.000841 0.141451
0.539314 0.000841 0.296117
0.539314 0.000841 0.539314
0.539314 0.000841 0.893658
0.539314 0.000841 1.000000
0.539314 0.013235 0.000000
0.539314 0.013235 0.000841
0.539314 0.013235 0.013235
0.539314 0.013235 0.053889
0.539314 0.013235 0.141451
0.539314 0.013235 0.296117
0.539314 0.013235 0.539314
0.539314 0.013235 0.893658
0.539314 0.013235 1.000000
0.539314 0.053889 0.000000
0.539314 0.053889 0.000841
0.539314 0.053889 0.013235
0.539314 0.053889 0.053889
0.539314 0.053889 0.141451
0.539314 0.053889 0.296117
0.539314 0.053889 0.539314
0.539314 0.053889 0.893658
0.539314 0.053889 1.000000
0.539314 0.141451 0.000000
0.539314 0.141451 0.000841
0.539314 0.141451 0.013235
0.539314 0.141451 0.053889
0.539314 0.141451 0.141451
0.539314 0.141451 0.296117
0.539314 0.141451 0.539314
0.539314 0.141451 0.893658
0.539314 0.141451 1.000000
0.539314 0.296117 0.000000
0.539314 0.296117 0.000841
0.539314 0.296117 0.013235
0.539314 0.296117 0.053889
0.539314 0.296117 0.141451
0.539314 0.296117 0.296117
0.539314 0.296117 0.539314
0.539314 0.296117 0.893658
0.539314 0.296117 1.000000
0.539314 0.539314 0.000000
0.539314 0.539314 0.000841
0.539314 0.539314 0.013235
0.539314 0.539314 0.053889
0.539314 0.539314 0.141451
0.539314 0.539314 0.296117
0.539314 0.539314 0.539314
0.539314 0.539314 0.893658
0.539314 0.539314 1.000000
0.539314 0.893658 0.000000
0.539314 0.893658 0.000841
0.539314 0.893658 0.013235
0.539314 0.893658 0.053889
0.539314 0.893658 0.141451
0.539314 0.893658 0.296117
0.539314 0.893658 0.539314
0.539314 0.893658 0.893658
0.539314 0.893658 1.000000
0.539314 1.000000 0.000000
0.539314 1.000000 0.000841
0.539314 1.000000 0.013235
0.539314 1.000000 0.053889
0.539314 1.000000 0.141451
0.539314 1.000000 0.296117
0.539314 1.000000 0.539314
0.539314 1.000000 0.893658
0.539314 1.000000 1.000000
0.893658 0.000000 0.000000
0.893658 0.000000 0.000841
0.893658 0.000000 0.013235
0.893658 0.000000 0.053889
0.893658 0.000000 0.141451
0.893658 0.000000 0.296117
0.893658 0.000000 0.539314
0.893658 0.000000 0.893658
0.893658 0.000000 1.000000
0.893658 0.000841 0.000000
0.893658 0.000841 0.000841
0.893658 0.000841 0.013235
0.893658 0.000841 0.053889
0.893658 0.000841 0.141451
0.893658 0.000841 0.296117
0.893658 0.000841 0.539314
0.893658 0.000841 0.893658
0.893658 0.000841 1.000000
0.893658 0.013235 0.000000
0.893658 0.013235 0.000841
0.893658 0.013235 0.013235
0.893658 0.013235 0.053889
0.893658 0.013235 0.141451
0.893658 0.013235 0.296117
0.893658 0.013235 0.539314
0.893658 0.013235 0.893658
0.893658 0.013235 1.000000
0.893658 0.053889 0.000000
0.893658 0.053889 0.000841
0.893658 0.053889 0.013235
0.893658 0.053889 0.053889
0.893658 0.053889 0.141451
0.893658 0.053889 0.296117
0.893658 0.053889 0.539314
0.893658 0.053889 0.893658
0.893658 0.053889 1.000000
0.893658 0.141451 0.000000
0.893658 0.141451 0.000841
0.893658 0.141451 0.013235
0.893658 0.141451 0.053889
0.893658 0.141451 0.141451
0.893658 0.141451 0.296117
0.893658 0.141451 0.539314
0.893658 0.141451 0.893658
0.893658 0.141451 1.000000
0.893658 0.296117 0.000000
0.893658 0.296117 0.000841
0.893658 0.296117 0.013235
0.893658 0.296117 0.053889
0.893658 0.296117 0.141451
0.893658 0.296117 0.296117
0.893658 0.296117 0.539314
0.893658 0.296117 0.893658
0.893658 0.296117 1.000000
0.893658 0.539314 0.000000
0.893658 0.539314 0.000841
0.893658 0.539314 0.013235
0.893658 0.539314 0.053889
0.893658 0.539314 0.141451
0.893658 0.539314 0.296117
0.893658 0.539314 0.539314
0.893658 0.539314 0.893658
0.893658 0.539314 1.000000
0.893658 0.893658 0.000000
0.893658 0.893658 0.000841
0.893658 0.893658 0.013235
0.893658 0.893658 0.053889
0.893658 0.893658 0.141451
0.893658 0.893658 0.296117
0.893658 0.893658 0.539314
0.893658 0.893658 0.893658
0.893658 0.893658 1.000000
0.893658 1.000000 0.000000
0.893658 1.000000 0.000841
0.893658 1.000000 0.013235
0.893658 1.000000 0.053889
0.893658 1.000000 0.141451
0.893658 1.000000 0.296117
0.893658 1.000000 0.539314
0.893658 1.000000 0.893658
0.893658 1.000000 1.000000
1.000000 0.000000 0.000000
1.000000 0.000000 0.000841
1.000000 0.000000 0.013235
1.000000 0.000000 0.053889
1.000000 0.000000 0.141451
1.000000 0.000000 0.296117
1.000000 0.000000 0.539314
1.000000 0.000000 0.893658
1.000000 0.000000 1.000000
1.000000 0.000841 0.000000
1.000000 0.000841 0.000841
1.000000 0.000841 0.013235
1.000000 0.000841 0.053889
1.000000 0.000841 0.141451
1.000000 0.000841 0.296117
1.000000 0.000841 0.539314
1.000000 0.000841 0.893658
1.000000 0.000841 1.000000
1.000000 0.013235 0.000000
1.000000 0.013235 0.000841
1.000000 0.013235 0.013235
1.000000 0.013235 0.053889
1.000000 0.013235 0.141451
1.000000 0.013235 0.296117
1.000000 0.013235 0.539314
1.000000 0.013235 0.893658
1.000000 0.013235 1.000000
1.000000 0.053889 0.000000
1.000000 0.053889 0.000841
1.000000 0.053889 0.013235
1.000000 0.053889 0.053889
1.000000 0.053889 0.141451
1.000000 0.053889 0.296117
1.000000 0.053889 0.539314
1.000000 0.053889 0.893658
1.000000 0.053889 1.000000
1.000000 0.141451 0.000000
1.000000 0.141451 0.000841
1.000000 0.141451 0.013235
1.000000 0.141451 0.053889
1.000000 0.141451 0.141451
1.000000 0.141451 0.296117
1.000000 0.141451 0.539314
1.000000 0.141451 0.893658
1.000000 0.141451 1.000000
1.000000 0.296117 0.000000
1.000000 0.296117 0.000841
1.000000 0.296117 0.013235
1.000000 0.296117 0.053889
1.000000 0.296117 0.141451
1.000000 0.296117 0.296117
1.000000 0.296117 0.539314
1.000000 0.296117 0.893658
1.000000 0.296117 1.000000
1.000000 0.539314 0.000000
1.000000 0.539314 0.000841
1.000000 0.539314 0.013235
1.000000 0.539314 0.053889
1.000000 0.539314 0.141451
1.000000 0.539314 0.296117
1.000000 0.539314 0.539314
1.000000 0.539314 0.893658
1.000000 0.539314 1.000000
1.000000 0.893658 0.000000
1.000000 0.893658 0.000841
1.000000 0.893658 0.013235
1.000000 0.893658 0.053889
1.000000 0.893658 0.141451
1.000000 0.893658 0.296117
1.000000 0.893658 0.539314
1.000000 0.893658 0.893658
1.000000 0.893658 1.000000
1.000000 1.000000 0.000000
1.000000 1.000000 0.000841
1.000000 1.000000 0.013235
1.000000 1.000000 0.053889
1.000000 1.000000 0.141451
1.000000 1.000000 0.296117
1.000000 1.000000 0.539314
1.000000 1.000000 0.893658
1.000000 1.000000 1.000000
