data/manual_verify/canoncgt_candidates2/safe/candidate_c.cube
# Generated by Local Color Service V0.2.0 using OpenColorIO Baker
# Recipe Hash: 6ea6d943ea0552ff071de67be440d2e072fe3f30b64ea320f66be852ae2973de
# OCIO Config: studio-config-v4.0.0_aces-v2.0_ocio-v2.5
LUT_3D_SIZE 9
-0.000699 -0.000251 0.024987
0.120273 -0.000156 0.033881
0.248464 0.030952 0.054326
0.378492 0.049786 0.075859
0.510001 0.068206 0.096963
0.641213 0.089536 0.121599
0.771476 0.113198 0.147433
0.900713 0.138309 0.173810
1.028935 0.164221 0.200576
-0.000539 0.124755 0.033252
0.121937 0.125018 0.034891
0.250763 0.125806 0.050441
0.381251 0.126258 0.072915
0.512226 0.128939 0.094851
0.642915 0.138024 0.120610
0.772799 0.152050 0.146774
0.901770 0.169706 0.173344
1.029799 0.190000 0.200228
-0.000859 0.256302 0.038798
0.120571 0.256584 0.038834
0.253773 0.257362 0.038002
0.385156 0.258302 0.048489
0.516142 0.259459 0.079016
0.646661 0.261015 0.110334
0.776332 0.263325 0.140150
0.905084 0.267147 0.169231
1.032778 0.275187 0.197523
-0.001680 0.390388 0.029029
0.116508 0.390542 0.029333
0.255199 0.391067 0.030543
0.387879 0.391827 0.032928
0.519421 0.392749 0.049902
0.650000 0.393922 0.087614
0.779571 0.395506 0.122841
0.908173 0.397668 0.155699
1.035837 0.400551 0.187153
-0.001785 0.524213 0.047442
0.117064 0.524308 0.047681
0.256962 0.524663 0.048716
0.390210 0.525233 0.050813
0.522032 0.525950 0.054205
0.652733 0.526840 0.065215
0.782351 0.527976 0.099309
0.910949 0.529451 0.135759
1.038570 0.531363 0.170497
-0.000464 0.656918 0.072018
0.128149 0.656979 0.072201
0.261785 0.657221 0.072997
0.393716 0.657638 0.074632
0.524897 0.658194 0.077324
0.655314 0.658878 0.081252
0.784855 0.659723 0.088968
0.913419 0.660789 0.116301
1.041012 0.662144 0.151011
0.089183 0.788301 0.099003
0.151209 0.788344 0.099145
0.271385 0.788518 0.099766
0.399403 0.788833 0.101044
0.528878 0.789270 0.103134
0.658410 0.789812 0.106187
0.787475 0.790470 0.110331
0.915821 0.791277 0.116527
1.043298 0.792281 0.137793
0.140284 0.918395 0.126977
0.181645 0.918426 0.127094
0.286085 0.918557 0.127599
0.408037 0.918799 0.128643
0.534637 0.919146 0.130342
0.662588 0.919583 0.132818
0.790714 0.920111 0.136180
0.918493 0.920747 0.140519
1.045673 0.921519 0.146133
0.186158 1.047280 0.155765
0.216332 1.047305 0.155861
0.305738 1.047406 0.156287
0.420001 1.047601 0.157161
0.542603 1.047883 0.158583
0.668242 1.048247 0.160643
0.794930 1.048690 0.163436
0.921777 1.049220 0.167043
1.048428 1.049849 0.171503
-0.000601 0.025055 0.126237
0.120187 -0.000060 0.126707
0.248798 0.031059 0.127451
0.378963 0.049829 0.127954
0.510438 0.068442 0.133665
0.641548 0.089761 0.149005
0.771737 0.113389 0.168794
0.900922 0.138466 0.191063
1.029106 0.164353 0.214881
-0.000518 0.124882 0.127611
0.122107 0.125144 0.127872
0.251061 0.125934 0.128578
0.381668 0.126443 0.129542
0.512633 0.129142 0.134298
0.643238 0.138207 0.149062
0.773053 0.152211 0.168672
0.901976 0.169844 0.190895
1.029969 0.190119 0.214711
-0.000863 0.256499 0.130224
0.120661 0.256776 0.130384
0.253957 0.257540 0.130860
0.385415 0.258463 0.131515
0.516453 0.259601 0.133082
0.646940 0.261147 0.145318
0.776563 0.263450 0.165189
0.905276 0.267262 0.188382
1.032940 0.275288 0.212902
-0.001701 0.390551 0.133009
0.116403 0.390702 0.133101
0.255250 0.391218 0.133447
0.387985 0.391964 0.134060
0.519575 0.392868 0.134997
0.650203 0.394024 0.139470
0.779765 0.395596 0.156215
0.908343 0.397751 0.179296
1.035984 0.400629 0.205025
-0.001806 0.524331 0.137631
0.116916 0.524424 0.137713
0.256958 0.524775 0.138051
0.390253 0.525339 0.138713
0.522101 0.526048 0.139775
0.652828 0.526927 0.141384
0.782486 0.528052 0.148350
0.911087 0.529518 0.167747
1.038698 0.531424 0.193055
-0.000488 0.657005 0.145899
0.127990 0.657066 0.145981
0.261753 0.657306 0.146332
0.393724 0.657720 0.147042
0.524927 0.658272 0.148205
0.655358 0.658951 0.149933
0.784915 0.659790 0.152352
0.913512 0.660848 0.160627
1.041113 0.662197 0.181057
0.088878 0.788368 0.158394
0.151070 0.788412 0.158475
0.271338 0.788584 0.158824
0.399390 0.788898 0.159539
0.528885 0.789332 0.160711
0.658431 0.789872 0.162436
0.787504 0.790525 0.164823
0.915861 0.791329 0.167972
1.043364 0.792328 0.176584
0.140098 0.918449 0.174872
0.181523 0.918480 0.174952
0.286027 0.918610 0.175290
0.408011 0.918852 0.175986
0.534630 0.919197 0.177123
0.662594 0.919632 0.178784
0.790729 0.920158 0.181060
0.918515 0.920791 0.184039
1.045700 0.921561 0.187798
0.186022 1.047325 0.194775
0.216228 1.047349 0.194850
0.305676 1.047450 0.195170
0.419968 1.047644 0.195826
0.542587 1.047926 0.196893
0.668235 1.048289 0.198446
0.794933 1.048730 0.200557
0.921785 1.049259 0.203297
1.048443 1.049886 0.206717
-0.000292 0.071768 0.254101
0.112638 0.069076 0.254612
0.248396 0.047913 0.256269
0.379541 0.047531 0.258285
0.511078 0.067293 0.260273
0.642234 0.089326 0.261881
0.772435 0.113408 0.263321
0.901603 0.138749 0.266249
1.029721 0.164710 0.276243
-0.000256 0.124921 0.256321
0.121530 0.125351 0.256836
0.251250 0.126061 0.258284
0.382115 0.126543 0.259902
0.513201 0.129134 0.261506
0.643881 0.138228 0.262938
0.773724 0.152368 0.264288
0.902641 0.170139 0.266962
1.030574 0.190461 0.276650
-0.001009 0.256877 0.261086
0.119802 0.257132 0.261321
0.254008 0.257852 0.262011
0.385703 0.258743 0.262900
0.516856 0.259855 0.263929
0.647443 0.261401 0.265135
0.777131 0.263738 0.266583
0.905874 0.267593 0.268901
1.033506 0.275618 0.277650
-0.001807 0.390912 0.264670
0.115677 0.391056 0.264783
0.255210 0.391551 0.265185
0.388143 0.392274 0.265808
0.519838 0.393154 0.266601
0.650538 0.394287 0.267593
0.780188 0.395848 0.268853
0.908832 0.398010 0.270464
1.036484 0.400897 0.276985
-0.001904 0.524651 0.268230
0.116186 0.524741 0.268301
0.256839 0.525082 0.268580
0.390311 0.525631 0.269072
0.522249 0.526323 0.269765
0.653032 0.527183 0.270687
0.782750 0.528289 0.271896
0.911433 0.529741 0.273460
1.039102 0.531642 0.276791
-0.000584 0.657278 0.272717
0.127325 0.657338 0.272772
0.261589 0.657572 0.272999
0.393708 0.657978 0.273433
0.524991 0.658518 0.274090
0.655475 0.659184 0.275001
0.785070 0.660009 0.276216
0.913715 0.661052 0.277796
1.041393 0.662387 0.279808
0.087597 0.788600 0.278854
0.150493 0.788642 0.278903
0.271129 0.788812 0.279110
0.399320 0.789120 0.279521
0.528889 0.789546 0.280168
0.658484 0.790077 0.281086
0.787594 0.790721 0.282321
0.915976 0.791514 0.283929
1.043519 0.792502 0.285970
0.139357 0.918645 0.287142
0.181016 0.918676 0.287190
0.285788 0.918804 0.287389
0.407900 0.919042 0.287794
0.534589 0.919382 0.288441
0.662600 0.919811 0.289367
0.790768 0.920330 0.290618
0.918577 0.920956 0.292245
1.045785 0.921717 0.294297
0.185466 1.047492 0.297837
0.215782 1.047516 0.297883
0.305424 1.047616 0.298077
0.419828 1.047807 0.298473
0.542514 1.048086 0.299109
0.668209 1.048445 0.300022
0.794936 1.048882 0.301253
0.921814 1.049405 0.302846
1.048492 1.050027 0.304840
0.026847 0.110872 0.384428
0.107695 0.110030 0.384971
0.243765 0.099638 0.386721
0.379251 0.072357 0.388989
0.511560 0.064599 0.391551
0.642718 0.087681 0.393770
0.772925 0.112343 0.395658
0.902112 0.138046 0.397356
1.030287 0.164356 0.398981
0.045726 0.138898 0.386673
0.116482 0.138713 0.387189
0.249519 0.134419 0.388776
0.382258 0.127831 0.390742
0.513590 0.128891 0.392801
0.644320 0.137821 0.394699
0.774188 0.151954 0.396417
0.903130 0.169788 0.398021
1.031124 0.190282 0.399589
-0.001292 0.257242 0.392386
0.117898 0.257463 0.392669
0.253754 0.258123 0.393526
0.385798 0.258983 0.394628
0.517103 0.260078 0.395841
0.647766 0.261619 0.397148
0.777505 0.263954 0.398569
0.906291 0.267774 0.400107
1.033996 0.275779 0.401656
-0.002002 0.391272 0.396722
0.114217 0.391406 0.396858
0.254936 0.391875 0.397340
0.388161 0.392574 0.398057
0.519996 0.393436 0.398905
0.650774 0.394557 0.399870
0.780479 0.396108 0.400977
0.909166 0.398259 0.402262
1.036880 0.401152 0.403765
-0.002070 0.525005 0.400351
0.114862 0.525091 0.400430
0.256536 0.525420 0.400735
0.390272 0.525952 0.401248
0.522329 0.526629 0.401914
0.653189 0.527476 0.402719
0.782965 0.528569 0.403683
0.911691 0.530007 0.404839
1.039405 0.531897 0.406228
-0.000745 0.657615 0.404060
0.126180 0.657673 0.404114
0.261264 0.657901 0.404334
0.393605 0.658296 0.404734
0.525002 0.658825 0.405300
0.655560 0.659479 0.406026
0.785211 0.660292 0.406926
0.913901 0.661323 0.408029
1.041613 0.662645 0.409368
0.085362 0.788915 0.408416
0.149487 0.788956 0.408458
0.270741 0.789121 0.408635
0.399152 0.789423 0.408974
0.528835 0.789841 0.409480
0.658505 0.790362 0.410158
0.787670 0.790997 0.411021
0.916096 0.791778 0.412096
1.043674 0.792754 0.413413
0.138055 0.918933 0.413797
0.180128 0.918964 0.413834
0.285358 0.919089 0.413988
0.407680 0.919323 0.414292
0.534485 0.919657 0.414762
0.662567 0.920079 0.415409
0.790791 0.920590 0.416251
0.918645 0.921206 0.417310
1.045887 0.921958 0.418616
0.184505 1.047755 0.420476
0.215020 1.047778 0.420510
0.304973 1.047877 0.420651
0.419573 1.048065 0.420933
0.542368 1.048339 0.421378
0.668135 1.048693 0.422003
0.794916 1.049123 0.422825
0.921835 1.049640 0.423867
1.048552 1.050253 0.425152
0.049118 0.149615 0.515715
0.111416 0.149152 0.516108
0.235218 0.144133 0.517550
0.376037 0.127757 0.519549
0.511031 0.099060 0.521818
0.643163 0.085172 0.524329
0.773335 0.110700 0.526649
0.902510 0.136884 0.528676
1.030685 0.163501 0.530515
0.061752 0.168410 0.517331
0.118413 0.168166 0.517702
0.241886 0.164591 0.519056
0.379626 0.154139 0.520922
0.513283 0.139776 0.523032
0.644701 0.137210 0.525280
0.774564 0.151298 0.527372
0.903509 0.169176 0.529269
1.031509 0.189752 0.531026
0.025880 0.257294 0.522674
0.120568 0.257709 0.522950
0.253477 0.258409 0.523908
0.385854 0.259232 0.525203
0.517288 0.260311 0.526626
0.648000 0.261852 0.528119
0.777772 0.264195 0.529669
0.906591 0.267966 0.531266
1.034327 0.275861 0.532839
-0.002198 0.391633 0.527734
0.112727 0.391754 0.527890
0.254640 0.392190 0.528445
0.388138 0.392860 0.529272
0.520089 0.393705 0.530232
0.650920 0.394820 0.531278
0.780670 0.396367 0.532412
0.909396 0.398517 0.533646
1.037147 0.401406 0.535001
-0.002231 0.525350 0.531749
0.113555 0.525431 0.531839
0.256227 0.525743 0.532184
0.390204 0.526256 0.532753
0.522355 0.526919 0.533467
0.653272 0.527757 0.534284
0.783095 0.528842 0.535200
0.911866 0.530274 0.536230
1.039618 0.532157 0.537396
-0.000897 0.657950 0.535364
0.125078 0.658005 0.535423
0.260939 0.658225 0.535657
0.393475 0.658609 0.536074
0.524967 0.659126 0.536638
0.655589 0.659772 0.537322
0.785290 0.660576 0.538118
0.914024 0.661599 0.539037
1.041775 0.662914 0.540101
0.083073 0.789241 0.539061
0.148475 0.789280 0.539103
0.270334 0.789442 0.539278
0.398956 0.789736 0.539605
0.528744 0.790147 0.540074
0.658483 0.790659 0.540672
0.787700 0.791286 0.541394
0.916172 0.792060 0.542250
1.043788 0.793028 0.543257
0.136649 0.919249 0.543197
0.179180 0.919278 0.543230
0.284880 0.919401 0.543371
0.407422 0.919630 0.543644
0.534341 0.919958 0.544053
0.662499 0.920373 0.544594
0.790776 0.920877 0.545268
0.918674 0.921486 0.546086
1.045958 0.922231 0.547060
0.183390 1.048058 0.548038
0.214127 1.048081 0.548066
0.304446 1.048178 0.548187
0.419258 1.048362 0.548426
0.542176 1.048632 0.548794
0.668020 1.048981 0.549295
0.794859 1.049406 0.549934
0.921822 1.049915 0.550722
1.048584 1.050522 0.551667
0.072638 0.189108 0.646016
0.121103 0.188796 0.646302
0.229201 0.186289 0.647417
0.370287 0.175646 0.649196
0.508221 0.156464 0.651222
0.642382 0.128014 0.653455
0.773777 0.108631 0.655887
0.902895 0.135402 0.658237
1.031040 0.162396 0.660329
0.081580 0.202943 0.647195
0.126961 0.202726 0.647471
0.234307 0.200716 0.648548
0.374079 0.192101 0.650255
0.510666 0.177645 0.652202
0.644063 0.158990 0.654340
0.774962 0.150528 0.656627
0.903868 0.168419 0.658817
1.031848 0.189074 0.660808
0.093502 0.265016 0.651601
0.138810 0.265167 0.651837
0.250447 0.265014 0.652749
0.385076 0.263154 0.654150
0.517431 0.261472 0.655743
0.648271 0.262168 0.657429
0.778031 0.264523 0.659149
0.906853 0.268235 0.660879
1.034601 0.275974 0.662571
-0.001861 0.391993 0.657132
0.112855 0.392138 0.657295
0.254737 0.392541 0.657900
0.388309 0.393177 0.658822
0.520272 0.394002 0.659898
0.651090 0.395112 0.661056
0.780841 0.396660 0.662278
0.909579 0.398811 0.663563
1.037347 0.401701 0.664920
-0.002243 0.525706 0.661603
0.113531 0.525782 0.661702
0.256310 0.526075 0.662083
0.390327 0.526565 0.662713
0.522462 0.527212 0.663497
0.653375 0.528041 0.664373
0.783207 0.529121 0.665322
0.911994 0.530550 0.666345
1.039768 0.532431 0.667455
-0.000901 0.658280 0.665398
0.125084 0.658333 0.665462
0.260979 0.658542 0.665717
0.393514 0.658914 0.666169
0.525008 0.659420 0.666768
0.655638 0.660056 0.667473
0.785354 0.660854 0.668261
0.914108 0.661874 0.669133
1.041883 0.663185 0.670097
0.082432 0.789561 0.668947
0.148196 0.789599 0.668992
0.270223 0.789755 0.669176
0.398899 0.790042 0.669517
0.528719 0.790443 0.669994
0.658479 0.790948 0.670584
0.787718 0.791569 0.671268
0.916215 0.792337 0.672045
1.043858 0.793301 0.672923
0.135907 0.919562 0.672578
0.178669 0.919592 0.672612
0.284620 0.919711 0.672753
0.407270 0.919935 0.673024
0.534247 0.920256 0.673421
0.662442 0.920666 0.673930
0.790751 0.921163 0.674543
0.918679 0.921768 0.675257
1.045996 0.922507 0.676079
0.182588 1.048368 0.676536
0.213479 1.048390 0.676564
0.304057 1.048484 0.676680
0.419014 1.048666 0.676906
0.542015 1.048931 0.677247
0.667913 1.049274 0.677699
0.794790 1.049694 0.678258
0.921787 1.050199 0.678925
1.048591 1.050800 0.679704
0.098606 0.229113 0.774985
0.136069 0.228883 0.775204
0.231609 0.227346 0.776086
0.361887 0.220886 0.777628
0.503689 0.206693 0.779488
0.639778 0.186044 0.781515
0.772731 0.158641 0.783711
0.903354 0.133749 0.786064
1.031422 0.161146 0.788422
0.105043 0.239867 0.775890
0.140950 0.239684 0.776104
0.235545 0.238376 0.776966
0.365853 0.232621 0.778470
0.506210 0.220467 0.780279
0.641552 0.203496 0.782255
0.774027 0.182810 0.784389
0.904294 0.167640 0.786658
1.032211 0.188340 0.788899
0.120964 0.286951 0.779444
0.154695 0.286954 0.779637
0.249078 0.286537 0.780416
0.379507 0.283534 0.781756
0.514872 0.278116 0.783358
0.647481 0.272014 0.785105
0.778135 0.267594 0.786957
0.907155 0.268654 0.788850
1.034883 0.276181 0.790704
0.087198 0.391984 0.784932
0.140252 0.392235 0.785084
0.256000 0.392955 0.785689
0.388918 0.393566 0.786682
0.520707 0.394371 0.787866
0.651405 0.395476 0.789145
0.781088 0.397027 0.790484
0.909790 0.399181 0.791868
1.037542 0.402071 0.793296
-0.001955 0.526099 0.789834
0.116082 0.526169 0.789939
0.257207 0.526441 0.790348
0.390868 0.526905 0.791033
0.522805 0.527536 0.791890
0.653611 0.528355 0.792845
0.783385 0.529431 0.793863
0.912143 0.530859 0.794937
1.039909 0.532739 0.796070
-0.000612 0.658623 0.793932
0.127292 0.658673 0.794002
0.261767 0.658872 0.794279
0.393938 0.659228 0.794768
0.525268 0.659721 0.795416
0.655810 0.660349 0.796167
0.785479 0.661142 0.796991
0.914211 0.662158 0.797877
1.041982 0.663467 0.798828
0.085347 0.789880 0.797574
0.149492 0.789918 0.797622
0.270764 0.790068 0.797820
0.399189 0.790345 0.798183
0.528890 0.790737 0.798688
0.658587 0.791234 0.799300
0.787795 0.791849 0.799993
0.916276 0.792614 0.800758
1.043920 0.793575 0.801594
0.136740 0.919873 0.801057
0.179230 0.919900 0.801093
0.284897 0.920016 0.801242
0.407414 0.920234 0.801523
0.534326 0.920548 0.801930
0.662486 0.920951 0.802443
0.790778 0.921444 0.803044
0.918701 0.922044 0.803724
1.046029 0.922779 0.804483
0.182674 1.048673 0.804612
0.213545 1.048695 0.804641
0.304084 1.048787 0.804758
0.419014 1.048965 0.804986
0.541998 1.049225 0.805324
0.667890 1.049563 0.805764
0.794766 1.049978 0.806296
0.921770 1.050479 0.806913
1.048597 1.051076 0.807612
0.125911 0.269425 0.902651
0.155228 0.269245 0.902825
0.239310 0.268184 0.903539
0.355609 0.264325 0.904847
0.497423 0.253758 0.906565
0.635875 0.237710 0.908443
0.770255 0.216432 0.910463
0.902041 0.190180 0.912623
1.031865 0.161278 0.914902
0.130738 0.278100 0.903371
0.159253 0.277946 0.903543
0.242528 0.277005 0.904245
0.358846 0.273455 0.905532
0.500009 0.263798 0.907217
0.637691 0.249477 0.909062
0.771609 0.231043 0.911045
0.903073 0.209522 0.913162
1.032643 0.188320 0.915389
0.145579 0.315645 0.906277
0.172358 0.315595 0.906437
0.254196 0.315134 0.907092
0.371444 0.312800 0.908289
0.509647 0.306587 0.909837
0.644418 0.298249 0.911537
0.776536 0.288862 0.913361
0.906714 0.280418 0.915286
1.035240 0.276552 0.917273
0.147786 0.396638 0.911274
0.177309 0.396783 0.911411
0.265531 0.397207 0.911972
0.388600 0.397074 0.912977
0.521016 0.396398 0.914244
0.651904 0.396268 0.915635
0.781503 0.397507 0.917095
0.910107 0.399663 0.918597
1.037798 0.402555 0.920127
0.054782 0.526401 0.916522
0.132450 0.526519 0.916627
0.259321 0.526868 0.917048
0.392047 0.527306 0.917776
0.523537 0.527919 0.918700
0.654095 0.528728 0.919736
0.783720 0.529800 0.920837
0.912390 0.531227 0.921987
1.040104 0.533108 0.923181
0.022927 0.658998 0.920958
0.132549 0.659044 0.921031
0.263684 0.659232 0.921325
0.394967 0.659573 0.921849
0.525896 0.660052 0.922546
0.656215 0.660670 0.923354
0.785752 0.661458 0.924231
0.914404 0.662472 0.925163
1.042129 0.663780 0.926143
0.093021 0.790215 0.924806
0.153131 0.790249 0.924857
0.272318 0.790393 0.925068
0.400036 0.790660 0.925456
0.529405 0.791042 0.925994
0.658915 0.791531 0.926643
0.788009 0.792140 0.927369
0.916424 0.792902 0.928155
1.044029 0.793862 0.928995
0.140045 0.920184 0.928329
0.181496 0.920211 0.928367
0.286043 0.920322 0.928524
0.408059 0.920534 0.928821
0.534718 0.920841 0.929248
0.662733 0.921237 0.929781
0.790935 0.921725 0.930396
0.918804 0.922321 0.931079
1.046108 0.923053 0.931823
0.184279 1.048975 0.931742
0.214823 1.048997 0.931771
0.304827 1.049087 0.931893
0.419447 1.049260 0.932129
0.542260 1.049515 0.932477
0.668046 1.049848 0.932924
0.794859 1.050259 0.933456
0.921827 1.050756 0.934061
1.048647 1.051350 0.934729
0.153881 0.309867 1.029068
0.177306 0.309720 1.029210
0.251049 0.308922 1.029802
0.356412 0.306344 1.030915
0.489418 0.299056 1.032471
0.630700 0.286059 1.034238
0.766745 0.268864 1.036126
0.899650 0.247448 1.038134
1.030312 0.222396 1.040262
0.157652 0.317051 1.029658
0.180647 0.316920 1.029799
0.253779 0.316191 1.030384
0.359031 0.313781 1.031484
0.492075 0.306884 1.033020
0.632547 0.294823 1.034762
0.768127 0.279071 1.036624
0.900722 0.259874 1.038606
1.031154 0.238243 1.040703
0.170601 0.347997 1.032078
0.192447 0.347928 1.032211
0.264032 0.347485 1.032768
0.369386 0.345748 1.033813
0.502374 0.340453 1.035261
0.639721 0.331894 1.036901
0.773457 0.321325 1.038657
0.904805 0.309598 1.040521
1.034300 0.298392 1.042481
0.182018 0.413167 1.036461
0.204044 0.413219 1.036582
0.277110 0.413314 1.037081
0.385518 0.412820 1.038015
0.517581 0.410529 1.039285
0.650193 0.407464 1.040716
0.780983 0.404487 1.042249
0.910259 0.402640 1.043856
1.038159 0.403323 1.045505
0.146425 0.526384 1.041811
0.178861 0.526550 1.041911
0.271480 0.527144 1.042315
0.394068 0.527792 1.043060
0.524797 0.528386 1.044041
0.654931 0.529185 1.045153
0.784298 0.530253 1.046341
0.912803 0.531680 1.047580
1.040409 0.533562 1.048858
0.070088 0.659408 1.046561
0.141834 0.659461 1.046637
0.267055 0.659642 1.046946
0.396800 0.659966 1.047499
0.527029 0.660431 1.048241
0.656958 0.661038 1.049108
0.786254 0.661821 1.050050
0.914754 0.662833 1.051045
1.042379 0.664142 1.052082
0.105348 0.790575 1.050683
0.159608 0.790609 1.050738
0.275198 0.790746 1.050962
0.401634 0.791003 1.051375
0.530395 0.791373 1.051949
0.659561 0.791853 1.052641
0.788441 0.792457 1.053414
0.916719 0.793215 1.054244
1.044235 0.794174 1.055121
0.146375 0.920509 1.054374
0.185932 0.920534 1.054415
0.288351 0.920641 1.054581
0.409388 0.920846 1.054898
0.535547 0.921145 1.055351
0.663272 0.921534 1.055916
0.791292 0.922016 1.056564
0.919042 0.922609 1.057275
1.046280 0.923339 1.058038
0.187847 1.049283 1.057832
0.217692 1.049303 1.057863
0.306543 1.049390 1.057992
0.420480 1.049559 1.058242
0.542913 1.049808 1.058608
0.668470 1.050136 1.059076
0.795135 1.050542 1.059629
0.922008 1.051036 1.060249
1.048783 1.051626 1.060926
