data/manual_verify/canoncgt_candidates2/safe/candidate_c.cube
# Generated by Local Color Service V0.2.0 using OpenColorIO Baker
# Recipe Hash: 6ea6d943ea0552ff071de67be440d2e072fe3f30b64ea320f66be852ae2973de
# OCIO Config: studio-config-v4.0.0_aces-v2.0_ocio-v2.5
LUT_3D_SIZE 5
-0.000699 -0.000251 0.024987
0.248464 0.030952 0.054326
0.510001 0.068206 0.096963
0.771476 0.113198 0.147433
1.028935 0.164221 0.200576
-0.000859 0.256302 0.038798
0.253773 0.257362 0.038002
0.516142 0.259459 0.079016
0.776332 0.263325 0.140150
1.032778 0.275187 0.197523
-0.001785 0.524213 0.047442
0.256962 0.524663 0.048716
0.522032 0.525950 0.054205
0.782351 0.527976 0.099309
1.038570 0.531363 0.170497
0.089183 0.788301 0.099003
0.271385 0.788518 0.099766
0.528878 0.789270 0.103134
0.787475 0.790470 0.110331
1.043298 0.792281 0.137793
0.186158 1.047280 0.155765
0.305738 1.047406 0.156287
0.542603 1.047883 0.158583
0.794930 1.048690 0.163436
1.048428 1.049849 0.171503
-0.000292 0.071768 0.254101
0.248396 0.047913 0.256269
0.511078 0.067293 0.260273
0.772435 0.113408 0.263321
1.029721 0.164710 0.276243
-0.001009 0.256877 0.261086
0.254008 0.257852 0.262011
0.516856 0.259855 0.263929
0.777131 0.263738 0.266583
1.033506 0.275618 0.277650
-0.001904 0.524651 0.268230
0.256839 0.525082 0.268580
0.522249 0.526323 0.269765
0.782750 0.528289 0.271896
1.039102 0.531642 0.276791
0.087597 0.788600 0.278854
0.271129 0.788812 0.279110
0.528889 0.789546 0.280168
0.787594 0.790721 0.282321
1.043519 0.792502 0.285970
0.185466 1.047492 0.297837
0.305424 1.047616 0.298077
0.542514 1.048086 0.299109
0.794936 1.048882 0.301253
1.048492 1.050027 0.304840
0.049118 0.149615 0.515715
0.235218 0.144133 0.517550
0.511031 0.099060 0.521818
0.773335 0.110700 0.526649
1.030685 0.163501 0.530515
0.025880 0.257294 0.522674
0.253477 0.258409 0.523908
0.517288 0.260311 0.526626
0.777772 0.264195 0.529669
1.034327 0.275861 0.532839
-0.002231 0.525350 0.531749
0.256227 0.525743 0.532184
0.522355 0.526919 0.533467
0.783095 0.528842 0.535200
1.039618 0.532157 0.537396
0.083073 0.789241 0.539061
0.270334 0.789442 0.539278
0.528744 0.790147 0.540074
0.787700 0.791286 0.541394
1.043788 0.793028 0.543257
0.183390 1.048058 0.548038
0.304446 1.048178 0.548187
0.542176 1.048632 0.548794
0.794859 1.049406 0.549934
1.048584 1.050522 0.551667
0.098606 0.229113 0.774985
0.231609 0.227346 0.776086
0.503689 0.206693 0.779488
0.772731 0.158641 0.783711
1.031422 0.161146 0.788422
0.120964 0.286951 0.779444
0.249078 0.286537 0.780416
0.514872 0.278116 0.783358
0.778135 0.267594 0.786957
1.034883 0.276181 0.790704
-0.001955 0.526099 0.789834
0.257207 0.526441 0.790348
0.522805 0.527536 0.791890
0.783385 0.529431 0.793863
1.039909 0.532739 0.796070
0.085347 0.789880 0.797574
0.270764 0.790068 0.797820
0.528890 0.790737 0.798688
0.787795 0.791849 0.799993
1.043920 0.793575 0.801594
0.182674 1.048673 0.804612
0.304084 1.048787 0.804758
0.541998 1.049225 0.805324
0.794766 1.049978 0.806296
1.048597 1.051076 0.807612
0.153881 0.309867 1.029068
0.251049 0.308922 1.029802
0.489418 0.299056 1.032471
0.766745 0.268864 1.036126
1.030312 0.222396 1.040262
0.170601 0.347997 1.032078
0.264032 0.347485 1.032768
0.502374 0.340453 1.035261
0.773457 0.321325 1.038657
1.034300 0.298392 1.042481
0.146425 0.526384 1.041811
0.271480 0.527144 1.042315
0.524797 0.528386 1.044041
0.784298 0.530253 1.046341
1.040409 0.533562 1.048858
0.105348 0.790575 1.050683
0.275198 0.790746 1.050962
0.530395 0.791373 1.051949
0.788441 0.792457 1.053414
1.044235 0.794174 1.055121
0.187847 1.049283 1.057832
0.306543 1.049390 1.057992
0.542913 1.049808 1.058608
0.795135 1.050542 1.059629
1.048783 1.051626 1.060926
