data/manual_verify/canoncgt_candidates2/safe/candidate_b.cube
# Generated by Local Color Service V0.2.0 using OpenColorIO Baker
# Recipe Hash: 430c9aca6ab9041dbd31ad9f9c14be18eba844188b82c908a98a99a79e101668
# OCIO Config: studio-config-v4.0.0_aces-v2.0_ocio-v2.5
LUT_3D_SIZE 33
0.049905 0.049252 0.048885
0.056326 0.049280 0.048974
0.076402 0.049400 0.049354
0.103123 0.049641 0.050114
0.132366 0.050023 0.051296
0.162755 0.050528 0.052908
0.197631 0.049236 0.054681
0.232795 0.047277 0.056923
0.267977 0.044560 0.059588
0.303165 0.040798 0.062611
0.338335 0.035467 0.065940
0.373447 0.027281 0.069529
0.408450 0.009160 0.073323
0.443243 0.005834 0.077038
0.478029 0.009211 0.080960
0.512818 0.012435 0.085071
0.547605 0.015663 0.089337
0.582382 0.018936 0.094252
0.617138 0.022359 0.099928
0.651880 0.025956 0.105621
0.686604 0.029657 0.111331
0.721312 0.033423 0.117058
0.756000 0.037262 0.122802
0.790670 0.041171 0.128562
0.825321 0.045146 0.134338
0.859952 0.049159 0.140130
0.894563 0.053184 0.145939
0.929154 0.057223 0.151763
0.963724 0.061280 0.157599
0.998274 0.065358 0.163447
1.032804 0.069459 0.169307
1.067312 0.073587 0.175179
1.101800 0.077740 0.181061
0.049779 0.055719 0.048747
0.056258 0.055690 0.048713
0.076450 0.055564 0.048944
0.103268 0.055301 0.049753
0.132558 0.055097 0.051017
0.162966 0.055289 0.052667
0.197856 0.054014 0.054464
0.232973 0.052241 0.056728
0.268119 0.049864 0.059411
0.303276 0.046678 0.062451
0.338420 0.042379 0.065794
0.373510 0.036425 0.069397
0.408485 0.028848 0.073182
0.443265 0.028876 0.076899
0.478049 0.029419 0.080836
0.512835 0.030233 0.084960
0.547621 0.031342 0.089236
0.582396 0.032751 0.094176
0.617151 0.034506 0.099859
0.651891 0.036623 0.105557
0.686615 0.039046 0.111272
0.721321 0.041728 0.117003
0.756010 0.044643 0.122750
0.790679 0.047763 0.128513
0.825329 0.051064 0.134292
0.859959 0.054499 0.140087
0.894570 0.058028 0.145898
0.929160 0.061641 0.151724
0.963730 0.065330 0.157562
0.998280 0.069085 0.163412
1.032809 0.072904 0.169274
1.067317 0.076781 0.175147
1.101805 0.080709 0.181032
0.049235 0.075851 0.048152
0.055801 0.075833 0.048117
0.076169 0.075753 0.047968
0.103103 0.075588 0.048094
0.132484 0.075316 0.049197
0.163270 0.074843 0.050932
0.198348 0.073114 0.052949
0.233458 0.070875 0.055495
0.268553 0.068549 0.058390
0.303637 0.066028 0.061582
0.338706 0.063122 0.065041
0.373722 0.059679 0.068737
0.408565 0.058098 0.072441
0.443337 0.058105 0.076248
0.478115 0.058241 0.080263
0.512897 0.058516 0.084449
0.547678 0.058941 0.088777
0.582448 0.059527 0.093833
0.617200 0.060309 0.099544
0.651936 0.061315 0.105267
0.686657 0.062537 0.111004
0.721360 0.063979 0.116754
0.756046 0.065641 0.122518
0.790713 0.067525 0.128296
0.825360 0.069625 0.134089
0.859989 0.071914 0.139896
0.894598 0.074366 0.145718
0.929186 0.076976 0.151555
0.963755 0.079731 0.157402
0.998303 0.082622 0.163261
1.032832 0.085637 0.169130
1.067338 0.088773 0.175010
1.101825 0.092018 0.180901
0.048101 0.102555 0.046910
0.054854 0.102543 0.046873
0.075561 0.102490 0.046718
0.102719 0.102384 0.046401
0.132238 0.102212 0.046280
0.163946 0.101782 0.047421
0.198842 0.100689 0.049349
0.233775 0.099251 0.052020
0.268773 0.097398 0.055232
0.303813 0.095065 0.058852
0.338852 0.092361 0.062749
0.373723 0.090964 0.066570
0.408549 0.090075 0.070521
0.443358 0.089473 0.074624
0.478159 0.089098 0.078866
0.512953 0.088913 0.083230
0.547740 0.088896 0.087699
0.582511 0.089032 0.093020
0.617264 0.089333 0.098814
0.652000 0.089800 0.104606
0.686719 0.090431 0.110400
0.721420 0.091230 0.116200
0.756103 0.092198 0.122007
0.790768 0.093341 0.127822
0.825413 0.094657 0.133647
0.860039 0.096133 0.139484
0.894646 0.097761 0.145332
0.929232 0.099542 0.151192
0.963799 0.101470 0.157060
0.998345 0.103543 0.162938
1.032871 0.105756 0.168824
1.067376 0.108106 0.174720
1.101861 0.110587 0.180626
0.046193 0.131735 0.044818
0.053279 0.131726 0.044779
0.074569 0.131690 0.044614
0.102079 0.131615 0.044274
0.131800 0.131495 0.043724
0.164968 0.131072 0.043041
0.199483 0.130498 0.043955
0.234025 0.130034 0.046188
0.268683 0.129495 0.049322
0.303445 0.128807 0.053065
0.338291 0.127953 0.057215
0.373185 0.126928 0.061647
0.408105 0.125723 0.066280
0.443042 0.124330 0.071061
0.477960 0.123000 0.075892
0.512836 0.121996 0.080709
0.547678 0.121281 0.085543
0.582487 0.120809 0.091375
0.617266 0.120557 0.097373
0.652020 0.120500 0.103329
0.686752 0.120624 0.109257
0.721461 0.120918 0.115168
0.756150 0.121377 0.121068
0.790818 0.121997 0.126962
0.825465 0.122766 0.132856
0.860092 0.123676 0.138753
0.894699 0.124726 0.144654
0.929285 0.125915 0.150559
0.963851 0.127238 0.156468
0.998396 0.128695 0.162382
1.032921 0.130286 0.168302
1.067425 0.132006 0.174227
1.101908 0.133854 0.180159
0.032755 0.164595 0.039828
0.043065 0.164600 0.039777
0.068627 0.164622 0.039557
0.098277 0.164664 0.039107
0.130172 0.164669 0.038292
0.164649 0.164517 0.036950
0.199097 0.164315 0.035490
0.233615 0.164045 0.036385
0.268238 0.163691 0.039520
0.302955 0.163241 0.043884
0.337760 0.162684 0.048852
0.372618 0.162016 0.054108
0.407511 0.161231 0.059498
0.442430 0.160323 0.064949
0.477365 0.159288 0.070423
0.512309 0.158121 0.075902
0.547255 0.156816 0.081577
0.582178 0.155484 0.088214
0.617048 0.154426 0.094680
0.651870 0.153647 0.101002
0.686652 0.153120 0.107221
0.721399 0.152819 0.113366
0.756115 0.152723 0.119457
0.790805 0.152807 0.125512
0.825468 0.153057 0.131541
0.860107 0.153461 0.137552
0.894723 0.154012 0.143552
0.929316 0.154703 0.149542
0.963887 0.155530 0.155525
0.998435 0.156489 0.161504
1.032962 0.157576 0.167482
1.067469 0.158787 0.173458
1.101953 0.160123 0.179436
-0.000297 0.198664 0.031749
-0.000042 0.198665 0.031687
0.057291 0.198671 0.031420
0.093713 0.198637 0.030757
0.129263 0.198540 0.029584
0.164041 0.198414 0.027912
0.198621 0.198255 0.025584
0.233199 0.198053 0.022538
0.267826 0.197797 0.023574
0.302520 0.197476 0.028923
0.337286 0.197083 0.035656
0.372101 0.196613 0.042588
0.406956 0.196060 0.049400
0.441842 0.195420 0.056027
0.476752 0.194689 0.062474
0.511677 0.193862 0.068766
0.546608 0.192935 0.075701
0.581538 0.191909 0.082967
0.616459 0.190789 0.090028
0.651367 0.189573 0.096933
0.686255 0.188305 0.103706
0.721094 0.187242 0.110313
0.755883 0.186432 0.116781
0.790630 0.185858 0.123143
0.825339 0.185499 0.129425
0.860014 0.185335 0.135648
0.894658 0.185350 0.141827
0.929274 0.185529 0.147969
0.963862 0.185863 0.154082
0.998425 0.186342 0.160174
1.032963 0.186960 0.166250
1.067478 0.187709 0.172313
1.101969 0.188586 0.178367
-0.000758 0.232711 0.014732
-0.000475 0.232703 0.014522
0.049597 0.232673 0.013578
0.091496 0.232615 0.011370
0.128003 0.232530 0.005529
0.163225 0.232421 -0.000021
0.198029 0.232285 -0.000052
0.232714 0.232119 -0.000092
0.267388 0.231918 -0.000138
0.302096 0.231671 -0.000137
0.336843 0.231372 -0.000062
0.371626 0.231017 0.019050
0.406444 0.230602 0.032292
0.441294 0.230122 0.042155
0.476171 0.229574 0.050724
0.511067 0.228954 0.058890
0.545975 0.228259 0.067656
0.580888 0.227492 0.075844
0.615796 0.226654 0.083631
0.650697 0.225743 0.091128
0.685586 0.224758 0.098407
0.720461 0.223697 0.105517
0.755320 0.222561 0.112495
0.790161 0.221361 0.119363
0.824959 0.220293 0.126092
0.859709 0.219452 0.132689
0.894414 0.218833 0.139179
0.929080 0.218419 0.145583
0.963709 0.218196 0.151919
0.998305 0.218148 0.158202
1.032871 0.218264 0.164441
1.067408 0.218531 0.170646
1.101918 0.218944 0.176825
-0.001023 0.266761 -0.000207
-0.000738 0.266754 -0.000209
0.041630 0.266728 -0.000213
0.088614 0.266677 -0.000223
0.126376 0.266602 -0.000239
0.162178 0.266504 -0.000261
0.197292 0.266383 -0.000290
0.232138 0.266238 -0.000326
0.266894 0.266067 -0.000371
0.301643 0.265864 -0.000425
0.336398 0.265625 -0.000439
0.371167 0.265343 -0.000372
0.405960 0.265016 -0.000235
0.440780 0.264638 -0.000038
0.475624 0.264207 0.029934
0.510486 0.263719 0.044928
0.545370 0.263174 0.056329
0.580261 0.262573 0.066184
0.615150 0.261915 0.075162
0.650036 0.261200 0.083569
0.684913 0.260426 0.091573
0.719779 0.259594 0.099280
0.754633 0.258704 0.106759
0.789472 0.257754 0.114059
0.824294 0.256745 0.121215
0.859099 0.255677 0.128256
0.893884 0.254550 0.135198
0.928635 0.253493 0.142025
0.963338 0.252637 0.148724
0.997998 0.251985 0.155316
1.032616 0.251529 0.161821
1.067197 0.251257 0.168254
1.101744 0.251155 0.174632
-0.001331 0.300873 -0.000491
-0.001044 0.300867 -0.000492
0.028045 0.300844 -0.000496
0.085009 0.300799 -0.000505
0.124375 0.300732 -0.000519
0.160891 0.300642 -0.000539
0.196386 0.300531 -0.000566
0.231449 0.300400 -0.000600
0.266330 0.300247 -0.000643
0.301138 0.300069 -0.000694
0.335920 0.299865 -0.000754
0.370699 0.299630 -0.000784
0.405485 0.299357 -0.000728
0.440283 0.299044 -0.000569
0.475101 0.298689 -0.000314
0.509941 0.298291 0.007767
0.544800 0.297847 0.038197
0.579666 0.297359 0.052350
0.614532 0.296825 0.063676
0.649397 0.296245 0.073640
0.684256 0.295619 0.082785
0.719108 0.294945 0.091376
0.753950 0.294225 0.099569
0.788780 0.293456 0.107461
0.823596 0.292640 0.115120
0.858396 0.291776 0.122592
0.893180 0.290865 0.129910
0.927944 0.289906 0.137100
0.962691 0.288900 0.144184
0.997417 0.287847 0.151179
1.032115 0.286814 0.158080
1.066768 0.285953 0.164864
1.101378 0.285281 0.171544
-0.001672 0.335005 -0.000812
-0.001382 0.335000 -0.000813
-0.000143 0.334980 -0.000817
0.080690 0.334939 -0.000825
0.122043 0.334877 -0.000838
0.159383 0.334794 -0.000857
0.195324 0.334692 -0.000882
0.230653 0.334570 -0.000915
0.265692 0.334428 -0.000954
0.300581 0.334267 -0.000994
0.335402 0.334084 -0.001032
0.370200 0.333878 -0.001077
0.404995 0.333645 -0.001094
0.439792 0.333380 -0.001013
0.474599 0.333080 -0.000838
0.509423 0.332746 -0.000579
0.544261 0.332374 -0.000244
0.579102 0.331966 0.026306
0.613945 0.331522 0.046466
0.648786 0.331039 0.059969
0.683625 0.330519 0.071216
0.718458 0.329960 0.081258
0.753283 0.329361 0.090536
0.788099 0.328724 0.099283
0.822904 0.328047 0.107639
0.857695 0.327330 0.115693
0.892471 0.326575 0.123507
0.927231 0.325780 0.131127
0.961974 0.324947 0.138587
0.996699 0.324075 0.145914
1.031404 0.323164 0.153130
1.066091 0.322216 0.160250
1.100755 0.321230 0.167289
-0.002044 0.369142 -0.001108
-0.001753 0.369137 -0.001108
-0.000508 0.369119 -0.001110
0.075458 0.369082 -0.001115
0.119327 0.369025 -0.001122
0.157631 0.368949 -0.001133
0.194089 0.368853 -0.001147
0.229726 0.368739 -0.001167
0.264946 0.368608 -0.001191
0.299947 0.368460 -0.001221
0.334835 0.368294 -0.001257
0.369670 0.368109 -0.001300
0.404485 0.367903 -0.001349
0.439296 0.367673 -0.001381
0.474106 0.367415 -0.001313
0.508923 0.367127 -0.001143
0.543744 0.366809 -0.000882
0.578564 0.366461 -0.000537
0.613385 0.366082 -0.000116
0.648203 0.365671 0.037445
0.683020 0.365229 0.054755
0.717832 0.364755 0.067777
0.752639 0.364247 0.078944
0.787437 0.363708 0.089038
0.822226 0.363135 0.098422
0.857004 0.362529 0.107294
0.891769 0.361890 0.115783
0.926520 0.361218 0.123971
0.961254 0.360514 0.131920
0.995974 0.359776 0.139672
1.030675 0.359007 0.147262
1.065360 0.358205 0.154715
1.100025 0.357369 0.162054
-0.002449 0.403286 -0.001365
-0.002156 0.403282 -0.001365
-0.000905 0.403265 -0.001367
0.069077 0.403231 -0.001372
0.116234 0.403179 -0.001379
0.155661 0.403109 -0.001389
0.192699 0.403020 -0.001404
0.228675 0.402915 -0.001422
0.264110 0.402793 -0.001446
0.299249 0.402656 -0.001475
0.334226 0.402502 -0.001510
0.369115 0.402332 -0.001551
0.403959 0.402145 -0.001599
0.438786 0.401939 -0.001654
0.473609 0.401712 -0.001698
0.508428 0.401460 -0.001644
0.543239 0.401182 -0.001483
0.578044 0.400879 -0.001222
0.612845 0.400550 -0.000870
0.647644 0.400194 -0.000436
0.682440 0.399812 0.019291
0.717231 0.399402 0.047374
0.752017 0.398964 0.063119
0.786796 0.398499 0.075763
0.821568 0.398005 0.086845
0.856330 0.397484 0.096964
0.891080 0.396935 0.106421
0.925818 0.396356 0.115393
0.960543 0.395749 0.123994
0.995253 0.395114 0.132302
1.029948 0.394449 0.140372
1.064626 0.393756 0.148247
1.099288 0.393034 0.155956
-0.002876 0.437437 -0.001649
-0.002583 0.437433 -0.001649
-0.001327 0.437418 -0.001651
0.061227 0.437387 -0.001656
0.112784 0.437340 -0.001663
0.153480 0.437275 -0.001673
0.191151 0.437192 -0.001687
0.227504 0.437094 -0.001705
0.263182 0.436981 -0.001728
0.298483 0.436852 -0.001756
0.333567 0.436709 -0.001790
0.368526 0.436551 -0.001830
0.403413 0.436378 -0.001876
0.438264 0.436189 -0.001929
0.473099 0.435982 -0.001989
0.507925 0.435758 -0.002045
0.542735 0.435512 -0.002007
0.577532 0.435245 -0.001855
0.612320 0.434954 -0.001597
0.647102 0.434641 -0.001241
0.681879 0.434304 -0.000795
0.716651 0.433944 -0.000266
0.751417 0.433560 0.035992
0.786178 0.433152 0.056856
0.820931 0.432719 0.071568
0.855675 0.432262 0.083894
0.890410 0.431779 0.094889
0.925135 0.431271 0.105018
0.959847 0.430739 0.114534
0.994546 0.430181 0.123592
1.029230 0.429599 0.132292
1.063900 0.428991 0.140705
1.098554 0.428358 0.148881
-0.003328 0.471593 -0.001960
-0.003033 0.471589 -0.001961
-0.001774 0.471575 -0.001963
0.050885 0.471547 -0.001967
0.108893 0.471503 -0.001974
0.151060 0.471443 -0.001984
0.189440 0.471367 -0.001998
0.226213 0.471275 -0.002016
0.262161 0.471168 -0.002038
0.297645 0.471048 -0.002065
0.332854 0.470913 -0.002097
0.367898 0.470765 -0.002136
0.402842 0.470603 -0.002180
0.437727 0.470427 -0.002232
0.472581 0.470236 -0.002290
0.507411 0.470029 -0.002355
0.542224 0.469808 -0.002421
0.577021 0.469567 -0.002399
0.611802 0.469306 -0.002258
0.646572 0.469025 -0.002005
0.681335 0.468724 -0.001647
0.716090 0.468401 -0.001192
0.750839 0.468058 -0.000648
0.785582 0.467693 -0.000020
0.820317 0.467307 0.048161
0.855044 0.466899 0.066137
0.889763 0.466469 0.080107
0.924472 0.466017 0.092169
0.959169 0.465544 0.103079
0.993854 0.465049 0.113210
1.028527 0.464531 0.122772
1.063187 0.463991 0.131896
1.097831 0.463430 0.140673
-0.003803 0.505742 -0.002297
-0.003508 0.505739 -0.002298
-0.002245 0.505726 -0.002300
0.035064 0.505700 -0.002304
0.104542 0.505660 -0.002311
0.148424 0.505603 -0.002321
0.187588 0.505532 -0.002334
0.224817 0.505446 -0.002351
0.261061 0.505345 -0.002373
0.296745 0.505230 -0.002399
0.332095 0.505102 -0.002431
0.367236 0.504962 -0.002467
0.402248 0.504808 -0.002510
0.437179 0.504642 -0.002560
0.472057 0.504462 -0.002616
0.506896 0.504269 -0.002679
0.541710 0.504063 -0.002748
0.576507 0.503843 -0.002822
0.611288 0.503605 -0.002818
0.646052 0.503350 -0.002690
0.680804 0.503077 -0.002443
0.715547 0.502784 -0.002085
0.750281 0.502473 -0.001625
0.785007 0.502143 -0.001068
0.819725 0.501795 -0.000422
0.854436 0.501427 0.034511
0.889137 0.501040 0.059039
0.923830 0.500633 0.075340
0.958512 0.500207 0.088745
0.993183 0.499761 0.100580
1.027842 0.499296 0.111409
1.062489 0.498811 0.121525
1.097121 0.498308 0.131108
-0.004294 0.539873 -0.002658
-0.003998 0.539870 -0.002659
-0.002732 0.539858 -0.002661
-0.000160 0.539834 -0.002665
0.099736 0.539796 -0.002672
0.145604 0.539744 -0.002681
0.185623 0.539677 -0.002694
0.223341 0.539595 -0.002711
0.259899 0.539500 -0.002732
0.295798 0.539391 -0.002757
0.331298 0.539269 -0.002787
0.366548 0.539135 -0.002823
0.401636 0.538988 -0.002865
0.436619 0.538830 -0.002912
0.471525 0.538660 -0.002966
0.506379 0.538478 -0.003026
0.541199 0.538284 -0.003094
0.575995 0.538078 -0.003168
0.610774 0.537858 -0.003249
0.645537 0.537624 -0.003262
0.680283 0.537373 -0.003148
0.715016 0.537106 -0.002910
0.749738 0.536821 -0.002555
0.784450 0.536520 -0.002090
0.819153 0.536202 -0.001524
0.853847 0.535866 -0.000863
0.888533 0.535514 -0.000110
0.923209 0.535143 0.049323
0.957875 0.534756 0.069348
0.992530 0.534352 0.084525
1.027176 0.533929 0.097475
1.061809 0.533490 0.109102
1.096429 0.533033 0.119837
-0.004796 0.573984 -0.003041
-0.004500 0.573981 -0.003042
-0.003231 0.573970 -0.003044
-0.000654 0.573948 -0.003048
0.094429 0.573912 -0.003055
0.142613 0.573863 -0.003064
0.183560 0.573800 -0.003077
0.221796 0.573723 -0.003093
0.258684 0.573632 -0.003113
0.294810 0.573528 -0.003138
0.330471 0.573412 -0.003167
0.365836 0.573284 -0.003202
0.401007 0.573144 -0.003242
0.436042 0.572993 -0.003288
0.470983 0.572831 -0.003340
0.505859 0.572658 -0.003398
0.540689 0.572474 -0.003463
0.575487 0.572279 -0.003535
0.610263 0.572072 -0.003614
0.645023 0.571854 -0.003700
0.679767 0.571622 -0.003731
0.714495 0.571375 -0.003633
0.749207 0.571113 -0.003405
0.783908 0.570835 -0.003054
0.818598 0.570542 -0.002588
0.853277 0.570233 -0.002014
0.887947 0.569909 -0.001339
0.922607 0.569569 -0.000567
0.957259 0.569214 0.033863
0.991899 0.568843 0.061662
1.026529 0.568456 0.079334
1.061147 0.568054 0.093680
1.095754 0.567636 0.106251
-0.005307 0.608073 -0.003447
-0.005010 0.608071 -0.003448
-0.003739 0.608060 -0.003450
-0.001157 0.608039 -0.003454
0.088550 0.608006 -0.003460
0.139465 0.607960 -0.003470
0.181414 0.607900 -0.003482
0.220194 0.607827 -0.003498
0.257427 0.607741 -0.003518
0.293789 0.607642 -0.003542
0.329618 0.607531 -0.003570
0.365104 0.607408 -0.003604
0.400358 0.607274 -0.003643
0.435450 0.607129 -0.003687
0.470431 0.606974 -0.003737
0.505332 0.606809 -0.003794
0.540178 0.606633 -0.003857
0.574983 0.606447 -0.003926
0.609760 0.606251 -0.004002
0.644514 0.606045 -0.004085
0.679254 0.605827 -0.004176
0.713978 0.605597 -0.004224
0.748685 0.605354 -0.004142
0.783377 0.605096 -0.003926
0.818056 0.604824 -0.003581
0.852723 0.604538 -0.003115
0.887380 0.604238 -0.002535
0.922025 0.603924 -0.001849
0.956661 0.603595 -0.001061
0.991286 0.603252 -0.000177
1.025902 0.602895 0.051213
1.060506 0.602523 0.072902
1.095099 0.602138 0.089091
-0.005821 0.642140 -0.003875
-0.005523 0.642138 -0.003876
-0.004250 0.642128 -0.003878
-0.001664 0.642108 -0.003882
0.081995 0.642077 -0.003888
0.136174 0.642033 -0.003897
0.179200 0.641977 -0.003909
0.218550 0.641907 -0.003925
0.256139 0.641825 -0.003944
0.292744 0.641730 -0.003967
0.328745 0.641624 -0.003995
0.364350 0.641506 -0.004028
0.399689 0.641378 -0.004065
0.434844 0.641239 -0.004108
0.469869 0.641090 -0.004157
0.504800 0.640932 -0.004211
0.539665 0.640763 -0.004272
0.574481 0.640586 -0.004339
0.609261 0.640398 -0.004413
0.644014 0.640201 -0.004493
0.678747 0.639994 -0.004580
0.713465 0.639777 -0.004675
0.748169 0.639549 -0.004738
0.782855 0.639309 -0.004674
0.817525 0.639055 -0.004470
0.852182 0.638788 -0.004133
0.886826 0.638508 -0.003670
0.921459 0.638215 -0.003087
0.956081 0.637909 -0.002393
0.990693 0.637590 -0.001592
1.025293 0.637258 -0.000689
1.059883 0.636913 0.034511
1.094461 0.636554 0.064751
-0.006335 0.676183 -0.004324
-0.006037 0.676181 -0.004324
-0.004762 0.676172 -0.004326
-0.002172 0.676153 -0.004330
0.074595 0.676124 -0.004336
0.132755 0.676082 -0.004345
0.176936 0.676029 -0.004357
0.216876 0.675963 -0.004372
0.254832 0.675884 -0.004391
0.291679 0.675794 -0.004414
0.327848 0.675692 -0.004441
0.363575 0.675579 -0.004473
0.399004 0.675456 -0.004509
0.434224 0.675322 -0.004551
0.469297 0.675179 -0.004598
0.504263 0.675026 -0.004650
0.539150 0.674865 -0.004709
0.573980 0.674694 -0.004774
0.608767 0.674514 -0.004845
0.643521 0.674325 -0.004922
0.678251 0.674128 -0.005007
0.712961 0.673921 -0.005098
0.747657 0.673704 -0.005196
0.782338 0.673478 -0.005275
0.817003 0.673239 -0.005228
0.851652 0.672989 -0.005040
0.886286 0.672727 -0.004713
0.920908 0.672452 -0.004254
0.955518 0.672165 -0.003670
0.990115 0.671867 -0.002969
1.024702 0.671556 -0.002157
1.059278 0.671233 -0.001238
1.093843 0.670899 -0.000218
-0.006844 0.710202 -0.004792
-0.006546 0.710200 -0.004793
-0.005269 0.710191 -0.004795
-0.002676 0.710174 -0.004798
0.066055 0.710146 -0.004805
0.129227 0.710107 -0.004813
0.174637 0.710056 -0.004825
0.215181 0.709993 -0.004840
0.253499 0.709919 -0.004858
0.290589 0.709832 -0.004880
0.326929 0.709735 -0.004907
0.362781 0.709627 -0.004937
0.398303 0.709508 -0.004972
0.433593 0.709379 -0.005013
0.468717 0.709241 -0.005058
0.503720 0.709094 -0.005109
0.538633 0.708938 -0.005166
0.573479 0.708773 -0.005229
0.608276 0.708600 -0.005298
0.643033 0.708419 -0.005373
0.677762 0.708229 -0.005455
0.712468 0.708030 -0.005544
0.747155 0.707823 -0.005639
0.781828 0.707607 -0.005742
0.816487 0.707382 -0.005833
0.851129 0.707146 -0.005806
0.885756 0.706898 -0.005633
0.920368 0.706640 -0.005317
0.954966 0.706370 -0.004865
0.989553 0.706089 -0.004282
1.024126 0.705797 -0.003577
1.058689 0.705493 -0.002755
1.093241 0.705179 -0.001822
-0.007346 0.744197 -0.005280
-0.007047 0.744195 -0.005281
-0.005770 0.744187 -0.005282
-0.003174 0.744170 -0.005286
0.055689 0.744144 -0.005292
0.125569 0.744107 -0.005301
0.172287 0.744058 -0.005312
0.213453 0.743999 -0.005327
0.252142 0.743928 -0.005345
0.289480 0.743845 -0.005366
0.325994 0.743751 -0.005392
0.361974 0.743648 -0.005422
0.397592 0.743533 -0.005456
0.432953 0.743410 -0.005496
0.468130 0.743276 -0.005540
0.503172 0.743134 -0.005590
0.538114 0.742983 -0.005645
0.572980 0.742824 -0.005706
0.607788 0.742657 -0.005773
0.642552 0.742482 -0.005846
0.677281 0.742299 -0.005926
0.711984 0.742108 -0.006012
0.746665 0.741908 -0.006105
0.781329 0.741701 -0.006205
0.815978 0.741485 -0.006311
0.850614 0.741261 -0.006413
0.885235 0.741027 -0.006406
0.919838 0.740783 -0.006250
0.954428 0.740527 -0.005947
0.989003 0.740262 -0.005502
1.023565 0.739985 -0.004922
1.058116 0.739699 -0.004215
1.092654 0.739402 -0.003385
-0.007846 0.778167 -0.005788
-0.007547 0.778166 -0.005789
-0.006269 0.778158 -0.005791
-0.003671 0.778142 -0.005794
0.041518 0.778117 -0.005800
0.121758 0.778082 -0.005809
0.169885 0.778036 -0.005820
0.211698 0.777979 -0.005834
0.250767 0.777911 -0.005852
0.288355 0.777832 -0.005873
0.325047 0.777743 -0.005898
0.361158 0.777642 -0.005927
0.396872 0.777532 -0.005961
0.432307 0.777413 -0.005999
0.467540 0.777284 -0.006042
0.502623 0.777147 -0.006091
0.537594 0.777001 -0.006144
0.572481 0.776847 -0.006204
0.607303 0.776685 -0.006269
0.642075 0.776515 -0.006340
0.676807 0.776339 -0.006418
0.711509 0.776153 -0.006502
0.746185 0.775961 -0.006592
0.780842 0.775761 -0.006689
0.815481 0.775554 -0.006793
0.850108 0.775338 -0.006903
0.884720 0.775115 -0.007015
0.919317 0.774883 -0.007027
0.953898 0.774641 -0.006889
0.988464 0.774388 -0.006600
1.023017 0.774127 -0.006164
1.057556 0.773854 -0.005589
1.092083 0.773573 -0.004880
-0.008342 0.812113 -0.006316
-0.008043 0.812111 -0.006317
-0.006763 0.812104 -0.006319
-0.004165 0.812089 -0.006322
-0.000009 0.812066 -0.006328
0.117789 0.812032 -0.006336
0.167444 0.811988 -0.006348
0.209923 0.811934 -0.006361
0.249380 0.811869 -0.006379
0.287223 0.811793 -0.006400
0.324095 0.811707 -0.006424
0.360336 0.811611 -0.006453
0.396148 0.811505 -0.006485
0.431657 0.811390 -0.006523
0.466946 0.811265 -0.006565
0.502071 0.811133 -0.006612
0.537075 0.810991 -0.006664
0.571985 0.810842 -0.006722
0.606822 0.810685 -0.006786
0.641603 0.810520 -0.006855
0.676340 0.810349 -0.006930
0.711042 0.810170 -0.007012
0.745716 0.809983 -0.007100
0.780366 0.809790 -0.007194
0.814997 0.809589 -0.007295
0.849613 0.809381 -0.007403
0.884215 0.809167 -0.007518
0.918804 0.808944 -0.007636
0.953379 0.808714 -0.007668
0.987937 0.808474 -0.007549
1.022480 0.808224 -0.007275
1.057009 0.807966 -0.006850
1.091526 0.807698 -0.006280
-0.008832 0.846035 -0.006864
-0.008533 0.846033 -0.006864
-0.007253 0.846026 -0.006866
-0.004652 0.846011 -0.006870
-0.000495 0.845989 -0.006875
0.113657 0.845957 -0.006884
0.164974 0.845915 -0.006894
0.208142 0.845863 -0.006908
0.247992 0.845801 -0.006925
0.286089 0.845729 -0.006945
0.323139 0.845646 -0.006969
0.359512 0.845553 -0.006997
0.395423 0.845451 -0.007029
0.431007 0.845340 -0.007066
0.466352 0.845219 -0.007107
0.501521 0.845091 -0.007153
0.536558 0.844954 -0.007204
0.571491 0.844809 -0.007260
0.606346 0.844656 -0.007322
0.641138 0.844496 -0.007389
0.675880 0.844330 -0.007463
0.710584 0.844156 -0.007542
0.745256 0.843975 -0.007628
0.779901 0.843788 -0.007720
0.814526 0.843594 -0.007818
0.849133 0.843392 -0.007923
0.883723 0.843184 -0.008035
0.918300 0.842969 -0.008153
0.952867 0.842748 -0.008278
0.987417 0.842519 -0.008329
1.021953 0.842281 -0.008229
1.056473 0.842034 -0.007971
1.090981 0.841778 -0.007558
-0.009314 0.879931 -0.007430
-0.009015 0.879929 -0.007430
