data/manual_verify/canoncgt_candidates2/safe/candidate_c.cube
# Generated by Local Color Service V0.2.0 using OpenColorIO Baker
# Recipe Hash: 6ea6d943ea0552ff071de67be440d2e072fe3f30b64ea320f66be852ae2973de
# OCIO Config: studio-config-v4.0.0_aces-v2.0_ocio-v2.5
LUT_3D_SIZE 33
-0.000699 -0.000251 0.024987
-0.000452 -0.000248 0.025385
0.045676 -0.000233 0.026997
0.085823 -0.000203 0.029912
0.120273 -0.000156 0.033881
0.153274 -0.000089 0.038594
0.184902 0.008044 0.043778
0.216532 0.023295 0.049031
0.248464 0.030952 0.054326
0.280672 0.036796 0.059661
0.313089 0.041709 0.065033
0.345711 0.045978 0.070433
0.378492 0.049786 0.075859
0.411366 0.053998 0.081235
0.444245 0.058556 0.086526
0.477125 0.063294 0.091764
0.510001 0.068206 0.096963
0.542867 0.073278 0.102602
0.575706 0.078509 0.108899
0.608490 0.083933 0.115232
0.641213 0.089536 0.121599
0.673874 0.095273 0.128004
0.706472 0.101133 0.134445
0.739006 0.107110 0.140921
0.771476 0.113198 0.147433
0.803881 0.119386 0.153979
0.836222 0.125640 0.160561
0.868499 0.131948 0.167173
0.900713 0.138309 0.173810
0.932863 0.144718 0.180469
0.964950 0.151174 0.187150
0.996974 0.157676 0.193853
1.028935 0.164221 0.200576
-0.000693 0.002665 0.025354
-0.000444 0.004110 0.025443
0.046076 0.007093 0.026689
0.086122 0.010325 0.029689
0.120554 0.015051 0.033778
0.153504 0.021488 0.038539
0.185082 0.028326 0.043741
0.216700 0.034096 0.048999
0.248624 0.039051 0.054298
0.280825 0.043434 0.059635
0.313237 0.047401 0.065008
0.345856 0.051004 0.070409
0.378635 0.054312 0.075836
0.411494 0.058168 0.081198
0.444360 0.062338 0.086484
0.477229 0.066734 0.091718
0.510096 0.071343 0.096915
0.542954 0.076148 0.102572
0.575786 0.081142 0.108871
0.608563 0.086353 0.115206
0.641281 0.091765 0.121575
0.673937 0.097331 0.127981
0.706530 0.103038 0.134424
0.739061 0.108879 0.140902
0.771527 0.114843 0.147415
0.803928 0.120921 0.153962
0.836267 0.127074 0.160545
0.868541 0.133292 0.167159
0.900752 0.139570 0.173796
0.932901 0.145905 0.180456
0.964986 0.152294 0.187138
0.997007 0.158734 0.193841
1.028967 0.165222 0.200566
-0.000668 0.058014 0.026843
-0.000419 0.058041 0.026926
0.046873 0.058158 0.027275
0.086482 0.058389 0.028832
0.120825 0.058748 0.032676
0.153806 0.059243 0.037611
0.185423 0.060087 0.043055
0.217185 0.060925 0.048541
0.249176 0.062303 0.053977
0.281402 0.064072 0.059392
0.313825 0.066040 0.064812
0.346447 0.068070 0.070243
0.379213 0.070300 0.075664
0.412014 0.073078 0.080996
0.444833 0.076175 0.086267
0.477660 0.079574 0.091494
0.510490 0.083262 0.096688
0.543315 0.087219 0.102424
0.576118 0.091433 0.108736
0.608870 0.095926 0.115082
0.641564 0.100668 0.121462
0.674200 0.105621 0.127877
0.706775 0.110769 0.134328
0.739289 0.116100 0.140813
0.771741 0.121600 0.147332
0.804129 0.127250 0.153885
0.836456 0.133012 0.160474
0.868720 0.138873 0.167093
0.900921 0.144827 0.173734
0.933060 0.150865 0.180398
0.965137 0.156981 0.187084
0.997150 0.163173 0.193791
1.029103 0.169431 0.200518
-0.000618 0.092086 0.029550
-0.000369 0.092100 0.029622
0.048370 0.092162 0.029928
0.087149 0.092286 0.030534
0.121275 0.092480 0.032107
0.154038 0.092764 0.036204
0.185716 0.093183 0.041429
0.217641 0.093519 0.046946
0.249811 0.093741 0.052572
0.282208 0.093817 0.058240
0.314780 0.093749 0.063926
0.347474 0.094093 0.069514
0.380195 0.095037 0.074969
0.412933 0.096457 0.080334
0.445688 0.098295 0.085635
0.478454 0.100511 0.090889
0.511228 0.103077 0.096109
0.544000 0.105967 0.102036
0.576754 0.109167 0.108393
0.609460 0.112686 0.114774
0.642113 0.116488 0.121186
0.674713 0.120553 0.127627
0.707255 0.124866 0.134101
0.739739 0.129412 0.140606
0.772162 0.134178 0.147142
0.804526 0.139133 0.153711
0.836830 0.144247 0.160315
0.869073 0.149508 0.166945
0.901256 0.154903 0.173597
0.933377 0.160423 0.180271
0.965438 0.166059 0.186965
0.997437 0.171803 0.193680
1.029376 0.177645 0.200415
-0.000539 0.124755 0.033252
-0.000290 0.124765 0.033313
0.050604 0.124806 0.033572
0.088165 0.124888 0.034089
0.121937 0.125018 0.034891
0.154333 0.125225 0.036375
0.186305 0.125445 0.040071
0.218443 0.125633 0.045020
0.250763 0.125806 0.050441
0.283242 0.125947 0.056029
0.315835 0.126064 0.061665
0.348525 0.126159 0.067298
0.381251 0.126258 0.072915
0.413999 0.126374 0.078509
0.446751 0.126748 0.084036
0.479491 0.127615 0.089466
0.512226 0.128939 0.094851
0.544951 0.130670 0.101156
0.577654 0.132779 0.107636
0.610310 0.135239 0.114117
0.642915 0.138024 0.120610
0.675469 0.141115 0.127118
0.707968 0.144494 0.133647
0.740412 0.148146 0.140198
0.772799 0.152050 0.146774
0.805129 0.156175 0.153379
0.837401 0.160501 0.160013
0.869615 0.165015 0.166669
0.901770 0.169706 0.173344
0.933867 0.174560 0.180037
0.965903 0.179567 0.186749
0.997881 0.184717 0.193480
1.029799 0.190000 0.200228
-0.000453 0.157112 0.037161
-0.000205 0.157123 0.037206
0.052810 0.157168 0.037395
0.089161 0.157263 0.037771
0.122480 0.157420 0.038356
0.154750 0.157638 0.039048
0.186990 0.157864 0.039912
0.219301 0.158084 0.042789
0.251736 0.158288 0.047251
0.284273 0.158479 0.052466
0.316896 0.158657 0.058009
0.349588 0.158828 0.063682
0.382298 0.159007 0.069401
0.415023 0.159204 0.075124
0.447758 0.159427 0.080833
0.480502 0.159688 0.086519
0.513250 0.159995 0.092441
0.545985 0.160452 0.099303
0.578679 0.161321 0.106087
0.611313 0.162615 0.112806
0.643887 0.164302 0.119485
0.676405 0.166353 0.126144
0.708867 0.168743 0.132794
0.741272 0.171445 0.139446
0.773621 0.174425 0.146108
0.805915 0.177663 0.152786
0.838153 0.181140 0.159481
0.870333 0.184842 0.166189
0.902456 0.188755 0.172908
0.934522 0.192866 0.179640
0.966531 0.197162 0.186385
0.998481 0.201632 0.193145
1.030374 0.206267 0.199920
-0.000476 0.189842 0.039380
-0.000227 0.189855 0.039412
0.052157 0.189913 0.039546
0.088748 0.190032 0.039814
0.122180 0.190204 0.040171
0.154910 0.190407 0.040535
0.187451 0.190627 0.040854
0.219987 0.190850 0.041196
0.252574 0.191071 0.043450
0.285203 0.191287 0.047637
0.317889 0.191500 0.052836
0.350606 0.191714 0.058502
0.383325 0.191941 0.064366
0.416047 0.192185 0.070297
0.448772 0.192449 0.076235
0.481501 0.192739 0.082153
0.514225 0.193059 0.088957
0.546941 0.193414 0.096156
0.579631 0.193817 0.103288
0.612274 0.194283 0.110370
0.644865 0.194861 0.117409
0.677387 0.195785 0.124370
0.709841 0.197090 0.131268
0.742231 0.198752 0.138123
0.774559 0.200742 0.144953
0.806828 0.203039 0.151771
0.839037 0.205619 0.158582
0.871189 0.208463 0.165386
0.903283 0.211552 0.172187
0.935320 0.214874 0.178990
0.967299 0.218412 0.185796
0.999221 0.222154 0.192609
1.031086 0.226089 0.199430
-0.000638 0.222957 0.039983
-0.000389 0.222971 0.040002
0.047861 0.223028 0.040075
0.087077 0.223136 0.040201
0.121522 0.223288 0.040352
0.154804 0.223475 0.040487
0.187701 0.223683 0.040563
0.220488 0.223901 0.040541
0.253245 0.224125 0.040434
0.285998 0.224351 0.042150
0.318771 0.224578 0.046203
0.351533 0.224811 0.051564
0.384282 0.225054 0.057528
0.417024 0.225312 0.063733
0.449759 0.225588 0.070005
0.482487 0.225887 0.076777
0.515202 0.226209 0.084505
0.547904 0.226561 0.092088
0.580572 0.226954 0.099554
0.613191 0.227395 0.106931
0.645759 0.227888 0.114240
0.678276 0.228440 0.121497
0.710741 0.229054 0.128715
0.743151 0.229749 0.135901
0.775494 0.230702 0.143027
0.807766 0.231993 0.150093
0.839971 0.233611 0.157110
0.872111 0.235538 0.164085
0.904189 0.237753 0.171031
0.936206 0.240237 0.177957
0.968164 0.242973 0.184868
1.000063 0.245944 0.191772
1.031904 0.249139 0.198671
-0.000859 0.256302 0.038798
-0.000606 0.256313 0.038802
0.041395 0.256361 0.038816
0.084917 0.256452 0.038834
0.120571 0.256584 0.038834
0.154486 0.256751 0.038786
0.187787 0.256941 0.038653
0.220839 0.257146 0.038402
0.253773 0.257362 0.038002
0.286668 0.257585 0.037426
0.319537 0.257814 0.038601
0.352362 0.258052 0.042714
0.385156 0.258302 0.048489
0.417930 0.258566 0.054980
0.450686 0.258847 0.062261
0.483422 0.259143 0.070746
0.516142 0.259459 0.079016
0.548845 0.259795 0.087071
0.581503 0.260163 0.094954
0.614108 0.260568 0.102700
0.646661 0.261015 0.110334
0.679160 0.261509 0.117881
0.711606 0.262056 0.125356
0.743996 0.262659 0.132775
0.776332 0.263325 0.140150
0.808612 0.264057 0.147491
0.840836 0.264861 0.154797
0.872996 0.265853 0.162048
0.905084 0.267147 0.169231
0.937104 0.268742 0.176359
0.969059 0.270624 0.183443
1.000949 0.272777 0.190495
1.032778 0.275187 0.197523
-0.001094 0.289779 0.035477
-0.000837 0.289788 0.035469
0.032255 0.289829 0.035434
0.082428 0.289906 0.035358
0.119444 0.290021 0.035217
0.154041 0.290169 0.034983
0.187756 0.290341 0.034623
0.221068 0.290533 0.034104
0.254192 0.290738 0.033384
0.287230 0.290951 0.032415
0.320192 0.291174 0.031152
0.353092 0.291407 0.031684
0.385944 0.291651 0.036562
0.418758 0.291906 0.045086
0.451541 0.292174 0.054496
0.484301 0.292455 0.063657
0.517038 0.292751 0.072524
0.549747 0.293067 0.081120
0.582404 0.293410 0.089487
0.615004 0.293783 0.097664
0.647549 0.294192 0.105682
0.680038 0.294641 0.113570
0.712471 0.295133 0.121352
0.744847 0.295673 0.129045
0.777167 0.296265 0.136668
0.809430 0.296913 0.144229
0.841637 0.297621 0.151732
0.873787 0.298393 0.159187
0.905880 0.299232 0.166602
0.937917 0.300143 0.173983
0.969893 0.301185 0.181323
1.001799 0.302494 0.188601
1.033636 0.304079 0.195826
-0.001319 0.323314 0.028987
-0.001059 0.323322 0.028964
0.017038 0.323356 0.028869
0.079945 0.323422 0.028669
0.118350 0.323521 0.028333
0.153590 0.323650 0.027826
0.187681 0.323804 0.027102
0.221253 0.323979 0.026302
0.254568 0.324168 0.025663
0.287725 0.324368 0.025472
0.320769 0.324580 0.025933
0.353739 0.324801 0.026548
0.386650 0.325031 0.029361
0.419512 0.325273 0.036917
0.452334 0.325526 0.046201
0.485124 0.325791 0.055761
0.517884 0.326070 0.065165
0.550603 0.326367 0.074310
0.583263 0.326687 0.083196
0.615864 0.327034 0.091847
0.648407 0.327410 0.100294
0.680890 0.327821 0.108570
0.713317 0.328269 0.116699
0.745684 0.328757 0.124708
0.777994 0.329290 0.132614
0.810245 0.329871 0.140427
0.842439 0.330503 0.148158
0.874575 0.331190 0.155821
0.906654 0.331934 0.163425
0.938676 0.332741 0.170979
0.970640 0.333611 0.178491
1.002548 0.334549 0.185968
1.034400 0.335557 0.193412
-0.001515 0.356856 0.025826
-0.001252 0.356863 0.025837
-0.000124 0.356892 0.025889
0.077654 0.356948 0.025992
0.117337 0.357034 0.026154
0.153154 0.357148 0.026378
0.187598 0.357285 0.026661
0.221414 0.357443 0.027001
0.254890 0.357616 0.027403
0.288153 0.357803 0.027878
0.321281 0.358001 0.028428
0.354318 0.358210 0.029062
0.387287 0.358427 0.029787
0.420203 0.358655 0.031995
0.453068 0.358893 0.038786
0.485892 0.359143 0.047766
0.518678 0.359406 0.057316
0.551409 0.359685 0.066859
0.584076 0.359985 0.076213
0.616681 0.360308 0.085334
0.649225 0.360658 0.094227
0.681708 0.361036 0.102916
0.714131 0.361447 0.111425
0.746494 0.361892 0.119779
0.778798 0.362376 0.127995
0.811042 0.362902 0.136087
0.843227 0.363472 0.144074
0.875354 0.364090 0.151970
0.907422 0.364758 0.159788
0.939432 0.365480 0.167538
0.971385 0.366257 0.175231
1.003280 0.367094 0.182874
1.035119 0.367989 0.190469
-0.001680 0.390388 0.029029
-0.001414 0.390393 0.029041
-0.000276 0.390418 0.029087
0.075669 0.390467 0.029183
0.116508 0.390542 0.029333
0.152836 0.390642 0.029542
0.187591 0.390764 0.029810
0.221599 0.390907 0.030142
0.255199 0.391067 0.030543
0.288557 0.391240 0.031017
0.321761 0.391426 0.031569
0.354859 0.391622 0.032204
0.387879 0.391827 0.032928
0.420840 0.392042 0.033748
0.453750 0.392267 0.035510
0.486610 0.392502 0.041426
0.519421 0.392749 0.049902
0.552164 0.393013 0.059286
0.584840 0.393294 0.068852
0.617452 0.393597 0.078324
0.650000 0.393922 0.087614
0.682485 0.394273 0.096701
0.714908 0.394652 0.105593
0.747270 0.395062 0.114301
0.779571 0.395506 0.122841
0.811811 0.395985 0.131233
0.843991 0.396504 0.139496
0.876111 0.397064 0.147646
0.908173 0.397668 0.155699
0.940175 0.398317 0.163666
0.972120 0.399012 0.171561
1.004007 0.399756 0.179390
1.035837 0.400551 0.187153
-0.001796 0.423899 0.032853
-0.001527 0.423904 0.032864
-0.000379 0.423925 0.032906
0.074346 0.423968 0.032994
0.116038 0.424033 0.033133
0.152727 0.424122 0.033329
0.187682 0.424233 0.033587
0.221824 0.424363 0.033909
0.255525 0.424509 0.034301
0.288962 0.424671 0.034765
0.322229 0.424844 0.035306
0.355380 0.425028 0.035930
0.388445 0.425222 0.036640
0.421444 0.425425 0.037441
0.454389 0.425637 0.038339
0.487285 0.425858 0.039805
0.520116 0.426092 0.044857
0.552872 0.426341 0.052697
0.585558 0.426606 0.061763
0.618177 0.426890 0.071225
0.650730 0.427195 0.080722
0.683219 0.427522 0.090109
0.715644 0.427874 0.099327
0.748007 0.428253 0.108361
0.780308 0.428660 0.117219
0.812547 0.429098 0.125915
0.844725 0.429568 0.134465
0.876843 0.430074 0.142884
0.908902 0.430616 0.151188
0.940900 0.431198 0.159390
0.972840 0.431821 0.167502
1.004722 0.432487 0.175528
1.036545 0.433198 0.183473
-0.001853 0.457385 0.037215
-0.001582 0.457389 0.037225
-0.000427 0.457408 0.037266
0.073805 0.457445 0.037347
0.115922 0.457504 0.037480
0.152804 0.457583 0.037666
0.187886 0.457683 0.037913
0.222122 0.457802 0.038223
0.255896 0.457937 0.038600
0.289392 0.458087 0.039048
0.322708 0.458249 0.039571
0.355900 0.458422 0.040174
0.389001 0.458604 0.040861
0.422032 0.458796 0.041635
0.455004 0.458996 0.042503
0.487922 0.459206 0.043469
0.520767 0.459427 0.044776
0.553537 0.459661 0.049053
0.586234 0.459910 0.056188
0.618861 0.460175 0.064811
0.651422 0.460458 0.074053
0.683916 0.460760 0.083470
0.716345 0.461083 0.092859
0.748711 0.461429 0.102135
0.781014 0.461801 0.111265
0.813255 0.462199 0.120240
0.845433 0.462625 0.129065
0.877551 0.463083 0.137750
0.909608 0.463573 0.146307
0.941605 0.464097 0.154748
0.973542 0.464659 0.163082
1.005419 0.465258 0.171311
1.037239 0.465897 0.179448
-0.001856 0.490835 0.042067
-0.001585 0.490839 0.042075
-0.000424 0.490856 0.042114
0.074034 0.490889 0.042192
0.116192 0.490941 0.042318
0.153125 0.491012 0.042497
0.188256 0.491102 0.042734
0.222536 0.491210 0.043032
0.256350 0.491334 0.043396
0.289881 0.491471 0.043828
0.323228 0.491621 0.044335
0.356449 0.491782 0.044918
0.389576 0.491952 0.045583
0.422630 0.492130 0.046333
0.455624 0.492317 0.047172
0.488547 0.492513 0.048111
0.521397 0.492719 0.049158
0.554177 0.492937 0.050405
0.586884 0.493168 0.054009
0.619520 0.493414 0.060403
0.652087 0.493675 0.068474
0.684586 0.493954 0.077367
0.717020 0.494251 0.086599
0.749389 0.494569 0.095913
0.781694 0.494909 0.105188
0.813936 0.495272 0.114364
0.846116 0.495661 0.123415
0.878234 0.496077 0.132336
0.910290 0.496522 0.141129
0.942286 0.496997 0.149797
0.974221 0.497505 0.158343
1.006097 0.498047 0.166777
1.037914 0.498625 0.175108
-0.001785 0.524213 0.047442
-0.001512 0.524217 0.047450
-0.000346 0.524231 0.047486
0.075420 0.524261 0.047561
0.117064 0.524308 0.047681
0.153839 0.524371 0.047854
0.188905 0.524452 0.048081
0.223158 0.524550 0.048367
0.256962 0.524663 0.048716
0.290493 0.524789 0.049132
0.323846 0.524927 0.049618
0.357074 0.525075 0.050177
0.390210 0.525233 0.050813
0.423274 0.525399 0.051526
0.456268 0.525573 0.052325
0.489186 0.525757 0.053217
0.522032 0.525950 0.054205
0.554810 0.526154 0.055295
0.587521 0.526369 0.056511
0.620162 0.526597 0.059536
0.652733 0.526840 0.065215
0.685236 0.527097 0.072688
0.717673 0.527371 0.081165
0.750044 0.527664 0.090136
0.782351 0.527976 0.099309
0.814594 0.528309 0.108523
0.846775 0.528665 0.117695
0.878892 0.529045 0.126781
0.910949 0.529451 0.135759
0.942944 0.529884 0.144616
0.974879 0.530346 0.153355
1.006754 0.530838 0.161980
1.038570 0.531363 0.170497
-0.001622 0.557512 0.053236
-0.001348 0.557515 0.053244
-0.000178 0.557528 0.053278
0.078094 0.557554 0.053348
0.118643 0.557596 0.053461
0.155025 0.557654 0.053621
0.189896 0.557727 0.053834
0.224039 0.557815 0.054101
0.257776 0.557918 0.054428
0.291265 0.558034 0.054816
0.324591 0.558161 0.055270
0.357801 0.558298 0.055793
0.390927 0.558444 0.056386
0.423979 0.558599 0.057056
0.456952 0.558762 0.057809
0.489854 0.558935 0.058649
0.522687 0.559116 0.059580
0.555454 0.559307 0.060606
0.588157 0.559508 0.061730
0.620796 0.559720 0.062955
0.653369 0.559945 0.065517
0.685873 0.560184 0.070551
0.718311 0.560438 0.077425
0.750683 0.560708 0.085442
0.782990 0.560996 0.094095
0.815233 0.561303 0.103067
0.847414 0.561630 0.112166
0.879532 0.561978 0.121279
0.911589 0.562349 0.130343
0.943583 0.562746 0.139325
0.975517 0.563167 0.148212
1.007391 0.563616 0.156997
1.039205 0.564094 0.165680
-0.001356 0.590729 0.059285
-0.001081 0.590732 0.059293
0.020867 0.590744 0.059325
0.082065 0.590768 0.059391
0.120995 0.590805 0.059495
0.156744 0.590857 0.059645
0.191279 0.590923 0.059843
0.225221 0.591004 0.060092
0.258829 0.591097 0.060398
0.292230 0.591203 0.060761
0.325493 0.591320 0.061186
0.358659 0.591447 0.061675
0.391746 0.591583 0.062233
0.424754 0.591728 0.062865
0.457692 0.591881 0.063574
0.490564 0.592043 0.064368
0.523374 0.592213 0.065245
0.556122 0.592392 0.066212
0.588809 0.592581 0.067272
0.621436 0.592779 0.068427
0.654002 0.592989 0.069678
0.686504 0.593211 0.071884
0.718940 0.593447 0.076348
0.751311 0.593697 0.082646
0.783617 0.593963 0.090183
0.815859 0.594246 0.098473
0.848039 0.594548 0.107179
0.880155 0.594868 0.116095
0.912210 0.595209 0.125092
0.944204 0.595573 0.134090
0.976138 0.595959 0.143047
1.008010 0.596371 0.151935
1.039824 0.596808 0.160742
-0.000974 0.623865 0.065554
-0.000699 0.623867 0.065561
0.041360 0.623878 0.065591
0.087247 0.623899 0.065652
0.124161 0.623933 0.065750
0.159040 0.623980 0.065890
0.193100 0.624040 0.066075
0.226745 0.624113 0.066310
0.260154 0.624199 0.066596
0.293416 0.624296 0.066937
0.326579 0.624404 0.067336
0.359661 0.624521 0.067796
0.392670 0.624648 0.068323
0.425615 0.624784 0.068921
0.458501 0.624928 0.069591
0.491332 0.625080 0.070340
0.524106 0.625240 0.071169
0.556826 0.625408 0.072082
0.589489 0.625585 0.073083
0.622096 0.625772 0.074174
0.654646 0.625968 0.075356
0.687137 0.626175 0.076632
0.719568 0.626394 0.078573
0.751934 0.626627 0.082531
0.784237 0.626874 0.088276
0.816476 0.627136 0.095311
0.848653 0.627414 0.103193
0.880767 0.627710 0.111594
0.912820 0.628024 0.120290
0.944811 0.628359 0.129135
0.976742 0.628715 0.138037
1.008614 0.629092 0.146938
1.040425 0.629493 0.155802
-0.000464 0.656918 0.072018
-0.000189 0.656920 0.072025
0.056034 0.656929 0.072052
0.093498 0.656949 0.072110
0.128149 0.656979 0.072201
0.161953 0.657021 0.072334
0.195392 0.657076 0.072508
0.228644 0.657143 0.072728
0.261785 0.657221 0.072997
0.294853 0.657310 0.073319
0.327857 0.657410 0.073696
0.360810 0.657520 0.074133
0.393716 0.657638 0.074632
0.426578 0.657766 0.075197
0.459396 0.657901 0.075833
0.492170 0.658044 0.076541
0.524897 0.658194 0.077324
0.557578 0.658352 0.078185
0.590208 0.658519 0.079125
0.622787 0.658694 0.080145
0.655314 0.658878 0.081252
0.687786 0.659072 0.082443
0.720202 0.659277 0.083720
0.752559 0.659494 0.085455
0.784855 0.659723 0.088968
0.817089 0.659966 0.094201
0.849260 0.660225 0.100753
0.881370 0.660499 0.108226
0.913419 0.660789 0.116301
0.945407 0.661098 0.124750
0.977335 0.661426 0.133416
1.009204 0.661774 0.142193
1.041012 0.662144 0.151011
0.027872 0.689887 0.078655
0.040765 0.689889 0.078660
0.069181 0.689898 0.078686
0.100673 0.689915 0.078740
0.132943 0.689943 0.078826
0.165500 0.689981 0.078950
0.198189 0.690031 0.079113
0.230945 0.690092 0.079320
0.263730 0.690164 0.079573
0.296528 0.690247 0.079876
0.329328 0.690340 0.080230
0.362120 0.690442 0.080641
0.394898 0.690553 0.081109
0.427657 0.690672 0.081639
0.460389 0.690799 0.082232
0.493091 0.690933 0.082894
0.525759 0.691075 0.083624
0.558389 0.691225 0.084428
0.590977 0.691381 0.085306
0.623520 0.691546 0.086260
0.656015 0.691719 0.087295
0.688461 0.691901 0.088411
0.720855 0.692093 0.089607
0.753195 0.692296 0.090888
0.785479 0.692510 0.092477
0.817705 0.692736 0.095610
0.849869 0.692976 0.100384
0.881972 0.693231 0.106481
0.914015 0.693500 0.113549
0.945997 0.693786 0.121288
0.977921 0.694090 0.129471
1.009786 0.694411 0.137935
1.041589 0.694753 0.146562
0.055936 0.722773 0.085376
0.062005 0.722775 0.085381
0.081666 0.722783 0.085407
0.108601 0.722799 0.085456
0.138484 0.722824 0.085537
0.169654 0.722859 0.085652
0.201459 0.722905 0.085804
0.233614 0.722961 0.085998
0.265971 0.723028 0.086234
0.298452 0.723105 0.086518
0.331008 0.723191 0.086851
0.363608 0.723286 0.087235
0.396232 0.723390 0.087674
0.428864 0.723502 0.088170
0.461493 0.723621 0.088727
0.494109 0.723748 0.089347
0.526703 0.723882 0.090031
0.559270 0.724023 0.090784
0.591805 0.724171 0.091606
0.624303 0.724326 0.092502
0.656760 0.724489 0.093472
0.689172 0.724661 0.094519
0.721537 0.724841 0.095644
0.753853 0.725030 0.096848
0.786117 0.725231 0.098131
0.818328 0.725442 0.099621
0.850482 0.725666 0.102430
0.882576 0.725902 0.106796
0.914610 0.726153 0.112468
0.946586 0.726419 0.119142
0.978503 0.726700 0.126542
1.010361 0.726998 0.134448
1.042161 0.727314 0.142690
0.074010 0.755578 0.092159
0.078258 0.755580 0.092164
0.093580 0.755587 0.092188
0.116983 0.755601 0.092234
0.144597 0.755625 0.092309
0.174321 0.755657 0.092418
0.205166 0.755699 0.092561
0.236650 0.755751 0.092743
0.268520 0.755812 0.092967
0.300635 0.755884 0.093233
0.332909 0.755964 0.093546
0.365287 0.756053 0.093908
0.397729 0.756150 0.094320
0.430214 0.756256 0.094786
0.462720 0.756368 0.095311
0.495232 0.756487 0.095893
0.527739 0.756614 0.096536
0.560232 0.756746 0.097245
0.592703 0.756886 0.098018
0.625146 0.757033 0.098860
0.657555 0.757187 0.099773
0.689926 0.757348 0.100759
0.722257 0.757518 0.101817
0.754542 0.757697 0.102952
0.786780 0.757885 0.104162
0.818968 0.758083 0.105450
0.851106 0.758291 0.106877
0.883188 0.758512 0.109409
0.915211 0.758746 0.113408
0.947178 0.758993 0.118688
0.979086 0.759255 0.124985
1.010937 0.759532 0.132050
1.042730 0.759824 0.139670
0.089183 0.788301 0.099003
0.092494 0.788303 0.099007
0.105107 0.788310 0.099030
0.125699 0.788323 0.099074
0.151209 0.788344 0.099145
0.179475 0.788374 0.099248
0.209301 0.788413 0.099384
0.240053 0.788461 0.099555
0.271385 0.788518 0.099766
0.303090 0.788584 0.100018
0.335043 0.788659 0.100313
0.367167 0.788742 0.100654
0.399403 0.788833 0.101044
0.431717 0.788932 0.101484
0.464081 0.789038 0.101978
0.496473 0.789151 0.102527
0.528878 0.789270 0.103134
0.561284 0.789396 0.103802
0.593680 0.789528 0.104532
0.626057 0.789667 0.105326
0.658410 0.789812 0.106187
0.690733 0.789965 0.107117
0.723021 0.790125 0.108116
0.755269 0.790293 0.109187
0.787475 0.790470 0.110331
0.819636 0.790656 0.111549
0.851749 0.790852 0.112840
0.883813 0.791058 0.114230
0.915821 0.791277 0.116527
0.947776 0.791507 0.120201
0.979673 0.791751 0.125118
1.011514 0.792009 0.131057
1.043298 0.792281 0.137793
0.102934 0.820944 0.105908
0.105669 0.820945 0.105914
0.116379 0.820952 0.105934
0.134688 0.820964 0.105976
0.158270 0.820984 0.106043
0.185085 0.821012 0.106140
0.213857 0.821047 0.106269
0.243828 0.821092 0.106431
0.274573 0.821145 0.106631
0.305825 0.821207 0.106869
0.337421 0.821276 0.107149
0.369258 0.821354 0.107472
0.401261 0.821440 0.107840
0.433382 0.821533 0.108256
0.465585 0.821632 0.108725
0.497841 0.821739 0.109244
0.530129 0.821852 0.109818
0.562435 0.821970 0.110450
0.594744 0.822095 0.111140
0.627047 0.822227 0.111891
0.659334 0.822365 0.112705
0.691600 0.822509 0.113585
0.723837 0.822660 0.114531
0.756041 0.822819 0.115543
0.788209 0.822986 0.116626
0.820336 0.823161 0.117779
0.852420 0.823345 0.119003
0.884458 0.823538 0.120301
0.916448 0.823743 0.121675
0.948386 0.823958 0.123771
0.980269 0.824186 0.127155
1.012098 0.824427 0.131739
1.043872 0.824681 0.137341
0.115863 0.853507 0.112874
0.118189 0.853508 0.112879
0.127484 0.853514 0.112899
0.143901 0.853526 0.112938
0.165727 0.853543 0.113003
0.191133 0.853569 0.113095
0.218821 0.853602 0.113216
0.247972 0.853644 0.113370
0.278086 0.853693 0.113560
0.308845 0.853750 0.113787
0.340051 0.853816 0.114052
0.371570 0.853889 0.114358
0.403314 0.853970 0.114707
0.435221 0.854057 0.115103
0.467241 0.854151 0.115546
0.499344 0.854251 0.116040
0.531501 0.854358 0.116584
0.563693 0.854470 0.117183
0.595904 0.854589 0.117836
0.628121 0.854713 0.118549
