data/manual_verify/canoncgt_candidates2/safe/candidate_b.cube
# Generated by Local Color Service V0.2.0 using OpenColorIO Baker
# Recipe Hash: 430c9aca6ab9041dbd31ad9f9c14be18eba844188b82c908a98a99a79e101668
# OCIO Config: studio-config-v4.0.0_aces-v2.0_ocio-v2.5
LUT_3D_SIZE 9
0.049905 0.049252 0.048885
0.132366 0.050023 0.051296
0.267977 0.044560 0.059588
0.408450 0.009160 0.073323
0.547605 0.015663 0.089337
0.686604 0.029657 0.111331
0.825321 0.045146 0.134338
0.963724 0.061280 0.157599
1.101800 0.077740 0.181061
0.046193 0.131735 0.044818
0.131800 0.131495 0.043724
0.268683 0.129495 0.049322
0.408105 0.125723 0.066280
0.547678 0.121281 0.085543
0.686752 0.120624 0.109257
0.825465 0.122766 0.132856
0.963851 0.127238 0.156468
1.101908 0.133854 0.180159
-0.001023 0.266761 -0.000207
0.126376 0.266602 -0.000239
0.266894 0.266067 -0.000371
0.405960 0.265016 -0.000235
0.545370 0.263174 0.056329
0.684913 0.260426 0.091573
0.824294 0.256745 0.121215
0.963338 0.252637 0.148724
1.101744 0.251155 0.174632
-0.002449 0.403286 -0.001365
0.116234 0.403179 -0.001379
0.264110 0.402793 -0.001446
0.403959 0.402145 -0.001599
0.543239 0.401182 -0.001483
0.682440 0.399812 0.019291
0.821568 0.398005 0.086845
0.960543 0.395749 0.123994
1.099288 0.393034 0.155956
-0.004294 0.539873 -0.002658
0.099736 0.539796 -0.002672
0.259899 0.539500 -0.002732
0.401636 0.538988 -0.002865
0.541199 0.538284 -0.003094
0.680283 0.537373 -0.003148
0.819153 0.536202 -0.001524
0.957875 0.534756 0.069348
1.096429 0.533033 0.119837
-0.006335 0.676183 -0.004324
0.074595 0.676124 -0.004336
0.254832 0.675884 -0.004391
0.399004 0.675456 -0.004509
0.539150 0.674865 -0.004709
0.678251 0.674128 -0.005007
0.817003 0.673239 -0.005228
0.955518 0.672165 -0.003670
1.093843 0.670899 -0.000218
-0.008342 0.812113 -0.006316
-0.000009 0.812066 -0.006328
0.249380 0.811869 -0.006379
0.396148 0.811505 -0.006485
0.537075 0.810991 -0.006664
0.676340 0.810349 -0.006930
0.814997 0.809589 -0.007295
0.953379 0.808714 -0.007668
1.091526 0.807698 -0.006280
-0.010245 0.947648 -0.008614
-0.001901 0.947609 -0.008625
0.243870 0.947444 -0.008672
0.393275 0.947131 -0.008770
0.535034 0.946678 -0.008933
0.674546 0.946104 -0.009173
0.813179 0.945425 -0.009502
0.951406 0.944650 -0.009928
1.089417 0.943780 -0.010420
-0.011953 1.082807 -0.011182
-0.003607 1.082773 -0.011192
0.238656 1.082633 -0.011236
0.390556 1.082362 -0.011327
0.533101 1.081962 -0.011477
0.672874 1.081446 -0.011696
0.811523 1.080831 -0.011995
0.949633 1.080130 -0.012382
1.087492 1.079346 -0.012866
0.051290 0.058269 0.131995
0.132024 0.051782 0.132035
0.268262 0.043711 0.130661
0.408614 0.007948 0.128294
0.547725 0.016978 0.130301
0.686710 0.030451 0.142204
0.825410 0.045665 0.158529
0.963798 0.061647 0.177238
1.101862 0.078016 0.197420
0.045781 0.131630 0.131451
0.131707 0.131390 0.131213
0.268828 0.129467 0.129954
0.408197 0.125779 0.128386
0.547774 0.121403 0.129926
0.686849 0.120769 0.141466
0.825550 0.122915 0.157745
0.963923 0.127384 0.176504
1.101969 0.133993 0.196759
-0.000981 0.266612 0.127589
0.126662 0.266457 0.127427
0.266906 0.265926 0.126789
0.405904 0.264902 0.125495
0.545407 0.263145 0.124078
0.684987 0.260455 0.133437
0.824366 0.256803 0.150626
0.963402 0.252707 0.171044
1.101801 0.251226 0.192512
-0.002417 0.403141 0.121398
0.116468 0.403037 0.121265
0.264130 0.402659 0.120686
0.403908 0.402023 0.119453
0.543182 0.401086 0.117348
0.682464 0.399772 0.117999
0.821618 0.398000 0.132602
0.960596 0.395765 0.154054
1.099336 0.393062 0.177960
-0.004260 0.539765 0.111048
0.100063 0.539690 0.110917
0.259951 0.539396 0.110339
0.401628 0.538891 0.109097
0.541155 0.538194 0.106966
0.680235 0.537298 0.103723
0.819162 0.536162 0.106490
0.957906 0.534740 0.126355
1.096466 0.533032 0.152658
-0.006301 0.676100 0.094930
0.075100 0.676041 0.094782
0.254901 0.675803 0.094133
0.399016 0.675377 0.092746
0.539132 0.674791 0.090364
0.678213 0.674059 0.086677
0.816960 0.673179 0.081283
0.955516 0.672128 0.086205
1.093861 0.670878 0.113756
-0.008309 0.812047 0.067687
0.011660 0.812000 0.067464
0.249459 0.811803 0.066503
0.396171 0.811441 0.064424
0.537072 0.810930 0.060755
0.676321 0.810290 0.054712
0.814965 0.809534 0.044543
0.953341 0.808663 0.021715
1.091518 0.807664 0.040174
-0.010213 0.947594 -0.000710
-0.001870 0.947554 -0.000721
0.243953 0.947390 -0.000770
0.393304 0.947078 -0.000870
0.535040 0.946627 -0.001036
0.674537 0.946055 -0.001279
0.813160 0.945377 -0.001609
0.951380 0.944605 -0.002035
1.089384 0.943738 -0.002563
-0.011922 1.082761 -0.003257
-0.003578 1.082728 -0.003268
0.238741 1.082587 -0.003313
0.390590 1.082317 -0.003406
0.533111 1.081918 -0.003558
0.672872 1.081403 -0.003780
0.811512 1.080790 -0.004082
0.949613 1.080091 -0.004471
1.087469 1.079309 -0.004955
0.047654 0.083910 0.269618
0.121906 0.081045 0.269530
0.267411 0.053225 0.268880
0.408338 -0.000103 0.267327
0.547419 -0.000034 0.265072
0.686506 0.026614 0.262802
0.825353 0.044813 0.260312
0.963884 0.061915 0.259081
1.102001 0.078567 0.264981
0.043876 0.130848 0.269432
0.130231 0.130734 0.269067
0.268616 0.129098 0.267894
0.407913 0.125441 0.266556
0.547456 0.120982 0.265014
0.686632 0.120417 0.263057
0.825479 0.122790 0.260722
0.963998 0.127535 0.259359
1.102101 0.134292 0.265012
-0.001016 0.266296 0.265724
0.126489 0.266152 0.265536
0.266843 0.265641 0.264975
0.405737 0.264635 0.264201
0.545136 0.262906 0.263220
0.684752 0.260301 0.261992
0.824252 0.256781 0.260487
0.963435 0.252819 0.259274
1.101908 0.251402 0.264273
-0.002367 0.402825 0.262575
0.116873 0.402725 0.262482
0.264197 0.402360 0.262134
0.403837 0.401741 0.261555
0.543002 0.400825 0.260746
0.682232 0.399545 0.259679
0.821459 0.397852 0.258320
0.960570 0.395720 0.256658
1.099406 0.393108 0.259591
-0.004169 0.539471 0.258962
0.100951 0.539397 0.258899
0.260119 0.539112 0.258643
0.401633 0.538619 0.258165
0.541057 0.537937 0.257449
0.680061 0.537059 0.256475
0.818970 0.535955 0.255212
0.957799 0.534601 0.253635
1.096477 0.532974 0.253228
-0.006190 0.675838 0.254462
0.076735 0.675780 0.254411
0.255142 0.675547 0.254200
0.399074 0.675130 0.253783
0.539094 0.674554 0.253136
0.678107 0.673834 0.252233
0.816803 0.672968 0.251049
0.955356 0.671945 0.249557
1.093787 0.670752 0.247738
-0.008190 0.811819 0.248917
0.024700 0.811771 0.248873
0.249743 0.811579 0.248686
0.396266 0.811222 0.248310
0.537075 0.810717 0.247715
0.676263 0.810086 0.246872
0.814863 0.809341 0.245755
0.953202 0.808481 0.244340
1.091382 0.807503 0.242605
-0.010093 0.947396 0.242271
-0.001751 0.947356 0.242231
0.244266 0.947193 0.242060
0.393419 0.946885 0.241711
0.535069 0.946439 0.241154
0.674511 0.945873 0.240359
0.813095 0.945202 0.239301
0.951281 0.944438 0.237952
1.089261 0.943579 0.236290
-0.011804 1.082589 0.234477
-0.003460 1.082555 0.234440
0.239068 1.082416 0.234277
0.390719 1.082147 0.233947
0.533161 1.081752 0.233415
0.672871 1.081242 0.232651
0.811472 1.080634 0.231630
0.949548 1.079939 0.230323
1.087378 1.079164 0.228699
0.031642 0.116300 0.409615
0.114504 0.114837 0.409357
0.261260 0.100175 0.408342
0.406508 0.059034 0.407106
0.547167 -0.000251 0.405021
0.686195 -0.000039 0.402642
0.824974 0.037764 0.400410
0.963472 0.057999 0.398193
1.101669 0.076377 0.395905
0.049533 0.144241 0.409006
0.124332 0.143653 0.408706
0.265997 0.137251 0.407615
0.407429 0.126173 0.406252
0.547181 0.120008 0.404458
0.686313 0.119209 0.402479
0.825100 0.121519 0.400447
0.963585 0.126325 0.398343
1.101767 0.133363 0.396124
-0.001275 0.265951 0.404975
0.124861 0.265820 0.404731
0.266521 0.265327 0.403996
0.405572 0.264334 0.403051
0.544933 0.262616 0.401999
0.684466 0.260031 0.400847
0.823887 0.256535 0.399596
0.963022 0.252561 0.398211
1.101556 0.251157 0.396488
-0.002433 0.402503 0.401318
0.116426 0.402409 0.401203
0.264113 0.402059 0.400791
0.403768 0.401453 0.400173
0.542870 0.400549 0.399424
0.682014 0.399283 0.398559
0.821162 0.397605 0.397570
0.960207 0.395491 0.396444
1.099056 0.392929 0.395176
-0.004117 0.539142 0.398181
0.101490 0.539071 0.398113
0.260248 0.538795 0.397852
0.401655 0.538313 0.397406
0.540985 0.537643 0.396816
0.679903 0.536778 0.396099
0.818737 0.535688 0.395251
0.957502 0.534349 0.394265
1.096146 0.532746 0.393130
-0.006064 0.675509 0.395043
0.078571 0.675453 0.394997
0.255445 0.675226 0.394810
0.399171 0.674817 0.394466
0.539078 0.674251 0.393979
0.678004 0.673543 0.393358
0.816628 0.672690 0.392604
0.955121 0.671680 0.391710
1.093503 0.670502 0.390668
-0.008022 0.811501 0.391661
0.034147 0.811455 0.391625
0.250163 0.811266 0.391480
0.396421 0.810916 0.391200
0.537105 0.810419 0.390784
0.676206 0.809798 0.390234
0.814737 0.809064 0.389549
0.953020 0.808215 0.388724
1.091155 0.807250 0.387751
-0.009902 0.947097 0.387911
-0.001566 0.947059 0.387882
0.244769 0.946898 0.387761
0.393620 0.946594 0.387522
0.535137 0.946154 0.387157
0.674494 0.945596 0.386661
0.813012 0.944935 0.386031
0.951147 0.944179 0.385262
1.089084 0.943332 0.384347
-0.011600 1.082311 0.383727
-0.003261 1.082279 0.383702
0.239632 1.082141 0.383596
0.390952 1.081876 0.383385
0.533258 1.081486 0.383055
0.672884 1.080982 0.382601
0.811425 1.080381 0.382015
0.949451 1.079695 0.381292
1.087244 1.078927 0.380423
0.045100 0.154110 0.548325
0.116399 0.153355 0.548121
0.249408 0.146650 0.547270
0.400020 0.125138 0.546032
0.544808 0.080123 0.544759
0.685938 -0.000381 0.542811
0.824684 0.017037 0.540322
0.963134 0.050178 0.538014
1.101281 0.071485 0.535800
0.061495 0.173652 0.547839
0.123983 0.173137 0.547638
0.255878 0.168086 0.546784
0.402727 0.153903 0.545562
0.545697 0.131724 0.544232
0.686039 0.117176 0.542361
0.824801 0.119373 0.540125
0.963243 0.124228 0.537963
1.101377 0.131404 0.535837
0.025572 0.265080 0.544963
0.126141 0.265253 0.544747
0.265681 0.264918 0.543895
0.405253 0.263936 0.542727
0.544715 0.262232 0.541442
0.684222 0.259668 0.540093
0.823587 0.256199 0.538703
0.962670 0.252188 0.537265
1.101165 0.250670 0.535637
-0.002701 0.402167 0.540503
0.114328 0.402080 0.540364
0.263636 0.401747 0.539866
0.403585 0.401156 0.539123
0.542732 0.400262 0.538256
0.681838 0.399006 0.537309
0.820924 0.397341 0.536291
0.959906 0.395241 0.535200
1.098695 0.392693 0.534036
-0.004194 0.538816 0.536929
0.100782 0.538749 0.536849
0.260123 0.538483 0.536541
0.401607 0.538013 0.536030
0.540914 0.537355 0.535386
0.679779 0.536499 0.534650
0.818548 0.535419 0.533835
0.957250 0.534091 0.532941
1.095834 0.532499 0.531964
-0.006002 0.675176 0.533782
0.079495 0.675122 0.533730
0.255622 0.674901 0.533522
0.399239 0.674502 0.533151
0.539070 0.673947 0.532649
0.677926 0.673248 0.532046
0.816483 0.672405 0.531357
0.954913 0.671406 0.530585
1.093237 0.670238 0.529727
-0.007868 0.811164 0.530765
0.040437 0.811119 0.530729
0.250566 0.810934 0.530577
0.396587 0.810591 0.530292
0.537155 0.810104 0.529888
0.676173 0.809491 0.529379
0.814634 0.808766 0.528779
0.952854 0.807928 0.528092
1.090935 0.806972 0.527318
-0.009688 0.946762 0.527715
-0.001356 0.946724 0.527686
0.245346 0.946568 0.527567
0.393867 0.946268 0.527340
0.535236 0.945836 0.527003
0.674501 0.945284 0.526565
0.812948 0.944632 0.526033
0.951020 0.943886 0.525412
1.088906 0.943046 0.524701
-0.011348 1.081985 0.524530
-0.003011 1.081952 0.524507
0.240347 1.081818 0.524410
0.391261 1.081556 0.524220
0.533400 1.081171 0.523931
0.672926 1.080673 0.523546
0.811393 1.080080 0.523067
0.949362 1.079401 0.522498
1.087105 1.078643 0.521838
0.062310 0.193668 0.686573
0.121569 0.193149 0.686422
0.239704 0.189601 0.685798
0.390756 0.175819 0.684621
0.538697 0.149592 0.683377
0.683050 0.102477 0.682083
0.824424 -0.000414 0.680299
0.962852 0.034184 0.677723
1.100964 0.063404 0.675331
0.074850 0.207990 0.686218
0.128243 0.207574 0.686069
0.244870 0.204579 0.685445
0.394197 0.193200 0.684280
0.540444 0.173187 0.683037
0.683765 0.143307 0.681708
0.824529 0.116199 0.679924
0.962955 0.121114 0.677523
1.101056 0.128497 0.675241
0.090773 0.271824 0.684459
0.141416 0.271796 0.684306
0.260768 0.270811 0.683644
0.403482 0.267133 0.682491
0.544214 0.262606 0.681154
0.683961 0.259175 0.679611
0.823308 0.255740 0.677990
0.962361 0.251683 0.676358
1.100829 0.250001 0.674611
-0.002783 0.401740 0.679922
0.110580 0.401706 0.679776
0.262660 0.401398 0.679210
0.403215 0.400822 0.678344
0.542534 0.399939 0.677327
0.681660 0.398695 0.676229
0.820717 0.397042 0.675074
0.959650 0.394956 0.673871
1.098388 0.392425 0.672626
-0.004439 0.538484 0.675726
0.098353 0.538420 0.675634
0.259625 0.538166 0.675277
0.401421 0.537711 0.674685
0.540802 0.537065 0.673944
0.679661 0.536219 0.673115
0.818391 0.535148 0.672223
0.957042 0.533828 0.671275
1.095573 0.532246 0.670272
-0.006047 0.674847 0.672193
0.078914 0.674795 0.672133
0.255553 0.674582 0.671894
0.399217 0.674194 0.671471
0.539039 0.673649 0.670909
0.677860 0.672961 0.670251
0.816368 0.672126 0.669522
0.954744 0.671134 0.668732
1.093015 0.669976 0.667885
-0.007774 0.810830 0.669023
0.043709 0.810787 0.668982
0.250829 0.810607 0.668811
0.396709 0.810271 0.668497
0.537201 0.809793 0.668056
0.676156 0.809189 0.667518
0.814557 0.808472 0.666903
0.952721 0.807642 0.666224
1.090747 0.806694 0.665483
-0.009496 0.946423 0.666029
-0.001166 0.946387 0.665998
0.245883 0.946233 0.665870
0.394108 0.945940 0.665626
0.535352 0.945513 0.665272
0.674530 0.944971 0.664822
0.812907 0.944325 0.664294
0.950921 0.943587 0.663696
1.088752 0.942756 0.663034
-0.011084 1.081645 0.663090
-0.002752 1.081614 0.663065
0.241108 1.081480 0.662964
0.391600 1.081224 0.662767
0.533571 1.080845 0.662474
0.672995 1.080353 0.662092
0.811387 1.079766 0.661629
0.949293 1.079095 0.661096
1.086984 1.078344 0.660494
0.081091 0.233454 0.824403
0.130024 0.233065 0.824286
0.237792 0.230779 0.823798
0.378371 0.222237 0.822810
0.530591 0.203491 0.821553
0.677155 0.173886 0.820299
0.821009 0.125826 0.818989
0.962593 -0.000302 0.817383
1.100688 0.049652 0.814742
0.090636 0.244567 0.824128
0.135934 0.244229 0.824012
0.241920 0.242197 0.823525
0.382272 0.234472 0.822535
0.532760 0.218243 0.821292
0.678376 0.193808 0.820034
0.821582 0.158720 0.818701
0.962686 0.116828 0.817066
1.100774 0.124490 0.814552
0.112182 0.293007 0.822862
0.152045 0.292869 0.822746
0.255884 0.291804 0.822251
0.395425 0.287198 0.821250
0.539861 0.279017 0.820026
0.681950 0.268646 0.818705
0.822641 0.258019 0.817228
0.962062 0.251030 0.815499
1.100527 0.249129 0.813566
0.064593 0.400712 0.819281
0.134315 0.400833 0.819158
0.261515 0.400977 0.818628
0.402626 0.400432 0.817664
0.542240 0.399562 0.816506
0.681450 0.398330 0.815248
0.820511 0.396693 0.813931
0.959416 0.394624 0.812572
1.098115 0.392110 0.811185
-0.004864 0.538132 0.814563
0.093871 0.538073 0.814461
0.258703 0.537832 0.814065
0.401057 0.537392 0.813398
0.540616 0.536759 0.812557
0.679522 0.535924 0.811617
0.818244 0.534861 0.810613
0.956861 0.533552 0.809562
1.095350 0.531979 0.808468
-0.006223 0.674515 0.810540
0.076428 0.674464 0.810473
0.255163 0.674260 0.810205
0.399063 0.673885 0.809728
0.538957 0.673352 0.809094
0.677784 0.672674 0.808357
0.816267 0.671848 0.807551
0.954604 0.670865 0.806693
1.092829 0.669713 0.805790
-0.007770 0.810499 0.807033
0.043967 0.810457 0.806986
0.250877 0.810283 0.806796
0.396746 0.809955 0.806444
0.537216 0.809488 0.805953
0.676138 0.808894 0.805361
0.814499 0.808185 0.804693
0.952616 0.807363 0.803969
1.090594 0.806422 0.803195
-0.009353 0.946088 0.803845
-0.001024 0.946052 0.803811
0.246297 0.945902 0.803668
0.394308 0.945616 0.803399
0.535456 0.945197 0.803010
0.674569 0.944662 0.802524
0.812887 0.944026 0.801961
0.950847 0.943295 0.801337
1.088631 0.942471 0.800660
-0.010839 1.081307 0.800842
-0.002508 1.081276 0.800816
0.241825 1.081145 0.800705
0.391935 1.080893 0.800491
0.533753 1.080520 0.800177
0.673082 1.080035 0.799771
0.811402 1.079456 0.799288
0.949250 1.078791 0.798741
1.086893 1.078046 0.798137
0.100855 0.273395 0.961803
0.141312 0.273087 0.961708
0.240150 0.271440 0.961311
0.367571 0.266119 0.960518
0.520409 0.252262 0.959306
0.669690 0.230307 0.958051
0.815262 0.198226 0.956786
0.958653 0.149772 0.955464
1.100358 0.032908 0.954014
0.108266 0.282357 0.961580
0.146498 0.282077 0.961486
0.243665 0.280565 0.961090
0.370858 0.275600 0.960297
0.522845 0.262843 0.959091
0.671192 0.243133 0.957841
0.816168 0.215340 0.956571
0.959121 0.176754 0.955234
1.100468 0.120530 0.953754
0.129246 0.321050 0.960589
0.162786 0.320884 0.960496
0.256215 0.319899 0.960100
0.383534 0.316305 0.959293
0.531769 0.307621 0.958112
0.676558 0.295405 0.956862
0.819190 0.280135 0.955548
0.960373 0.263175 0.954116
1.100235 0.248047 0.952480
0.131870 0.404273 0.958120
0.168175 0.404314 0.958021
0.267529 0.404273 0.957602
0.400044 0.403090 0.956737
0.541223 0.400726 0.955568
0.681095 0.398232 0.954249
0.820287 0.396282 0.952789
0.959186 0.394231 0.951266
1.097858 0.391738 0.949717
-0.003120 0.537561 0.953322
0.103704 0.537574 0.953229
0.257359 0.537469 0.952828
0.400504 0.537045 0.952100
0.540339 0.536427 0.951169
0.679346 0.535603 0.950120
0.818090 0.534551 0.948998
0.956692 0.533251 0.947826
1.095150 0.531689 0.946616
-0.006533 0.674171 0.948835
0.071642 0.674123 0.948763
0.254429 0.673929 0.948468
0.398759 0.673567 0.947943
0.538805 0.673048 0.947241
0.677683 0.672381 0.946422
0.816168 0.671564 0.945527
0.954480 0.670589 0.944581
1.092669 0.669446 0.943593
-0.007865 0.810167 0.944927
0.040837 0.810126 0.944876
0.250668 0.809958 0.944665
0.396672 0.809642 0.944275
0.537184 0.809184 0.943734
0.676107 0.808600 0.943079
0.814447 0.807900 0.942345
0.952531 0.807086 0.941555
1.090471 0.806152 0.940720
-0.009278 0.945756 0.941439
-0.000946 0.945721 0.941401
0.246545 0.945575 0.941244
0.394440 0.945296 0.940948
0.535534 0.944886 0.940521
0.674603 0.944360 0.939987
0.812880 0.943732 0.939375
0.950796 0.943009 0.938702
1.088539 0.942191 0.937980
-0.010627 1.080971 0.938233
-0.002297 1.080941 0.938203
0.242453 1.080814 0.938083
0.392242 1.080567 0.937850
0.533928 1.080200 0.937506
0.673178 1.079723 0.937065
0.811436 1.079151 0.936546
0.949232 1.078495 0.935964
1.086829 1.077756 0.935330
0.121179 0.313414 1.098793
0.154911 0.313162 1.098713
0.245439 0.311888 1.098382
0.363385 0.308195 1.097723
0.507905 0.298508 1.096658
0.660668 0.281101 1.095393
0.808214 0.256607 1.094135
0.953013 0.222691 1.092861
1.095965 0.174200 1.091530
0.127095 0.320848 1.098607
0.159450 0.320612 1.098528
0.248542 0.319417 1.098197
0.366116 0.315915 1.097538
0.510548 0.306695 1.096474
0.662351 0.290458 1.095216
0.809320 0.267941 1.093961
0.953715 0.237594 1.092682
1.096353 0.196714 1.091338
0.146072 0.352807 1.097794
0.174899 0.352641 1.097717
0.260031 0.351761 1.097388
0.376830 0.349019 1.096726
0.520705 0.341674 1.095658
0.668795 0.329727 1.094428
0.813469 0.314044 1.093166
0.956225 0.294750 1.091853
1.097575 0.272690 1.090444
0.161257 0.419928 1.095930
0.189054 0.419891 1.095851
0.274052 0.419591 1.095515
0.393060 0.418214 1.094824
0.535189 0.414288 1.093748
0.677593 0.408830 1.092523
0.818526 0.402543 1.091204
0.958485 0.396301 1.089773
1.097582 0.391452 1.088192
0.105197 0.536469 1.091899
0.153715 0.536553 1.091816
0.265236 0.536788 1.091462
0.399765 0.536664 1.090738
0.539966 0.536061 1.089732
0.679123 0.535249 1.088583
0.817918 0.534209 1.087347
0.956525 0.532920 1.086054
1.094959 0.531371 1.084721
-0.006668 0.673793 1.087056
0.065810 0.673760 1.086982
0.253355 0.673581 1.086669
0.398302 0.673233 1.086104
0.538576 0.672728 1.085339
0.677546 0.672074 1.084443
0.816058 0.671267 1.083461
0.954363 0.670301 1.082421
1.092526 0.669166 1.081340
-0.008062 0.809828 1.082741
0.032737 0.809789 1.082685
0.250189 0.809627 1.082458
0.396481 0.809321 1.082036
0.537095 0.808876 1.081444
0.676053 0.808304 1.080727
0.814391 0.807614 1.079925
0.952455 0.806807 1.079063
1.090366 0.805881 1.078155
-0.009274 0.945423 1.078918
-0.000940 0.945389 1.078877
0.246591 0.945248 1.078707
0.394488 0.944976 1.078383
0.535576 0.944576 1.077916
0.674626 0.944061 1.077335
0.812875 0.943441 1.076669
0.950758 0.942726 1.075939
1.088469 0.941915 1.075162
-0.010463 1.080638 1.075451
-0.002133 1.080609 1.075419
0.242955 1.080485 1.075288
0.392495 1.080244 1.075034
0.534084 1.079885 1.074660
0.673272 1.079416 1.074181
0.811481 1.078851 1.073622
0.949230 1.078202 1.072995
1.086788 1.077471 1.072317
