data/manual_verify/canoncgt_candidates2/safe/candidate_b.cube
# Generated by Local Color Service V0.2.0 using OpenColorIO Baker
# Recipe Hash: 430c9aca6ab9041dbd31ad9f9c14be18eba844188b82c908a98a99a79e101668
# OCIO Config: studio-config-v4.0.0_aces-v2.0_ocio-v2.5
LUT_3D_SIZE 5
0.049905 0.049252 0.048885
0.267977 0.044560 0.059588
0.547605 0.015663 0.089337
0.825321 0.045146 0.134338
1.101800 0.077740 0.181061
-0.001023 0.266761 -0.000207
0.266894 0.266067 -0.000371
0.545370 0.263174 0.056329
0.824294 0.256745 0.121215
1.101744 0.251155 0.174632
-0.004294 0.539873 -0.002658
0.259899 0.539500 -0.002732
0.541199 0.538284 -0.003094
0.819153 0.536202 -0.001524
1.096429 0.533033 0.119837
-0.008342 0.812113 -0.006316
0.249380 0.811869 -0.006379
0.537075 0.810991 -0.006664
0.814997 0.809589 -0.007295
1.091526 0.807698 -0.006280
-0.011953 1.082807 -0.011182
0.238656 1.082633 -0.011236
0.533101 1.081962 -0.011477
0.811523 1.080831 -0.011995
1.087492 1.079346 -0.012866
0.047654 0.083910 0.269618
0.267411 0.053225 0.268880
0.547419 -0.000034 0.265072
0.825353 0.044813 0.260312
1.102001 0.078567 0.264981
-0.001016 0.266296 0.265724
0.266843 0.265641 0.264975
0.545136 0.262906 0.263220
0.824252 0.256781 0.260487
1.101908 0.251402 0.264273
-0.004169 0.539471 0.258962
0.260119 0.539112 0.258643
0.541057 0.537937 0.257449
0.818970 0.535955 0.255212
1.096477 0.532974 0.253228
-0.008190 0.811819 0.248917
0.249743 0.811579 0.248686
0.537075 0.810717 0.247715
0.814863 0.809341 0.245755
1.091382 0.807503 0.242605
-0.011804 1.082589 0.234477
0.239068 1.082416 0.234277
0.533161 1.081752 0.233415
0.811472 1.080634 0.231630
1.087378 1.079164 0.228699
0.045100 0.154110 0.548325
0.249408 0.146650 0.547270
0.544808 0.080123 0.544759
0.824684 0.017037 0.540322
1.101281 0.071485 0.535800
0.025572 0.265080 0.544963
0.265681 0.264918 0.543895
0.544715 0.262232 0.541442
0.823587 0.256199 0.538703
1.101165 0.250670 0.535637
-0.004194 0.538816 0.536929
0.260123 0.538483 0.536541
0.540914 0.537355 0.535386
0.818548 0.535419 0.533835
1.095834 0.532499 0.531964
-0.007868 0.811164 0.530765
0.250566 0.810934 0.530577
0.537155 0.810104 0.529888
0.814634 0.808766 0.528779
1.090935 0.806972 0.527318
-0.011348 1.081985 0.524530
0.240347 1.081818 0.524410
0.533400 1.081171 0.523931
0.811393 1.080080 0.523067
1.087105 1.078643 0.521838
0.081091 0.233454 0.824403
0.237792 0.230779 0.823798
0.530591 0.203491 0.821553
0.821009 0.125826 0.818989
1.100688 0.049652 0.814742
0.112182 0.293007 0.822862
0.255884 0.291804 0.822251
0.539861 0.279017 0.820026
0.822641 0.258019 0.817228
1.100527 0.249129 0.813566
-0.004864 0.538132 0.814563
0.258703 0.537832 0.814065
0.540616 0.536759 0.812557
0.818244 0.534861 0.810613
1.095350 0.531979 0.808468
-0.007770 0.810499 0.807033
0.250877 0.810283 0.806796
0.537216 0.809488 0.805953
0.814499 0.808185 0.804693
1.090594 0.806422 0.803195
-0.010839 1.081307 0.800842
0.241825 1.081145 0.800705
0.533753 1.080520 0.800177
0.811402 1.079456 0.799288
1.086893 1.078046 0.798137
0.121179 0.313414 1.098793
0.245439 0.311888 1.098382
0.507905 0.298508 1.096658
0.808214 0.256607 1.094135
1.095965 0.174200 1.091530
0.146072 0.352807 1.097794
0.260031 0.351761 1.097388
0.520705 0.341674 1.095658
0.813469 0.314044 1.093166
1.097575 0.272690 1.090444
0.105197 0.536469 1.091899
0.265236 0.536788 1.091462
0.539966 0.536061 1.089732
0.817918 0.534209 1.087347
1.094959 0.531371 1.084721
-0.008062 0.809828 1.082741
0.250189 0.809627 1.082458
0.537095 0.808876 1.081444
0.814391 0.807614 1.079925
1.090366 0.805881 1.078155
-0.010463 1.080638 1.075451
0.242955 1.080485 1.075288
0.534084 1.079885 1.074660
0.811481 1.078851 1.073622
1.086788 1.077471 1.072317
