data/manual_verify/canoncgt_candidates/safe/candidate_a.cube
# Generated by Local Color Service V0.2.0 using OpenColorIO Baker
# Recipe Hash: 54b3eb7b624b5970e3b2d6a1cb3edbba29a2e18d1fb2bcef2720fbad1d8df14a
# OCIO Config: studio-config-v4.0.0_aces-v2.0_ocio-v2.5
LUT_3D_SIZE 33
0.068168 0.068169 0.068169
0.072251 0.068206 0.068242
0.086899 0.068367 0.068555
0.109113 0.068693 0.069185
0.135206 0.069209 0.070177
0.163564 0.069848 0.071537
0.197595 0.069168 0.073021
0.231375 0.068302 0.074840
0.264801 0.067336 0.076997
0.297981 0.066279 0.079480
0.330980 0.065142 0.082266
0.363833 0.063936 0.085333
0.396495 0.064317 0.088541
0.428877 0.069362 0.091652
0.461185 0.074660 0.094961
0.493436 0.079955 0.098466
0.525632 0.085245 0.102368
0.557768 0.090516 0.107881
0.589850 0.095783 0.114104
0.621884 0.101055 0.120321
0.653873 0.106333 0.126534
0.685819 0.111618 0.132742
0.717722 0.116908 0.138946
0.749586 0.122204 0.145146
0.781410 0.127506 0.151342
0.813198 0.132811 0.157534
0.844950 0.138118 0.163724
0.876667 0.143427 0.169910
0.908350 0.148737 0.176093
0.940001 0.154050 0.182275
0.971620 0.159363 0.188453
1.003209 0.164678 0.194629
1.034768 0.169995 0.200803
0.068168 0.072276 0.068169
0.072276 0.072276 0.068169
0.086987 0.072274 0.068390
0.109272 0.072268 0.069041
0.135403 0.072402 0.070071
0.163820 0.072830 0.071446
0.197849 0.072100 0.072938
0.231579 0.071242 0.074763
0.264969 0.070307 0.076927
0.298123 0.069297 0.079414
0.331102 0.068219 0.082204
0.363939 0.067083 0.085275
0.396565 0.067931 0.088448
0.428933 0.072755 0.091553
0.461236 0.077724 0.094868
0.493483 0.082739 0.098379
0.525675 0.087788 0.102299
0.557806 0.092853 0.107840
0.589885 0.097940 0.114066
0.621917 0.103054 0.120287
0.653904 0.108192 0.126502
0.685847 0.113352 0.132712
0.717749 0.118531 0.138918
0.749611 0.123728 0.145119
0.781434 0.128940 0.151317
0.813220 0.134164 0.157511
0.844970 0.139397 0.163702
0.876686 0.144638 0.169889
0.908369 0.149886 0.176074
0.940019 0.155142 0.182256
0.971637 0.160404 0.188435
1.003225 0.165671 0.194612
1.034783 0.170943 0.200787
0.068169 0.086999 0.068168
0.072276 0.086999 0.068169
0.086999 0.086999 0.068168
0.109295 0.086997 0.068415
0.135457 0.086991 0.069328
0.164385 0.086825 0.070706
0.198525 0.085556 0.072279
0.232216 0.084051 0.074226
0.265550 0.082710 0.076479
0.298643 0.081514 0.079028
0.331564 0.080388 0.081864
0.364331 0.079607 0.084939
0.396806 0.082018 0.087951
0.429150 0.085694 0.091090
0.461436 0.089586 0.094439
0.493666 0.093656 0.097981
0.525844 0.097874 0.101991
0.557962 0.102203 0.107650
0.590030 0.106636 0.113893
0.622052 0.111166 0.120128
0.654030 0.115780 0.126356
0.685965 0.120468 0.132577
0.717859 0.125220 0.138792
0.749715 0.130028 0.145002
0.781532 0.134887 0.151207
0.813313 0.139789 0.157408
0.845058 0.144727 0.163605
0.876770 0.149698 0.169798
0.908448 0.154698 0.175987
0.940094 0.159724 0.182174
0.971709 0.164773 0.188357
1.003294 0.169844 0.194538
1.034849 0.174934 0.200716
0.068169 0.109305 0.068169
0.072276 0.109305 0.068168
0.086999 0.109305 0.068169
0.109305 0.109305 0.068169
0.135483 0.109304 0.068382
0.165625 0.109020 0.069353
0.199468 0.108104 0.070782
0.232953 0.106983 0.072695
0.266198 0.105647 0.075027
0.299264 0.104093 0.077729
0.332103 0.103156 0.080630
0.364668 0.103950 0.083549
0.397109 0.105475 0.086642
0.429462 0.107492 0.089926
0.461745 0.109908 0.093394
0.493966 0.112655 0.097035
0.526130 0.115675 0.101281
0.558234 0.118920 0.107181
0.590288 0.122367 0.113476
0.622297 0.125994 0.119753
0.654262 0.129780 0.126016
0.686185 0.133706 0.132267
0.718068 0.137756 0.138507
0.749912 0.141918 0.144739
0.781719 0.146179 0.150963
0.813491 0.150527 0.157181
0.845228 0.154952 0.163392
0.876931 0.159446 0.169598
0.908602 0.164004 0.175800
0.940241 0.168618 0.181997
0.971849 0.173283 0.188190
1.003428 0.177996 0.194380
1.034978 0.182751 0.200566
0.068168 0.135489 0.068169
0.072276 0.135489 0.068169
0.086999 0.135489 0.068168
0.109300 0.135496 0.068166
0.135467 0.135551 0.068150
0.167503 0.135322 0.068061
0.200732 0.135080 0.068766
0.233723 0.135090 0.070163
0.266582 0.135199 0.072108
0.299343 0.135356 0.074504
0.332020 0.135564 0.077278
0.364617 0.135829 0.080378
0.397138 0.136155 0.083760
0.429591 0.136544 0.087389
0.461958 0.137221 0.091188
0.494231 0.138390 0.095098
0.526421 0.139988 0.099889
0.558538 0.141946 0.106185
0.590597 0.144219 0.112613
0.622604 0.146766 0.118996
0.654563 0.149553 0.125345
0.686479 0.152551 0.131666
0.718353 0.155738 0.137965
0.750188 0.159093 0.144245
0.781985 0.162597 0.150511
0.813747 0.166236 0.156765
0.845474 0.169997 0.163008
0.877168 0.173867 0.169241
0.908829 0.177839 0.175467
0.940460 0.181901 0.181685
0.972060 0.186047 0.187898
1.003631 0.190270 0.194104
1.035173 0.194564 0.200306
0.059821 0.167644 0.066557
0.064644 0.167663 0.066549
0.081158 0.167744 0.066516
0.104978 0.167907 0.066448
0.134497 0.168035 0.066252
0.167648 0.168029 0.065843
0.200704 0.168036 0.065418
0.233647 0.168062 0.065962
0.266489 0.168111 0.067497
0.299243 0.168190 0.069756
0.331916 0.168303 0.072559
0.364512 0.168455 0.075785
0.397034 0.168650 0.079347
0.429488 0.168891 0.083184
0.461880 0.169181 0.087247
0.494213 0.169521 0.091595
0.526483 0.169909 0.097350
0.558685 0.170445 0.104207
0.590806 0.171374 0.110941
0.622854 0.172685 0.117564
0.654840 0.174333 0.124102
0.686772 0.176278 0.130575
0.718654 0.178486 0.136998
0.750492 0.180926 0.143381
0.782289 0.183573 0.149732
0.814048 0.186406 0.156058
0.845770 0.189406 0.162362
0.877458 0.192560 0.168649
0.909113 0.195852 0.174920
0.940736 0.199272 0.181179
0.972329 0.202809 0.187426
1.003892 0.206453 0.193664
1.035426 0.210196 0.199893
0.041791 0.200886 0.063914
0.049261 0.200900 0.063906
0.071428 0.200949 0.063863
0.101983 0.200968 0.063703
0.134820 0.200954 0.063404
0.167773 0.200941 0.062985
0.200718 0.200935 0.062435
0.233610 0.200941 0.061809
0.266424 0.200961 0.062209
0.299159 0.201000 0.063871
0.331820 0.201061 0.066459
0.364408 0.201149 0.069711
0.396926 0.201268 0.073441
0.429379 0.201420 0.077521
0.461771 0.201609 0.081864
0.494102 0.201835 0.086995
0.526370 0.202096 0.093811
0.558585 0.202398 0.100981
0.590750 0.202744 0.108045
0.622867 0.203137 0.115018
0.654933 0.203615 0.121907
0.686930 0.204395 0.128677
0.718861 0.205508 0.135343
0.750734 0.206925 0.141924
0.782555 0.208617 0.148439
0.814330 0.210556 0.154901
0.846063 0.212717 0.161320
0.877757 0.215079 0.167703
0.909414 0.217623 0.174057
0.941037 0.220334 0.180387
0.972628 0.223197 0.186697
1.004188 0.226201 0.192988
1.035718 0.229333 0.199265
0.032556 0.233788 0.060352
0.044042 0.233786 0.060329
0.071549 0.233781 0.060232
0.102943 0.233770 0.060035
0.135332 0.233757 0.059722
0.168035 0.233742 0.059281
0.200829 0.233730 0.058701
0.233628 0.233725 0.057970
0.266394 0.233730 0.057104
0.299101 0.233747 0.057290
0.331742 0.233778 0.059072
0.364315 0.233829 0.062043
0.396823 0.233901 0.065827
0.429270 0.233999 0.070151
0.461657 0.234123 0.075129
0.493980 0.234273 0.081799
0.526245 0.234453 0.089454
0.558462 0.234666 0.096949
0.590629 0.234914 0.104301
0.622748 0.235198 0.111533
0.654821 0.235520 0.118662
0.686850 0.235882 0.125702
0.718836 0.236284 0.132666
0.750781 0.236736 0.139561
0.782668 0.237407 0.146360
0.814495 0.238370 0.153060
0.846267 0.239608 0.159679
0.877991 0.241100 0.166232
0.909671 0.242825 0.172729
0.941310 0.244761 0.179182
0.972912 0.246890 0.185597
1.004479 0.249197 0.191979
1.036013 0.251666 0.198336
0.038998 0.266489 0.055649
0.048484 0.266488 0.055625
0.073787 0.266483 0.055520
0.104168 0.266474 0.055307
0.136039 0.266462 0.054969
0.168443 0.266447 0.054489
0.201051 0.266433 0.053854
0.233729 0.266423 0.053051
0.266414 0.266418 0.052063
0.299076 0.266422 0.050878
0.331689 0.266437 0.050747
0.364241 0.266465 0.052685
0.396733 0.266508 0.056175
0.429167 0.266569 0.061100
0.461538 0.266649 0.068049
0.493852 0.266749 0.076250
0.526116 0.266873 0.084292
0.558333 0.267023 0.092143
0.590500 0.267201 0.099822
0.622620 0.267409 0.107350
0.654694 0.267647 0.114747
0.686725 0.267917 0.122030
0.718714 0.268221 0.129214
0.750662 0.268560 0.136311
0.782570 0.268933 0.143333
0.814441 0.269343 0.150288
0.846276 0.269791 0.157184
0.878063 0.270385 0.164003
0.909796 0.271233 0.170732
0.941478 0.272331 0.177383
0.973113 0.273663 0.183969
1.004707 0.275214 0.190499
1.036262 0.276965 0.196983
0.045074 0.299105 0.049484
0.053103 0.299104 0.049456
0.076357 0.299100 0.049336
0.105653 0.299092 0.049094
0.136944 0.299081 0.048707
0.169004 0.299067 0.048155
0.201393 0.299052 0.047421
0.233924 0.299039 0.046483
0.266509 0.299028 0.045320
0.299099 0.299023 0.043901
0.331665 0.299027 0.042231
0.364188 0.299040 0.042144
0.396654 0.299063 0.046012
0.429064 0.299099 0.053208
0.461421 0.299148 0.061601
0.493728 0.299215 0.070069
0.525989 0.299300 0.078429
0.558202 0.299405 0.086622
0.590367 0.299533 0.094638
0.622487 0.299685 0.102484
0.654561 0.299863 0.110176
0.686593 0.300067 0.117730
0.718582 0.300299 0.125163
0.750532 0.300559 0.132488
0.782442 0.300850 0.139718
0.814315 0.301171 0.146865
0.846152 0.301524 0.153936
0.877953 0.301909 0.160942
0.909720 0.302327 0.167889
0.941454 0.302778 0.174783
0.973150 0.303320 0.181617
1.004796 0.304080 0.188370
1.036395 0.305066 0.195048
0.050968 0.331638 0.041294
0.057884 0.331637 0.041268
0.079246 0.331634 0.041163
0.107402 0.331627 0.040958
0.138054 0.331616 0.040652
0.169724 0.331603 0.040265
0.201858 0.331588 0.039844
0.234214 0.331572 0.039467
0.266673 0.331558 0.039250
0.299167 0.331547 0.039358
0.331660 0.331541 0.039891
0.364135 0.331543 0.040559
0.396576 0.331554 0.042595
0.428969 0.331573 0.048031
0.461314 0.331604 0.055440
0.493613 0.331647 0.063657
0.525867 0.331704 0.072104
0.558074 0.331778 0.080530
0.590236 0.331870 0.088836
0.622352 0.331982 0.096988
0.654425 0.332114 0.104980
0.686455 0.332269 0.112821
0.718445 0.332447 0.120522
0.750395 0.332649 0.128097
0.782306 0.332876 0.135558
0.814181 0.333130 0.142918
0.846019 0.333410 0.150187
0.877822 0.333718 0.157375
0.909591 0.334055 0.164491
0.941327 0.334420 0.171542
0.973031 0.334816 0.178534
1.004703 0.335242 0.185474
1.036346 0.335699 0.192365
0.056311 0.364090 0.041173
0.062408 0.364089 0.041180
0.082164 0.364086 0.041211
0.109232 0.364080 0.041277
0.139240 0.364070 0.041383
0.170510 0.364057 0.041538
0.202379 0.364042 0.041747
0.234550 0.364026 0.042019
0.266873 0.364010 0.042361
0.299269 0.363996 0.042778
0.331691 0.363985 0.043275
0.364112 0.363980 0.043857
0.396516 0.363981 0.044525
0.428891 0.363991 0.046123
0.461222 0.364008 0.050886
0.493510 0.364035 0.057820
0.525754 0.364073 0.065791
0.557953 0.364124 0.074154
0.590108 0.364190 0.082595
0.622220 0.364272 0.090975
0.654289 0.364371 0.099233
0.686317 0.364488 0.107349
0.718305 0.364624 0.115321
0.750254 0.364781 0.123155
0.782165 0.364960 0.130862
0.814040 0.365161 0.138453
0.845879 0.365385 0.145937
0.877683 0.365633 0.153326
0.909453 0.365906 0.160629
0.941191 0.366204 0.167854
0.972896 0.366528 0.175008
1.004571 0.366879 0.182098
1.036215 0.367256 0.189131
0.061530 0.396471 0.044904
0.066963 0.396470 0.044911
0.085275 0.396467 0.044938
0.111260 0.396461 0.044996
0.140598 0.396452 0.045089
0.171441 0.396440 0.045225
0.203022 0.396426 0.045409
0.234988 0.396410 0.045647
0.267162 0.396394 0.045946
0.299446 0.396378 0.046310
0.331784 0.396364 0.046746
0.364141 0.396354 0.047256
0.396495 0.396349 0.047845
0.428834 0.396350 0.048513
0.461147 0.396359 0.049792
0.493421 0.396374 0.053929
0.525653 0.396399 0.060360
0.557842 0.396433 0.068029
0.589988 0.396480 0.076251
0.622093 0.396539 0.084660
0.654156 0.396612 0.093074
0.686180 0.396701 0.101407
0.718165 0.396806 0.109623
0.750112 0.396929 0.117707
0.782022 0.397069 0.125660
0.813895 0.397229 0.133489
0.845734 0.397409 0.141200
0.877538 0.397609 0.148802
0.909309 0.397831 0.156306
0.941048 0.398075 0.163720
0.972754 0.398341 0.171051
1.004430 0.398631 0.178308
1.036076 0.398943 0.185495
0.066812 0.428788 0.048652
0.071687 0.428787 0.048658
0.088655 0.428784 0.048683
0.113541 0.428779 0.048734
0.142162 0.428771 0.048818
0.172538 0.428760 0.048939
0.203799 0.428746 0.049102
0.235537 0.428730 0.049314
0.267543 0.428714 0.049578
0.299702 0.428698 0.049901
0.331943 0.428682 0.050286
0.364225 0.428669 0.050738
0.396522 0.428659 0.051260
0.428815 0.428655 0.051854
0.461093 0.428655 0.052523
0.493348 0.428663 0.053576
0.525565 0.428678 0.057143
0.557742 0.428700 0.063063
0.589877 0.428732 0.070388
0.621973 0.428775 0.078421
0.654030 0.428829 0.086752
0.686047 0.428896 0.095163
0.718028 0.428976 0.103541
0.749971 0.429072 0.111830
0.781878 0.429182 0.120007
0.813750 0.429309 0.128064
0.845587 0.429453 0.136002
0.877390 0.429615 0.143823
0.909161 0.429795 0.151537
0.940900 0.429995 0.159150
0.972607 0.430214 0.166670
1.004284 0.430453 0.174103
1.035931 0.430713 0.181458
0.072128 0.461045 0.052419
0.076528 0.461045 0.052425
0.092264 0.461042 0.052447
0.116050 0.461037 0.052492
0.143921 0.461030 0.052568
0.173795 0.461019 0.052677
0.204710 0.461006 0.052824
0.236200 0.460992 0.053013
0.268022 0.460975 0.053250
0.300040 0.460959 0.053538
0.332173 0.460943 0.053882
0.364370 0.460927 0.054285
0.396599 0.460915 0.054752
0.428839 0.460906 0.055285
0.461075 0.460901 0.055885
0.493295 0.460901 0.056555
0.525492 0.460909 0.057455
0.557654 0.460922 0.060512
0.589778 0.460944 0.065929
0.621863 0.460973 0.072880
0.653911 0.461012 0.080682
0.685921 0.461062 0.088896
0.717896 0.461123 0.097267
0.749834 0.461196 0.105659
0.781737 0.461282 0.113999
0.813605 0.461383 0.122249
0.845440 0.461498 0.130393
0.877242 0.461628 0.138425
0.909012 0.461775 0.146347
0.940750 0.461938 0.154162
0.972457 0.462118 0.161877
1.004134 0.462317 0.169496
1.035782 0.462534 0.177027
0.077461 0.493246 0.056206
0.081453 0.493246 0.056211
0.096069 0.493244 0.056231
0.118775 0.493239 0.056273
0.145871 0.493232 0.056342
0.175215 0.493222 0.056441
0.205758 0.493210 0.056574
0.236979 0.493196 0.056745
0.268600 0.493180 0.056959
0.300465 0.493163 0.057219
0.332478 0.493147 0.057529
0.364581 0.493130 0.057893
0.396734 0.493115 0.058313
0.428913 0.493103 0.058794
0.461099 0.493094 0.059336
0.493278 0.493089 0.059943
0.525441 0.493089 0.060616
0.557582 0.493096 0.061423
0.589692 0.493109 0.064027
0.621765 0.493128 0.068957
0.653803 0.493156 0.075517
0.685804 0.493192 0.083054
0.717771 0.493237 0.091112
0.749703 0.493293 0.099410
0.781601 0.493360 0.107788
0.813465 0.493439 0.116153
0.845296 0.493530 0.124454
0.877096 0.493635 0.132668
0.908863 0.493754 0.140781
0.940600 0.493888 0.148790
0.972306 0.494037 0.156697
1.003982 0.494201 0.164503
1.035629 0.494382 0.172215
0.082834 0.525391 0.060021
0.086475 0.525391 0.060025
0.100067 0.525388 0.060044
0.121717 0.525384 0.060082
0.148019 0.525378 0.060145
0.176805 0.525368 0.060236
0.206952 0.525357 0.060358
0.237884 0.525343 0.060515
0.269287 0.525328 0.060709
0.300983 0.525312 0.060946
0.332865 0.525294 0.061227
0.364862 0.525277 0.061557
0.396931 0.525261 0.061939
0.429041 0.525246 0.062375
0.461170 0.525234 0.062869
0.493302 0.525224 0.063422
0.525425 0.525220 0.064036
0.557534 0.525220 0.064712
0.589622 0.525226 0.065469
0.621681 0.525238 0.067675
0.653707 0.525256 0.072139
0.685698 0.525282 0.078301
0.717656 0.525315 0.085547
0.749580 0.525357 0.093417
0.781471 0.525409 0.101611
0.813330 0.525470 0.109945
0.845157 0.525543 0.118310
0.876952 0.525627 0.126643
0.908716 0.525723 0.134907
0.940451 0.525832 0.143086
0.972155 0.525955 0.151169
1.003829 0.526092 0.159155
1.035476 0.526242 0.167045
0.088246 0.557482 0.063865
0.091582 0.557482 0.063869
0.104242 0.557480 0.063886
0.124868 0.557476 0.063921
0.150364 0.557469 0.063980
0.178567 0.557461 0.064063
0.208294 0.557450 0.064175
0.238915 0.557437 0.064319
0.270084 0.557422 0.064497
0.301598 0.557406 0.064714
0.333336 0.557389 0.064971
0.365218 0.557371 0.065273
0.397194 0.557354 0.065621
0.429227 0.557337 0.066020
0.461291 0.557323 0.066471
0.493368 0.557311 0.066977
0.525447 0.557302 0.067540
0.557518 0.557297 0.068160
0.589575 0.557297 0.068840
0.621613 0.557303 0.069580
0.653624 0.557314 0.071440
0.685604 0.557331 0.075467
0.717551 0.557355 0.081229
0.749467 0.557386 0.088164
0.781350 0.557425 0.095820
0.813202 0.557473 0.103882
0.845023 0.557530 0.112145
0.876813 0.557597 0.120486
0.908574 0.557675 0.128827
0.940305 0.557763 0.137125
0.972005 0.557864 0.145353
1.003678 0.557977 0.153497
1.035322 0.558103 0.161552
0.093699 0.589522 0.067736
0.096768 0.589521 0.067741
0.108581 0.589519 0.067757
0.128219 0.589516 0.067789
0.152900 0.589510 0.067842
0.180500 0.589502 0.067920
0.209784 0.589492 0.068024
0.240076 0.589479 0.068157
0.270994 0.589465 0.068321
0.302312 0.589449 0.068520
0.333894 0.589432 0.068758
0.365652 0.589414 0.069035
0.397524 0.589396 0.069355
0.429471 0.589379 0.069721
0.461464 0.589363 0.070136
0.493482 0.589348 0.070601
0.525511 0.589337 0.071118
0.557540 0.589328 0.071690
0.589561 0.589323 0.072317
0.621568 0.589323 0.073001
0.653557 0.589328 0.073741
0.685523 0.589339 0.075308
0.717459 0.589355 0.078929
0.749364 0.589377 0.084297
0.781239 0.589407 0.090910
0.813083 0.589443 0.098330
0.844897 0.589487 0.106232
0.876682 0.589540 0.114398
0.908437 0.589602 0.122692
0.940163 0.589675 0.131020
0.971860 0.589757 0.139333
1.003530 0.589851 0.147594
1.035172 0.589956 0.155787
0.099190 0.621513 0.071635
0.102024 0.621513 0.071638
0.113063 0.621511 0.071654
0.131757 0.621507 0.071684
0.155625 0.621502 0.071734
0.182603 0.621494 0.071806
0.211424 0.621484 0.071902
0.241368 0.621472 0.072026
0.272018 0.621459 0.072178
0.303128 0.621443 0.072363
0.334543 0.621426 0.072582
0.366164 0.621409 0.072838
0.397924 0.621391 0.073134
0.429778 0.621373 0.073472
0.461692 0.621356 0.073855
0.493644 0.621340 0.074284
0.525618 0.621325 0.074763
0.557600 0.621314 0.075291
0.589581 0.621306 0.075872
0.621554 0.621301 0.076505
0.653515 0.621301 0.077192
0.685458 0.621306 0.077933
0.717380 0.621316 0.079270
0.749274 0.621331 0.082514
0.781138 0.621352 0.087497
0.812973 0.621379 0.093779
0.844780 0.621413 0.100943
0.876557 0.621455 0.108663
0.908306 0.621504 0.116711
0.940027 0.621562 0.124935
0.971720 0.621630 0.133233
1.003385 0.621707 0.141544
1.035024 0.621794 0.149825
0.104717 0.653458 0.075561
0.107344 0.653457 0.075564
0.117679 0.653456 0.075578
0.135472 0.653452 0.075606
0.158531 0.653447 0.075653
0.184874 0.653440 0.075720
0.213215 0.653430 0.075810
0.242792 0.653419 0.075925
0.273160 0.653406 0.076067
0.304047 0.653391 0.076239
0.335282 0.653374 0.076443
0.366756 0.653357 0.076680
0.398395 0.653339 0.076955
0.430147 0.653321 0.077269
0.461977 0.653303 0.077624
0.493858 0.653286 0.078023
0.525771 0.653270 0.078466
0.557701 0.653256 0.078956
0.589638 0.653245 0.079495
0.621574 0.653237 0.080082
0.653501 0.653232 0.080720
0.685417 0.653232 0.081409
0.717316 0.653236 0.082149
0.749196 0.653246 0.083305
0.781049 0.653260 0.086201
0.812874 0.653280 0.090814
0.844672 0.653306 0.096764
0.876441 0.653338 0.103660
0.908183 0.653377 0.111180
0.939898 0.653423 0.119091
0.971585 0.653478 0.127227
1.003246 0.653541 0.135476
1.034880 0.653613 0.143768
0.110282 0.685358 0.079512
0.112722 0.685357 0.079514
0.122417 0.685356 0.079527
0.139351 0.685353 0.079554
0.161612 0.685348 0.079598
0.187312 0.685341 0.079661
0.215155 0.685332 0.079745
0.244350 0.685321 0.079853
0.274418 0.685308 0.079985
0.305067 0.685294 0.080146
0.336111 0.685278 0.080335
0.367429 0.685261 0.080557
0.398938 0.685243 0.080813
0.430582 0.685225 0.081105
0.462321 0.685206 0.081435
0.494125 0.685188 0.081805
0.525971 0.685172 0.082216
0.557846 0.685156 0.082672
0.589734 0.685143 0.083171
0.621628 0.685132 0.083718
0.653520 0.685124 0.084311
0.685405 0.685119 0.084952
0.717277 0.685119 0.085643
0.749134 0.685123 0.086381
0.780973 0.685132 0.087401
0.812787 0.685145 0.089980
0.844574 0.685164 0.094239
0.876335 0.685188 0.099862
0.908069 0.685218 0.106481
0.939776 0.685255 0.113789
0.971457 0.685299 0.121543
1.003113 0.685350 0.129572
1.034742 0.685410 0.137757
0.115878 0.717215 0.083479
0.118155 0.717215 0.083482
0.127263 0.717214 0.083495
0.143385 0.717211 0.083520
0.164861 0.717206 0.083561
0.189909 0.717199 0.083620
0.217240 0.717191 0.083699
0.246035 0.717180 0.083799
0.275790 0.717168 0.083924
0.306189 0.717154 0.084074
0.337031 0.717139 0.084251
0.368183 0.717122 0.084458
0.399555 0.717105 0.084697
0.431084 0.717086 0.084969
0.462725 0.717068 0.085276
0.494447 0.717049 0.085621
0.526223 0.717031 0.086004
0.558036 0.717015 0.086428
0.589872 0.717000 0.086894
0.621720 0.716987 0.087403
0.653572 0.716976 0.087957
0.685422 0.716968 0.088556
0.717265 0.716963 0.089201
0.749096 0.716963 0.089892
0.780913 0.716967 0.090631
0.812712 0.716975 0.091550
0.844488 0.716988 0.093839
0.876239 0.717006 0.097765
0.907964 0.717029 0.103064
0.939664 0.717058 0.109405
0.971338 0.717092 0.116487
1.002987 0.717134 0.124072
1.034610 0.717182 0.131980
0.121494 0.749032 0.087461
0.123622 0.749032 0.087464
0.132193 0.749030 0.087476
0.147550 0.749028 0.087499
0.168259 0.749023 0.087537
0.192655 0.749017 0.087594
0.219463 0.749009 0.087667
0.247846 0.748999 0.087762
0.277275 0.748987 0.087879
0.307413 0.748974 0.088020
0.338042 0.748959 0.088186
0.369020 0.748942 0.088380
0.400247 0.748925 0.088604
0.431654 0.748907 0.088858
0.463192 0.748888 0.089146
0.494824 0.748870 0.089467
0.526525 0.748851 0.089826
0.558272 0.748834 0.090222
0.590052 0.748817 0.090658
0.621851 0.748802 0.091134
0.653660 0.748789 0.091651
0.685473 0.748779 0.092212
0.717282 0.748771 0.092816
0.749084 0.748767 0.093464
0.780876 0.748766 0.094157
0.812653 0.748769 0.094895
0.844415 0.748777 0.095746
0.876155 0.748790 0.097773
0.907870 0.748807 0.101385
0.939561 0.748829 0.106369
0.971227 0.748856 0.112428
1.002868 0.748889 0.119279
1.034485 0.748928 0.126681
0.127120 0.780810 0.091456
0.129114 0.780809 0.091459
0.137198 0.780808 0.091470
0.151833 0.780805 0.091493
0.171800 0.780801 0.091529
0.195544 0.780795 0.091581
0.221822 0.780787 0.091651
0.249781 0.780778 0.091741
0.278872 0.780767 0.091851
0.308737 0.780754 0.091983
0.339146 0.780739 0.092140
0.369940 0.780723 0.092322
0.401015 0.780706 0.092532
0.432293 0.780688 0.092771
0.463721 0.780670 0.093041
0.495260 0.780651 0.093343
0.526880 0.780633 0.093678
0.558558 0.780614 0.094050
0.590276 0.780597 0.094458
0.622022 0.780581 0.094904
0.653785 0.780566 0.095390
0.685557 0.780553 0.095915
0.717330 0.780543 0.096482
0.749101 0.780535 0.097091
0.780865 0.780531 0.097742
0.812618 0.780530 0.098436
0.844358 0.780533 0.099174
0.876082 0.780541 0.099982
0.907787 0.780552 0.101774
0.939467 0.780569 0.105090
0.971125 0.780590 0.109769
1.002759 0.780616 0.115550
1.034370 0.780647 0.122162
0.132754 0.812549 0.095465
0.134626 0.812549 0.095467
0.142265 0.812548 0.095477
0.156225 0.812545 0.095500
0.175471 0.812541 0.095533
0.198569 0.812536 0.095582
0.224313 0.812528 0.095649
0.251840 0.812519 0.095733
0.280582 0.812508 0.095837
0.310166 0.812496 0.095962
0.340342 0.812481 0.096110
0.370945 0.812466 0.096283
0.401859 0.812449 0.096480
0.433002 0.812432 0.096705
0.464315 0.812414 0.096959
0.495755 0.812395 0.097242
0.527288 0.812376 0.097558
0.558892 0.812357 0.097907
0.590546 0.812339 0.098290
0.622235 0.812322 0.098710
0.653948 0.812306 0.099165
0.685676 0.812291 0.099661
0.717411 0.812279 0.100194
0.749148 0.812269 0.100767
0.780881 0.812262 0.101379
0.812608 0.812257 0.102034
0.844324 0.812256 0.102730
0.876027 0.812259 0.103467
0.907716 0.812266 0.104252
0.939386 0.812277 0.105834
0.971034 0.812293 0.108873
1.002659 0.812313 0.113261
1.034262 0.812338 0.118766
0.138397 0.844252 0.099486
0.140162 0.844252 0.099488
0.147388 0.844251 0.099497
0.160711 0.844249 0.099517
0.179265 0.844244 0.099550
0.201727 0.844239 0.099597
0.226932 0.844232 0.099659
0.254019 0.844223 0.099740
0.282403 0.844213 0.099839
0.311695 0.844200 0.099958
0.341631 0.844187 0.100097
0.372035 0.844172 0.100260
0.402781 0.844156 0.100446
0.433782 0.844139 0.100658
0.464974 0.844121 0.100898
0.496309 0.844102 0.101165
0.527752 0.844084 0.101463
0.559277 0.844064 0.101792
0.590862 0.844046 0.102153
0.622491 0.844027 0.102549
0.654151 0.844010 0.102980
0.685832 0.843994 0.103445
