data/manual_verify/canoncgt_candidates/safe/candidate_a.cube
# Generated by Local Color Service V0.2.0 using OpenColorIO Baker
# Recipe Hash: 54b3eb7b624b5970e3b2d6a1cb3edbba29a2e18d1fb2bcef2720fbad1d8df14a
# OCIO Config: studio-config-v4.0.0_aces-v2.0_ocio-v2.5
LUT_3D_SIZE 9
0.068168 0.068169 0.068169
0.135206 0.069209 0.070177
0.264801 0.067336 0.076997
0.396495 0.064317 0.088541
0.525632 0.085245 0.102368
0.653873 0.106333 0.126534
0.781410 0.127506 0.151342
0.908350 0.148737 0.176093
1.034768 0.169995 0.200803
0.068168 0.135489 0.068169
0.135467 0.135551 0.068150
0.266582 0.135199 0.072108
0.397138 0.136155 0.083760
0.526421 0.139988 0.099889
0.654563 0.149553 0.125345
0.781985 0.162597 0.150511
0.908829 0.177839 0.175467
1.035173 0.194564 0.200306
0.038998 0.266489 0.055649
0.136039 0.266462 0.054969
0.266414 0.266418 0.052063
0.396733 0.266508 0.056175
0.526116 0.266873 0.084292
0.654694 0.267647 0.114747
0.782570 0.268933 0.143333
0.909796 0.271233 0.170732
1.036262 0.276965 0.196983
0.061530 0.396471 0.044904
0.140598 0.396452 0.045089
0.267162 0.396394 0.045946
0.396495 0.396349 0.047845
0.525653 0.396399 0.060360
0.654156 0.396612 0.093074
0.782022 0.397069 0.125660
0.909309 0.397831 0.156306
1.036076 0.398943 0.185495
0.082834 0.525391 0.060021
0.148019 0.525378 0.060145
0.269287 0.525328 0.060709
0.396931 0.525261 0.061939
0.525425 0.525220 0.064036
0.653707 0.525256 0.072139
0.781471 0.525409 0.101611
0.908716 0.525723 0.134907
1.035476 0.526242 0.167045
0.104717 0.653458 0.075561
0.158531 0.653447 0.075653
0.273160 0.653406 0.076067
0.398395 0.653339 0.076955
0.525771 0.653270 0.078466
0.653501 0.653232 0.080720
0.781049 0.653260 0.086201
0.908183 0.653377 0.111180
1.034880 0.653613 0.143768
0.127120 0.780810 0.091456
0.171800 0.780801 0.091529
0.278872 0.780767 0.091851
0.401015 0.780706 0.092532
0.526880 0.780633 0.093678
0.653785 0.780566 0.095390
0.780865 0.780531 0.097742
0.907787 0.780552 0.101774
1.034370 0.780647 0.122162
0.149704 0.907554 0.107563
0.187199 0.907546 0.107622
0.286375 0.907517 0.107883
0.404859 0.907464 0.108429
0.528850 0.907393 0.109341
0.654680 0.907317 0.110695
0.781106 0.907253 0.112561
0.907621 0.907220 0.114991
1.033996 0.907237 0.118314
0.172416 1.033766 0.123853
0.204254 1.033760 0.123902
0.295600 1.033735 0.124119
0.409958 1.033688 0.124573
0.531737 1.033623 0.125324
0.656260 1.033546 0.126431
0.781859 1.033470 0.127956
0.907832 1.033409 0.129946
1.033845 1.033378 0.132441
0.069348 0.074221 0.135168
0.134985 0.070524 0.135385
0.265197 0.067052 0.134841
0.396788 0.064442 0.134563
0.525858 0.085445 0.139291
0.654058 0.106512 0.153779
0.781561 0.127657 0.172375
0.908474 0.148864 0.193010
1.034872 0.170103 0.214810
0.068160 0.135489 0.135536
0.135575 0.135575 0.135575
0.266851 0.135306 0.135222
0.397359 0.136307 0.135377
0.526620 0.140143 0.139497
0.654738 0.149697 0.153556
0.782131 0.162724 0.172039
0.908951 0.177949 0.192662
1.035275 0.194661 0.214481
0.040834 0.266499 0.135498
0.136328 0.266471 0.135516
0.266478 0.266426 0.135627
0.396768 0.266520 0.135940
0.526239 0.266921 0.137225
0.654837 0.267720 0.148939
0.782698 0.269018 0.167760
0.909906 0.271317 0.189428
1.036358 0.277042 0.212013
0.061348 0.396465 0.137197
0.140532 0.396447 0.137225
0.267122 0.396389 0.137361
0.396464 0.396345 0.137693
0.525656 0.396401 0.138315
0.654239 0.396637 0.142241
0.782121 0.397106 0.157788
0.909404 0.397875 0.179203
1.036162 0.398992 0.202936
0.082693 0.525387 0.140471
0.147953 0.525373 0.140504
0.269251 0.525324 0.140652
0.396904 0.525257 0.140987
0.525402 0.525217 0.141589
0.653702 0.525256 0.142539
0.781523 0.525422 0.148366
0.908786 0.525745 0.165942
1.035547 0.526269 0.189146
0.104608 0.653454 0.145465
0.158467 0.653444 0.145500
0.273126 0.653403 0.145651
0.398370 0.653336 0.145981
0.525750 0.653267 0.146557
0.653483 0.653230 0.147449
0.781041 0.653259 0.148716
0.908216 0.653384 0.155402
1.034930 0.653626 0.173878
0.127032 0.780807 0.152147
0.171740 0.780798 0.152181
0.278839 0.780764 0.152330
0.400991 0.780704 0.152647
0.526861 0.780630 0.153189
0.653769 0.780564 0.154014
0.780851 0.780529 0.155180
0.907777 0.780552 0.156732
1.034389 0.780652 0.163503
0.149635 0.907551 0.160384
0.187144 0.907544 0.160416
0.286342 0.907515 0.160560
0.404836 0.907462 0.160861
0.528832 0.907391 0.161367
0.654665 0.907315 0.162129
0.781093 0.907251 0.163195
0.907608 0.907219 0.164610
1.033986 0.907237 0.166411
0.172352 1.033764 0.170011
0.204203 1.033758 0.170043
0.295567 1.033734 0.170178
0.409937 1.033687 0.170462
0.531721 1.033621 0.170933
0.656246 1.033544 0.171634
0.781846 1.033468 0.172607
0.907820 1.033408 0.173893
1.033835 1.033377 0.175528
0.068083 0.094086 0.265476
0.126163 0.092069 0.265687
0.264699 0.072793 0.266101
0.396751 0.063166 0.266281
0.525852 0.084741 0.266009
0.654165 0.106187 0.265735
0.781783 0.127636 0.265490
0.908785 0.149062 0.266771
1.035195 0.170373 0.274928
0.066983 0.135074 0.266496
0.135240 0.135331 0.266551
0.266799 0.135367 0.266521
0.397261 0.136368 0.266499
0.526576 0.140088 0.266467
0.654819 0.149650 0.266310
0.782334 0.162792 0.266125
0.909249 0.178151 0.267240
1.035591 0.194916 0.275144
0.041855 0.266481 0.266431
0.136421 0.266457 0.266426
0.266418 0.266418 0.266418
0.396678 0.266518 0.266439
0.526156 0.266926 0.266533
0.654850 0.267768 0.266737
0.782833 0.269143 0.267090
0.910154 0.271522 0.268167
1.036644 0.277270 0.275347
0.061291 0.396448 0.266604
0.140475 0.396430 0.266606
0.267044 0.396374 0.266622
0.396378 0.396334 0.266678
0.525572 0.396392 0.266811
0.654185 0.396637 0.267057
0.782170 0.397142 0.267451
0.909572 0.397967 0.268033
1.036398 0.399133 0.273208
0.082410 0.525372 0.267342
0.147808 0.525359 0.267349
0.269156 0.525311 0.267381
0.396821 0.525245 0.267463
0.525324 0.525207 0.267624
0.653630 0.525248 0.267899
0.781487 0.525422 0.268321
0.908849 0.525773 0.268917
1.035711 0.526336 0.271021
0.104299 0.653442 0.268819
0.158283 0.653432 0.268829
0.273020 0.653391 0.268872
0.398287 0.653325 0.268971
0.525677 0.653257 0.269153
0.653417 0.653221 0.269448
0.780979 0.653252 0.269886
0.908189 0.653384 0.270494
1.034993 0.653648 0.271298
0.126741 0.780797 0.271144
0.171544 0.780788 0.271156
0.278726 0.780754 0.271208
0.400908 0.780694 0.271319
0.526791 0.780621 0.271515
0.653706 0.780556 0.271821
0.780793 0.780521 0.272267
0.907724 0.780545 0.272878
1.034366 0.780650 0.273679
0.149375 0.907542 0.274387
0.186949 0.907535 0.274399
0.286226 0.907506 0.274456
0.404753 0.907454 0.274576
0.528764 0.907383 0.274781
0.654607 0.907308 0.275094
0.781040 0.907244 0.275542
0.907559 0.907213 0.276148
1.033940 0.907230 0.276938
0.172119 1.033757 0.278580
0.204015 1.033751 0.278594
0.295449 1.033726 0.278654
0.409854 1.033679 0.278779
0.531655 1.033613 0.278989
0.656189 1.033537 0.279305
0.781796 1.033462 0.279749
0.907774 1.033401 0.280345
1.033792 1.033371 0.281114
0.067223 0.122497 0.395510
0.124872 0.121150 0.395628
0.260416 0.109186 0.395890
0.395590 0.085122 0.396236
0.525829 0.083357 0.396263
0.654108 0.105109 0.396007
0.781713 0.126770 0.395739
0.908730 0.148377 0.395476
1.035229 0.169938 0.395234
0.076001 0.149130 0.396205
0.133729 0.148731 0.396279
0.265105 0.143962 0.396402
0.397062 0.137850 0.396532
0.526500 0.140011 0.396482
0.654739 0.149325 0.396299
0.782252 0.162375 0.396071
0.909185 0.177735 0.395832
1.035616 0.194626 0.395607
0.046590 0.266483 0.396478
0.137218 0.266463 0.396470
0.266546 0.266435 0.396445
0.396638 0.266547 0.396414
0.526064 0.266960 0.396398
0.654741 0.267805 0.396421
0.782723 0.269182 0.396503
0.910058 0.271527 0.396640
1.036633 0.277261 0.396688
0.062817 0.396430 0.396348
0.140882 0.396413 0.396345
0.267099 0.396362 0.396334
0.396327 0.396327 0.396327
0.525482 0.396390 0.396340
0.654081 0.396639 0.396396
0.782065 0.397147 0.396512
0.909469 0.397975 0.396709
1.036349 0.399165 0.397004
0.082749 0.525352 0.396447
0.147916 0.525339 0.396447
0.269137 0.525293 0.396448
0.396751 0.525230 0.396461
0.525233 0.525194 0.396499
0.653530 0.525239 0.396583
0.781387 0.525415 0.396731
0.908750 0.525768 0.396960
1.035631 0.526338 0.397288
0.104198 0.653423 0.396907
0.158205 0.653412 0.396909
0.272942 0.653373 0.396920
0.398199 0.653308 0.396948
0.525582 0.653243 0.397008
0.653320 0.653208 0.397116
0.780883 0.653241 0.397289
0.908095 0.653374 0.397545
1.034904 0.653641 0.397898
0.126472 0.780779 0.397829
0.171353 0.780770 0.397833
0.278601 0.780737 0.397851
0.400803 0.780678 0.397892
0.526692 0.780606 0.397969
0.653611 0.780542 0.398096
0.780701 0.780509 0.398289
0.907636 0.780534 0.398564
1.034281 0.780641 0.398936
0.149041 0.907527 0.399284
0.186700 0.907520 0.399290
0.286068 0.907491 0.399313
0.404635 0.907438 0.399364
0.528661 0.907369 0.399454
0.654512 0.907295 0.399595
0.780951 0.907233 0.399803
0.907475 0.907201 0.400092
1.033860 0.907220 0.400478
0.171780 1.033742 0.401322
0.203740 1.033736 0.401329
0.295271 1.033712 0.401356
0.409725 1.033666 0.401415
0.531549 1.033601 0.401514
0.656096 1.033525 0.401667
0.781710 1.033450 0.401886
0.907694 1.033391 0.402185
1.033716 1.033360 0.402579
0.089428 0.159894 0.524194
0.134046 0.159308 0.524269
0.251493 0.153970 0.524485
0.390782 0.138164 0.524739
0.524287 0.112961 0.525090
0.654104 0.103599 0.525204
0.781667 0.125529 0.524956
0.908663 0.147334 0.524695
1.035152 0.169048 0.524432
0.096710 0.178622 0.524667
0.140094 0.178247 0.524732
0.257513 0.174278 0.524902
0.393544 0.163891 0.525099
0.525549 0.150597 0.525345
0.654697 0.148938 0.525375
0.782187 0.161812 0.525158
0.909108 0.177119 0.524917
1.035532 0.194014 0.524667
0.087180 0.266146 0.525517
0.143134 0.266393 0.525528
0.267043 0.266507 0.525509
0.396749 0.266633 0.525467
0.526036 0.267055 0.525421
0.654655 0.267904 0.525385
0.782611 0.269280 0.525374
0.909942 0.271566 0.525386
1.036526 0.277178 0.525326
0.067046 0.396425 0.525337
0.142186 0.396410 0.525332
0.267468 0.396365 0.525315
0.396410 0.396338 0.525288
0.525450 0.396409 0.525263
0.653997 0.396664 0.525251
0.781957 0.397176 0.525266
0.909353 0.398006 0.525319
1.036230 0.399198 0.525424
0.084584 0.525333 0.525218
0.148676 0.525321 0.525216
0.269365 0.525278 0.525207
0.396792 0.525219 0.525195
0.525188 0.525188 0.525188
0.653444 0.525237 0.525199
0.781282 0.525417 0.525238
0.908638 0.525773 0.525319
1.035517 0.526345 0.525451
0.104905 0.653401 0.525284
0.158565 0.653391 0.525283
0.273044 0.653352 0.525281
0.398192 0.653290 0.525281
0.525521 0.653228 0.525292
0.653230 0.653196 0.525322
0.780779 0.653231 0.525384
0.907986 0.653368 0.525488
1.034793 0.653636 0.525645
0.126629 0.780757 0.525612
0.171432 0.780749 0.525612
0.278596 0.780716 0.525616
0.400751 0.780658 0.525627
0.526612 0.780589 0.525652
0.653516 0.780526 0.525699
0.780598 0.780495 0.525780
0.907529 0.780522 0.525905
1.034175 0.780631 0.526084
0.148920 0.907506 0.526266
0.186598 0.907499 0.526268
0.285979 0.907471 0.526276
0.404544 0.907419 0.526296
0.528565 0.907351 0.526333
0.654411 0.907278 0.526395
0.780846 0.907217 0.526492
0.907370 0.907187 0.526634
1.033756 0.907208 0.526830
0.171520 1.033723 0.527296
0.203530 1.033717 0.527299
0.295124 1.033693 0.527311
0.409604 1.033647 0.527338
0.531438 1.033583 0.527385
0.655990 1.033508 0.527459
0.781606 1.033434 0.527570
0.907590 1.033376 0.527726
1.033615 1.033348 0.527937
0.111573 0.198993 0.651991
0.146865 0.198598 0.652046
0.245802 0.195813 0.652242
0.383721 0.185082 0.652456
0.519796 0.166704 0.652742
0.652176 0.140790 0.653096
0.781679 0.123970 0.653292
0.908631 0.145997 0.653049
1.035093 0.167891 0.652793
0.117328 0.212589 0.652346
0.151732 0.212283 0.652397
0.250431 0.209961 0.652574
0.386999 0.201117 0.652759
0.521632 0.186992 0.653006
0.653172 0.169355 0.653297
0.782172 0.161159 0.653426
0.909060 0.176357 0.653199
1.035466 0.193234 0.652953
0.126735 0.273270 0.653429
0.162155 0.273312 0.653458
0.264937 0.272745 0.653536
0.395999 0.270301 0.653579
0.525960 0.268062 0.653610
0.654634 0.268089 0.653580
0.782532 0.269463 0.653530
0.909841 0.271673 0.653491
1.036423 0.277111 0.653390
0.080136 0.396403 0.653540
0.144965 0.396431 0.653539
0.268307 0.396399 0.653520
0.396721 0.396382 0.653488
0.525538 0.396463 0.653448
0.653976 0.396725 0.653409
0.781881 0.397242 0.653379
0.909248 0.398075 0.653368
1.036111 0.399268 0.653384
0.088551 0.525326 0.653341
0.150437 0.525315 0.653338
0.270000 0.525275 0.653325
0.397037 0.525222 0.653303
0.525253 0.525197 0.653278
0.653417 0.525252 0.653256
0.781206 0.525436 0.653246
0.908536 0.525797 0.653256
1.035401 0.526371 0.653295
0.106990 0.653382 0.653230
0.159694 0.653372 0.653228
0.273483 0.653336 0.653221
0.398357 0.653277 0.653209
0.525553 0.653218 0.653197
0.653191 0.653191 0.653191
0.780701 0.653230 0.653199
0.907885 0.653370 0.653230
1.034680 0.653641 0.653290
0.127645 0.780734 0.653274
0.172069 0.780726 0.653273
0.278853 0.780695 0.653270
0.400838 0.780639 0.653266
0.526610 0.780572 0.653266
0.653462 0.780512 0.653275
0.780514 0.780484 0.653299
0.907427 0.780513 0.653348
1.034063 0.780625 0.653428
0.149334 0.907482 0.653523
0.186880 0.907475 0.653523
0.286091 0.907448 0.653524
0.404561 0.907398 0.653528
0.528528 0.907331 0.653538
0.654341 0.907260 0.653559
0.780757 0.907201 0.653599
0.907268 0.907174 0.653663
1.033647 0.907196 0.653760
0.171593 1.033700 0.654023
0.203569 1.033695 0.654024
0.295117 1.033670 0.654028
0.409561 1.033626 0.654038
0.531371 1.033562 0.654057
0.655903 1.033489 0.654089
0.781508 1.033417 0.654142
0.907486 1.033361 0.654221
1.033506 1.033333 0.654332
0.133795 0.237945 0.779079
0.162405 0.237652 0.779122
0.248322 0.235885 0.779287
0.374288 0.229146 0.779505
0.513634 0.215002 0.779733
0.647877 0.194920 0.780037
0.779363 0.168641 0.780390
0.908656 0.144419 0.780669
1.035074 0.166499 0.780429
0.138404 0.248426 0.779356
0.166437 0.248177 0.779397
0.251883 0.246624 0.779553
0.377889 0.240540 0.779752
0.515747 0.228288 0.779962
0.649197 0.211542 0.780238
0.780159 0.191206 0.780551
0.909066 0.175500 0.780775
1.035433 0.192320 0.780544
0.150750 0.294190 0.780344
0.178156 0.294118 0.780375
0.264130 0.293404 0.780487
0.390113 0.289923 0.780600
0.522752 0.284044 0.780718
0.653264 0.277451 0.780853
0.782207 0.272254 0.780959
0.909777 0.271879 0.780960
1.036346 0.277086 0.780846
0.130636 0.395938 0.781018
0.167727 0.396101 0.781026
0.270049 0.396462 0.781035
0.397338 0.396472 0.781003
0.525800 0.396564 0.780958
0.654059 0.396835 0.780908
0.781867 0.397359 0.780858
0.909180 0.398195 0.780816
1.036012 0.399388 0.780787
0.094848 0.525338 0.780825
0.153446 0.525328 0.780822
0.271173 0.525292 0.780808
0.397564 0.525246 0.780783
0.525480 0.525229 0.780749
0.653488 0.525291 0.780712
0.781190 0.525481 0.780679
0.908469 0.525846 0.780653
1.035305 0.526424 0.780644
0.110825 0.653372 0.780632
0.161857 0.653363 0.780629
0.274393 0.653329 0.780620
0.398775 0.653274 0.780602
0.525734 0.653220 0.780579
0.653243 0.653198 0.780556
0.780677 0.653242 0.780537
0.907817 0.653386 0.780528
1.034585 0.653660 0.780536
0.129884 0.780715 0.780528
0.173513 0.780708 0.780526
0.279511 0.780677 0.780520
0.401145 0.780624 0.780510
0.526739 0.780560 0.780497
0.653489 0.780504 0.780485
0.780479 0.780479 0.780479
0.907355 0.780512 0.780487
1.033967 0.780626 0.780511
0.150590 0.907460 0.780556
0.187774 0.907453 0.780555
0.286527 0.907426 0.780553
0.404763 0.907378 0.780548
0.528604 0.907313 0.780543
0.654340 0.907245 0.780542
0.780709 0.907188 0.780550
0.907190 0.907163 0.780571
1.033549 0.907188 0.780611
0.172236 1.033676 0.780755
0.204061 1.033671 0.780755
0.295367 1.033648 0.780754
0.409669 1.033603 0.780755
0.531395 1.033541 0.780758
0.655877 1.033470 0.780766
0.781446 1.033400 0.780786
0.907400 1.033345 0.780820
1.033406 1.033320 0.780874
0.156070 0.276774 0.905563
0.179745 0.276543 0.905598
0.255401 0.275285 0.905736
0.366983 0.271115 0.905955
0.505795 0.260314 0.906157
0.642241 0.244216 0.906410
0.775195 0.222952 0.906726
0.905952 0.196475 0.907079
1.035056 0.166238 0.907425
0.159838 0.285187 0.905787
0.183141 0.284981 0.905821
0.258321 0.283836 0.905954
0.369950 0.279957 0.906162
0.508086 0.270016 0.906352
0.643738 0.255536 0.906591
0.776198 0.236919 0.906886
0.906603 0.214847 0.907210
1.035423 0.191944 0.907517
0.171883 0.321572 0.906641
0.194405 0.321466 0.906669
0.268910 0.320778 0.906780
0.381454 0.318049 0.906937
0.516518 0.311392 0.907070
0.649143 0.302584 0.907240
0.779671 0.292540 0.907436
0.908658 0.282972 0.907623
1.036310 0.277132 0.907738
0.174565 0.399927 0.907711
0.199125 0.400007 0.907727
0.279032 0.400163 0.907778
0.396732 0.399536 0.907815
0.525731 0.398224 0.907820
0.654198 0.397313 0.907807
0.781943 0.397538 0.907760
0.909171 0.398377 0.907702
1.035951 0.399570 0.907650
0.122207 0.525210 0.907716
0.165128 0.525262 0.907718
0.272986 0.525338 0.907713
0.398442 0.525300 0.907687
0.525920 0.525292 0.907650
0.653694 0.525362 0.907607
0.781261 0.525560 0.907561
0.908459 0.525930 0.907518
1.035245 0.526512 0.907481
0.116560 0.653376 0.907498
0.165233 0.653368 0.907496
0.275883 0.653337 0.907485
0.399517 0.653287 0.907465
0.526113 0.653239 0.907437
0.653422 0.653223 0.907404
0.780737 0.653272 0.907371
0.907804 0.653421 0.907341
1.034526 0.653700 0.907319
0.133595 0.780704 0.907315
0.175966 0.780697 0.907314
0.280679 0.780668 0.907306
0.401743 0.780618 0.907291
0.527048 0.780558 0.907271
0.653633 0.780505 0.907249
0.780523 0.780485 0.907227
0.907335 0.780522 0.907210
1.033906 0.780640 0.907203
0.152940 0.907440 0.907217
0.189476 0.907434 0.907215
0.287401 0.907409 0.907210
0.405222 0.907362 0.907201
0.528841 0.907300 0.907188
0.654446 0.907234 0.907175
0.780732 0.907181 0.907164
0.907159 0.907159 0.907159
1.033483 0.907188 0.907165
0.173685 1.033654 0.907234
0.205186 1.033648 0.907233
0.295985 1.033626 0.907231
0.409998 1.033583 0.907226
0.531560 1.033523 0.907219
0.655943 1.033453 0.907214
0.781448 1.033385 0.907213
0.907358 1.033333 0.907220
1.033334 1.033310 0.907238
0.178361 0.315484 1.031519
0.198310 0.315296 1.031548
0.265452 0.314332 1.031665
0.366299 0.311467 1.031867
0.496165 0.303848 1.032079
0.635299 0.290547 1.032291
0.769910 0.272975 1.032563
0.901879 0.250864 1.032885
1.032018 0.224293 1.033237
0.181508 0.322438 1.031705
0.201212 0.322265 1.031733
0.267943 0.321368 1.031847
0.368710 0.318661 1.032043
0.498598 0.311413 1.032245
0.636912 0.299003 1.032449
0.771036 0.282807 1.032710
0.902674 0.262827 1.033016
1.032561 0.239611 1.033347
0.192516 0.352380 1.032439
0.211563 0.352268 1.032464
0.277299 0.351643 1.032565
0.378221 0.349575 1.032732
0.507977 0.343850 1.032890
0.643111 0.334798 1.033055
0.775304 0.323580 1.033262
0.905600 0.310841 1.033495
1.034458 0.297953 1.033728
0.202601 0.415362 1.033566
0.221936 0.415364 1.033584
0.289147 0.415253 1.033653
0.392852 0.414372 1.033751
0.521506 0.411534 1.033818
0.651756 0.407794 1.033887
0.780817 0.403945 1.033959
0.908847 0.400912 1.034010
1.035925 0.399960 1.034009
0.174344 0.524691 1.034062
0.200637 0.524803 1.034067
0.283363 0.525173 1.034082
0.399725 0.525391 1.034073
0.526613 0.525393 1.034036
0.654067 0.525473 1.033990
0.781446 0.525679 1.033939
0.908528 0.526055 1.033885
1.035240 0.526642 1.033833
0.126234 0.653385 1.033866
0.170351 0.653389 1.033864
0.278040 0.653366 1.033853
0.400641 0.653322 1.033833
0.526734 0.653280 1.033803
0.653760 0.653271 1.033766
0.780907 0.653327 1.033725
0.907866 0.653481 1.033682
1.034519 0.653765 1.033644
0.138894 0.780704 1.033642
0.179562 0.780698 1.033640
0.282455 0.780671 1.033631
0.402695 0.780624 1.033614
0.527582 0.780568 1.033592
0.653929 0.780521 1.033562
0.780671 0.780506 1.033531
0.907387 0.780547 1.033500
1.033895 0.780669 1.033473
0.156563 0.907428 1.033468
0.192140 0.907422 1.033466
0.288815 0.907398 1.033460
0.406001 0.907353 1.033448
0.529284 0.907294 1.033431
0.654693 0.907231 1.033409
0.780852 0.907182 1.033388
0.907197 0.907164 1.033368
1.033465 0.907195 1.033353
0.176122 1.033635 1.033374
0.207098 1.033629 1.033373
0.297074 1.033607 1.033368
0.410614 1.033566 1.033360
0.531914 1.033508 1.033348
0.656135 1.033441 1.033334
0.781538 1.033376 1.033321
0.907379 1.033326 1.033311
1.033306 1.033306 1.033306
