data/manual_verify/canoncgt_candidates/safe/candidate_a.cube
# Generated by Local Color Service V0.2.0 using OpenColorIO Baker
# Recipe Hash: 54b3eb7b624b5970e3b2d6a1cb3edbba29a2e18d1fb2bcef2720fbad1d8df14a
# OCIO Config: studio-config-v4.0.0_aces-v2.0_ocio-v2.5
LUT_3D_SIZE 5
0.068168 0.068169 0.068169
0.264801 0.067336 0.076997
0.525632 0.085245 0.102368
0.781410 0.127506 0.151342
1.034768 0.169995 0.200803
0.038998 0.266489 0.055649
0.266414 0.266418 0.052063
0.526116 0.266873 0.084292
0.782570 0.268933 0.143333
1.036262 0.276965 0.196983
0.082834 0.525391 0.060021
0.269287 0.525328 0.060709
0.525425 0.525220 0.064036
0.781471 0.525409 0.101611
1.035476 0.526242 0.167045
0.127120 0.780810 0.091456
0.278872 0.780767 0.091851
0.526880 0.780633 0.093678
0.780865 0.780531 0.097742
1.034370 0.780647 0.122162
0.172416 1.033766 0.123853
0.295600 1.033735 0.124119
0.531737 1.033623 0.125324
0.781859 1.033470 0.127956
1.033845 1.033378 0.132441
0.068083 0.094086 0.265476
0.264699 0.072793 0.266101
0.525852 0.084741 0.266009
0.781783 0.127636 0.265490
1.035195 0.170373 0.274928
0.041855 0.266481 0.266431
0.266418 0.266418 0.266418
0.526156 0.266926 0.266533
0.782833 0.269143 0.267090
1.036644 0.277270 0.275347
0.082410 0.525372 0.267342
0.269156 0.525311 0.267381
0.525324 0.525207 0.267624
0.781487 0.525422 0.268321
1.035711 0.526336 0.271021
0.126741 0.780797 0.271144
0.278726 0.780754 0.271208
0.526791 0.780621 0.271515
0.780793 0.780521 0.272267
1.034366 0.780650 0.273679
0.172119 1.033757 0.278580
0.295449 1.033726 0.278654
0.531655 1.033613 0.278989
0.781796 1.033462 0.279749
1.033792 1.033371 0.281114
0.089428 0.159894 0.524194
0.251493 0.153970 0.524485
0.524287 0.112961 0.525090
0.781667 0.125529 0.524956
1.035152 0.169048 0.524432
0.087180 0.266146 0.525517
0.267043 0.266507 0.525509
0.526036 0.267055 0.525421
0.782611 0.269280 0.525374
1.036526 0.277178 0.525326
0.084584 0.525333 0.525218
0.269365 0.525278 0.525207
0.525188 0.525188 0.525188
0.781282 0.525417 0.525238
1.035517 0.526345 0.525451
0.126629 0.780757 0.525612
0.278596 0.780716 0.525616
0.526612 0.780589 0.525652
0.780598 0.780495 0.525780
1.034175 0.780631 0.526084
0.171520 1.033723 0.527296
0.295124 1.033693 0.527311
0.531438 1.033583 0.527385
0.781606 1.033434 0.527570
1.033615 1.033348 0.527937
0.133795 0.237945 0.779079
0.248322 0.235885 0.779287
0.513634 0.215002 0.779733
0.779363 0.168641 0.780390
1.035074 0.166499 0.780429
0.150750 0.294190 0.780344
0.264130 0.293404 0.780487
0.522752 0.284044 0.780718
0.782207 0.272254 0.780959
1.036346 0.277086 0.780846
0.094848 0.525338 0.780825
0.271173 0.525292 0.780808
0.525480 0.525229 0.780749
0.781190 0.525481 0.780679
1.035305 0.526424 0.780644
0.129884 0.780715 0.780528
0.279511 0.780677 0.780520
0.526739 0.780560 0.780497
0.780479 0.780479 0.780479
1.033967 0.780626 0.780511
0.172236 1.033676 0.780755
0.295367 1.033648 0.780754
0.531395 1.033541 0.780758
0.781446 1.033400 0.780786
1.033406 1.033320 0.780874
0.178361 0.315484 1.031519
0.265452 0.314332 1.031665
0.496165 0.303848 1.032079
0.769910 0.272975 1.032563
1.032018 0.224293 1.033237
0.192516 0.352380 1.032439
0.277299 0.351643 1.032565
0.507977 0.343850 1.032890
0.775304 0.323580 1.033262
1.034458 0.297953 1.033728
0.174344 0.524691 1.034062
0.283363 0.525173 1.034082
0.526613 0.525393 1.034036
0.781446 0.525679 1.033939
1.035240 0.526642 1.033833
0.138894 0.780704 1.033642
0.282455 0.780671 1.033631
0.527582 0.780568 1.033592
0.780671 0.780506 1.033531
1.033895 0.780669 1.033473
0.176122 1.033635 1.033374
0.297074 1.033607 1.033368
0.531914 1.033508 1.033348
0.781538 1.033376 1.033321
1.033306 1.033306 1.033306
