data/selective_smoke/full.cube
TITLE "warm"
LUT_3D_SIZE 5
DOMAIN_MIN 0.0 0.0 0.0
DOMAIN_MAX 1.0 1.0 1.0
0.00000000 0.00000000 0.00000000
0.26000000 0.00000000 0.00000000
0.52000000 0.00000000 0.00000000
0.78000000 0.00000000 0.00000000
1.00000000 0.00000000 0.00000000
0.00000000 0.25000000 0.00000000
0.26000000 0.25000000 0.00000000
0.52000000 0.25000000 0.00000000
0.78000000 0.25000000 0.00000000
1.00000000 0.25000000 0.00000000
0.00000000 0.50000000 0.00000000
0.26000000 0.50000000 0.00000000
0.52000000 0.50000000 0.00000000
0.78000000 0.50000000 0.00000000
1.00000000 0.50000000 0.00000000
0.00000000 0.75000000 0.00000000
0.26000000 0.75000000 0.00000000
0.52000000 0.75000000 0.00000000
0.78000000 0.75000000 0.00000000
1.00000000 0.75000000 0.00000000
0.00000000 1.00000000 0.00000000
0.26000000 1.00000000 0.00000000
0.52000000 1.00000000 0.00000000
0.78000000 1.00000000 0.00000000
1.00000000 1.00000000 0.00000000
0.00000000 0.00000000 0.24000000
0.26000000 0.00000000 0.24000000
0.52000000 0.00000000 0.24000000
0.78000000 0.00000000 0.24000000
1.00000000 0.00000000 0.24000000
0.00000000 0.25000000 0.24000000
0.26000000 0.25000000 0.24000000
0.52000000 0.25000000 0.24000000
0.78000000 0.25000000 0.24000000
1.00000000 0.25000000 0.24000000
0.00000000 0.50000000 0.24000000
0.26000000 0.50000000 0.24000000
0.52000000 0.50000000 0.24000000
0.78000000 0.50000000 0.24000000
1.00000000 0.50000000 0.24000000
0.00000000 0.75000000 0.24000000
0.26000000 0.75000000 0.24000000
0.52000000 0.75000000 0.24000000
0.78000000 0.75000000 0.24000000
1.00000000 0.75000000 0.24000000
0.00000000 1.00000000 0.24000000
0.26000000 1.00000000 0.24000000
0.52000000 1.00000000 0.24000000
0.78000000 1.00000000 0.24000000
1.00000000 1.00000000 0.24000000
0.00000000 0.00000000 0.48000000
0.26000000 0.00000000 0.48000000
0.52000000 0.00000000 0.48000000
0.78000000 0.00000000 0.48000000
1.00000000 0.00000000 0.48000000
0.00000000 0.25000000 0.48000000
0.26000000 0.25000000 0.48000000
0.52000000 0.25000000 0.48000000
0.78000000 0.25000000 0.48000000
1.00000000 0.25000000 0.48000000
0.00000000 0.50000000 0.48000000
0.26000000 0.50000000 0.48000000
0.52000000 0.50000000 0.48000000
0.78000000 0.50000000 0.48000000
1.00000000 0.50000000 0.48000000
0.00000000 0.75000000 0.48000000
0.26000000 0.75000000 0.48000000
0.52000000 0.75000000 0.48000000
0.78000000 0.75000000 0.48000000
1.00000000 0.75000000 0.48000000
0.00000000 1.00000000 0.48000000
0.26000000 1.00000000 0.48000000
0.52000000 1.00000000 0.48000000
0.78000000 1.00000000 0.48000000
1.00000000 1.00000000 0.48000000
0.00000000 0.00000000 0.72000000
0.26000000 0.00000000 0.72000000
0.52000000 0.00000000 0.72000000
0.78000000 0.00000000 0.72000000
1.00000000 0.00000000 0.72000000
0.00000000 0.25000000 0.72000000
0.26000000 0.25000000 0.72000000
0.52000000 0.25000000 0.72000000
0.78000000 0.25000000 0.72000000
1.00000000 0.25000000 0.72000000
0.00000000 0.50000000 0.72000000
0.26000000 0.50000000 0.72000000
0.52000000 0.50000000 0.72000000
0.78000000 0.50000000 0.72000000
1.00000000 0.50000000 0.72000000
0.00000000 0.75000000 0.72000000
0.26000000 0.75000000 0.72000000
0.52000000 0.75000000 0.72000000
0.78000000 0.75000000 0.72000000
1.00000000 0.75000000 0.72000000
0.00000000 1.00000000 0.72000000
0.26000000 1.00000000 0.72000000
0.52000000 1.00000000 0.72000000
0.78000000 1.00000000 0.72000000
1.00000000 1.00000000 0.72000000
0.00000000 0.00000000 0.96000000
0.26000000 0.00000000 0.96000000
0.52000000 0.00000000 0.96000000
0.78000000 0.00000000 0.96000000
1.00000000 0.00000000 0.96000000
0.00000000 0.25000000 0.96000000
0.26000000 0.25000000 0.96000000
0.52000000 0.25000000 0.96000000
0.78000000 0.25000000 0.96000000
1.00000000 0.25000000 0.96000000
0.00000000 0.50000000 0.96000000
0.26000000 0.50000000 0.96000000
0.52000000 0.50000000 0.96000000
0.78000000 0.50000000 0.96000000
1.00000000 0.50000000 0.96000000
0.00000000 0.75000000 0.96000000
0.26000000 0.75000000 0.96000000
0.52000000 0.75000000 0.96000000
0.78000000 0.75000000 0.96000000
1.00000000 0.75000000 0.96000000
0.00000000 1.00000000 0.96000000
0.26000000 1.00000000 0.96000000
0.52000000 1.00000000 0.96000000
0.78000000 1.00000000 0.96000000
1.00000000 1.00000000 0.96000000
