data/selective_smoke/full.cube
TITLE "warm"
LUT_3D_SIZE 33
DOMAIN_MIN 0.0 0.0 0.0
DOMAIN_MAX 1.0 1.0 1.0
0.00000000 0.00000000 0.00000000
0.03250000 0.00000000 0.00000000
0.06500000 0.00000000 0.00000000
0.09750000 0.00000000 0.00000000
0.13000000 0.00000000 0.00000000
0.16250000 0.00000000 0.00000000
0.19500000 0.00000000 0.00000000
0.22750000 0.00000000 0.00000000
0.26000000 0.00000000 0.00000000
0.29250000 0.00000000 0.00000000
0.32500000 0.00000000 0.00000000
0.35750000 0.00000000 0.00000000
0.39000000 0.00000000 0.00000000
0.42250000 0.00000000 0.00000000
0.45500000 0.00000000 0.00000000
0.48750000 0.00000000 0.00000000
0.52000000 0.00000000 0.00000000
0.55250000 0.00000000 0.00000000
0.58500000 0.00000000 0.00000000
0.61750000 0.00000000 0.00000000
0.65000000 0.00000000 0.00000000
0.68250000 0.00000000 0.00000000
0.71500000 0.00000000 0.00000000
0.74750000 0.00000000 0.00000000
0.78000000 0.00000000 0.00000000
0.81250000 0.00000000 0.00000000
0.84500000 0.00000000 0.00000000
0.87750000 0.00000000 0.00000000
0.91000000 0.00000000 0.00000000
0.94250000 0.00000000 0.00000000
0.97500000 0.00000000 0.00000000
1.00000000 0.00000000 0.00000000
1.00000000 0.00000000 0.00000000
0.00000000 0.03125000 0.00000000
0.03250000 0.03125000 0.00000000
0.06500000 0.03125000 0.00000000
0.09750000 0.03125000 0.00000000
0.13000000 0.03125000 0.00000000
0.16250000 0.03125000 0.00000000
0.19500000 0.03125000 0.00000000
0.22750000 0.03125000 0.00000000
0.26000000 0.03125000 0.00000000
0.29250000 0.03125000 0.00000000
0.32500000 0.03125000 0.00000000
0.35750000 0.03125000 0.00000000
0.39000000 0.03125000 0.00000000
0.42250000 0.03125000 0.00000000
0.45500000 0.03125000 0.00000000
0.48750000 0.03125000 0.00000000
0.52000000 0.03125000 0.00000000
0.55250000 0.03125000 0.00000000
0.58500000 0.03125000 0.00000000
0.61750000 0.03125000 0.00000000
0.65000000 0.03125000 0.00000000
0.68250000 0.03125000 0.00000000
0.71500000 0.03125000 0.00000000
0.74750000 0.03125000 0.00000000
0.78000000 0.03125000 0.00000000
0.81250000 0.03125000 0.00000000
0.84500000 0.03125000 0.00000000
0.87750000 0.03125000 0.00000000
0.91000000 0.03125000 0.00000000
0.94250000 0.03125000 0.00000000
0.97500000 0.03125000 0.00000000
1.00000000 0.03125000 0.00000000
1.00000000 0.03125000 0.00000000
0.00000000 0.06250000 0.00000000
0.03250000 0.06250000 0.00000000
0.06500000 0.06250000 0.00000000
0.09750000 0.06250000 0.00000000
0.13000000 0.06250000 0.00000000
0.16250000 0.06250000 0.00000000
0.19500000 0.06250000 0.00000000
0.22750000 0.06250000 0.00000000
0.26000000 0.06250000 0.00000000
0.29250000 0.06250000 0.00000000
0.32500000 0.06250000 0.00000000
0.35750000 0.06250000 0.00000000
0.39000000 0.06250000 0.00000000
0.42250000 0.06250000 0.00000000
0.45500000 0.06250000 0.00000000
0.48750000 0.06250000 0.00000000
0.52000000 0.06250000 0.00000000
0.55250000 0.06250000 0.00000000
0.58500000 0.06250000 0.00000000
0.61750000 0.06250000 0.00000000
0.65000000 0.06250000 0.00000000
0.68250000 0.06250000 0.00000000
0.71500000 0.06250000 0.00000000
0.74750000 0.06250000 0.00000000
0.78000000 0.06250000 0.00000000
0.81250000 0.06250000 0.00000000
0.84500000 0.06250000 0.00000000
0.87750000 0.06250000 0.00000000
0.91000000 0.06250000 0.00000000
0.94250000 0.06250000 0.00000000
0.97500000 0.06250000 0.00000000
1.00000000 0.06250000 0.00000000
1.00000000 0.06250000 0.00000000
0.00000000 0.09375000 0.00000000
0.03250000 0.09375000 0.00000000
0.06500000 0.09375000 0.00000000
0.09750000 0.09375000 0.00000000
0.13000000 0.09375000 0.00000000
0.16250000 0.09375000 0.00000000
0.19500000 0.09375000 0.00000000
0.22750000 0.09375000 0.00000000
0.26000000 0.09375000 0.00000000
0.29250000 0.09375000 0.00000000
0.32500000 0.09375000 0.00000000
0.35750000 0.09375000 0.00000000
0.39000000 0.09375000 0.00000000
0.42250000 0.09375000 0.00000000
0.45500000 0.09375000 0.00000000
0.48750000 0.09375000 0.00000000
0.52000000 0.09375000 0.00000000
0.55250000 0.09375000 0.00000000
0.58500000 0.09375000 0.00000000
0.61750000 0.09375000 0.00000000
0.65000000 0.09375000 0.00000000
0.68250000 0.09375000 0.00000000
0.71500000 0.09375000 0.00000000
0.74750000 0.09375000 0.00000000
0.78000000 0.09375000 0.00000000
0.81250000 0.09375000 0.00000000
0.84500000 0.09375000 0.00000000
0.87750000 0.09375000 0.00000000
0.91000000 0.09375000 0.00000000
0.94250000 0.09375000 0.00000000
0.97500000 0.09375000 0.00000000
1.00000000 0.09375000 0.00000000
1.00000000 0.09375000 0.00000000
0.00000000 0.12500000 0.00000000
0.03250000 0.12500000 0.00000000
0.06500000 0.12500000 0.00000000
0.09750000 0.12500000 0.00000000
0.13000000 0.12500000 0.00000000
0.16250000 0.12500000 0.00000000
0.19500000 0.12500000 0.00000000
0.22750000 0.12500000 0.00000000
0.26000000 0.12500000 0.00000000
0.29250000 0.12500000 0.00000000
0.32500000 0.12500000 0.00000000
0.35750000 0.12500000 0.00000000
0.39000000 0.12500000 0.00000000
0.42250000 0.12500000 0.00000000
0.45500000 0.12500000 0.00000000
0.48750000 0.12500000 0.00000000
0.52000000 0.12500000 0.00000000
0.55250000 0.12500000 0.00000000
0.58500000 0.12500000 0.00000000
0.61750000 0.12500000 0.00000000
0.65000000 0.12500000 0.00000000
0.68250000 0.12500000 0.00000000
0.71500000 0.12500000 0.00000000
0.74750000 0.12500000 0.00000000
0.78000000 0.12500000 0.00000000
0.81250000 0.12500000 0.00000000
0.84500000 0.12500000 0.00000000
0.87750000 0.12500000 0.00000000
0.91000000 0.12500000 0.00000000
0.94250000 0.12500000 0.00000000
0.97500000 0.12500000 0.00000000
1.00000000 0.12500000 0.00000000
1.00000000 0.12500000 0.00000000
0.00000000 0.15625000 0.00000000
0.03250000 0.15625000 0.00000000
0.06500000 0.15625000 0.00000000
0.09750000 0.15625000 0.00000000
0.13000000 0.15625000 0.00000000
0.16250000 0.15625000 0.00000000
0.19500000 0.15625000 0.00000000
0.22750000 0.15625000 0.00000000
0.26000000 0.15625000 0.00000000
0.29250000 0.15625000 0.00000000
0.32500000 0.15625000 0.00000000
0.35750000 0.15625000 0.00000000
0.39000000 0.15625000 0.00000000
0.42250000 0.15625000 0.00000000
0.45500000 0.15625000 0.00000000
0.48750000 0.15625000 0.00000000
0.52000000 0.15625000 0.00000000
0.55250000 0.15625000 0.00000000
0.58500000 0.15625000 0.00000000
0.61750000 0.15625000 0.00000000
0.65000000 0.15625000 0.00000000
0.68250000 0.15625000 0.00000000
0.71500000 0.15625000 0.00000000
0.74750000 0.15625000 0.00000000
0.78000000 0.15625000 0.00000000
0.81250000 0.15625000 0.00000000
0.84500000 0.15625000 0.00000000
0.87750000 0.15625000 0.00000000
0.91000000 0.15625000 0.00000000
0.94250000 0.15625000 0.00000000
0.97500000 0.15625000 0.00000000
1.00000000 0.15625000 0.00000000
1.00000000 0.15625000 0.00000000
0.00000000 0.18750000 0.00000000
0.03250000 0.18750000 0.00000000
0.06500000 0.18750000 0.00000000
0.09750000 0.18750000 0.00000000
0.13000000 0.18750000 0.00000000
0.16250000 0.18750000 0.00000000
0.19500000 0.18750000 0.00000000
0.22750000 0.18750000 0.00000000
0.26000000 0.18750000 0.00000000
0.29250000 0.18750000 0.00000000
0.32500000 0.18750000 0.00000000
0.35750000 0.18750000 0.00000000
0.39000000 0.18750000 0.00000000
0.42250000 0.18750000 0.00000000
0.45500000 0.18750000 0.00000000
0.48750000 0.18750000 0.00000000
0.52000000 0.18750000 0.00000000
0.55250000 0.18750000 0.00000000
0.58500000 0.18750000 0.00000000
0.61750000 0.18750000 0.00000000
0.65000000 0.18750000 0.00000000
0.68250000 0.18750000 0.00000000
0.71500000 0.18750000 0.00000000
0.74750000 0.18750000 0.00000000
0.78000000 0.18750000 0.00000000
0.81250000 0.18750000 0.00000000
0.84500000 0.18750000 0.00000000
0.87750000 0.18750000 0.00000000
0.91000000 0.18750000 0.00000000
0.94250000 0.18750000 0.00000000
0.97500000 0.18750000 0.00000000
1.00000000 0.18750000 0.00000000
1.00000000 0.18750000 0.00000000
0.00000000 0.21875000 0.00000000
0.03250000 0.21875000 0.00000000
0.06500000 0.21875000 0.00000000
0.09750000 0.21875000 0.00000000
0.13000000 0.21875000 0.00000000
0.16250000 0.21875000 0.00000000
0.19500000 0.21875000 0.00000000
0.22750000 0.21875000 0.00000000
0.26000000 0.21875000 0.00000000
0.29250000 0.21875000 0.00000000
0.32500000 0.21875000 0.00000000
0.35750000 0.21875000 0.00000000
0.39000000 0.21875000 0.00000000
0.42250000 0.21875000 0.00000000
0.45500000 0.21875000 0.00000000
0.48750000 0.21875000 0.00000000
0.52000000 0.21875000 0.00000000
0.55250000 0.21875000 0.00000000
0.58500000 0.21875000 0.00000000
0.61750000 0.21875000 0.00000000
0.65000000 0.21875000 0.00000000
0.68250000 0.21875000 0.00000000
0.71500000 0.21875000 0.00000000
0.74750000 0.21875000 0.00000000
0.78000000 0.21875000 0.00000000
0.81250000 0.21875000 0.00000000
0.84500000 0.21875000 0.00000000
0.87750000 0.21875000 0.00000000
0.91000000 0.21875000 0.00000000
0.94250000 0.21875000 0.00000000
0.97500000 0.21875000 0.00000000
1.00000000 0.21875000 0.00000000
1.00000000 0.21875000 0.00000000
0.00000000 0.25000000 0.00000000
0.03250000 0.25000000 0.00000000
0.06500000 0.25000000 0.00000000
0.09750000 0.25000000 0.00000000
0.13000000 0.25000000 0.00000000
0.16250000 0.25000000 0.00000000
0.19500000 0.25000000 0.00000000
0.22750000 0.25000000 0.00000000
0.26000000 0.25000000 0.00000000
0.29250000 0.25000000 0.00000000
0.32500000 0.25000000 0.00000000
0.35750000 0.25000000 0.00000000
0.39000000 0.25000000 0.00000000
0.42250000 0.25000000 0.00000000
0.45500000 0.25000000 0.00000000
0.48750000 0.25000000 0.00000000
0.52000000 0.25000000 0.00000000
0.55250000 0.25000000 0.00000000
0.58500000 0.25000000 0.00000000
0.61750000 0.25000000 0.00000000
0.65000000 0.25000000 0.00000000
0.68250000 0.25000000 0.00000000
0.71500000 0.25000000 0.00000000
0.74750000 0.25000000 0.00000000
0.78000000 0.25000000 0.00000000
0.81250000 0.25000000 0.00000000
0.84500000 0.25000000 0.00000000
0.87750000 0.25000000 0.00000000
0.91000000 0.25000000 0.00000000
0.94250000 0.25000000 0.00000000
0.97500000 0.25000000 0.00000000
1.00000000 0.25000000 0.00000000
1.00000000 0.25000000 0.00000000
0.00000000 0.28125000 0.00000000
0.03250000 0.28125000 0.00000000
0.06500000 0.28125000 0.00000000
0.09750000 0.28125000 0.00000000
0.13000000 0.28125000 0.00000000
0.16250000 0.28125000 0.00000000
0.19500000 0.28125000 0.00000000
0.22750000 0.28125000 0.00000000
0.26000000 0.28125000 0.00000000
0.29250000 0.28125000 0.00000000
0.32500000 0.28125000 0.00000000
0.35750000 0.28125000 0.00000000
0.39000000 0.28125000 0.00000000
0.42250000 0.28125000 0.00000000
0.45500000 0.28125000 0.00000000
0.48750000 0.28125000 0.00000000
0.52000000 0.28125000 0.00000000
0.55250000 0.28125000 0.00000000
0.58500000 0.28125000 0.00000000
0.61750000 0.28125000 0.00000000
0.65000000 0.28125000 0.00000000
0.68250000 0.28125000 0.00000000
0.71500000 0.28125000 0.00000000
0.74750000 0.28125000 0.00000000
0.78000000 0.28125000 0.00000000
0.81250000 0.28125000 0.00000000
0.84500000 0.28125000 0.00000000
0.87750000 0.28125000 0.00000000
0.91000000 0.28125000 0.00000000
0.94250000 0.28125000 0.00000000
0.97500000 0.28125000 0.00000000
1.00000000 0.28125000 0.00000000
1.00000000 0.28125000 0.00000000
0.00000000 0.31250000 0.00000000
0.03250000 0.31250000 0.00000000
0.06500000 0.31250000 0.00000000
0.09750000 0.31250000 0.00000000
0.13000000 0.31250000 0.00000000
0.16250000 0.31250000 0.00000000
0.19500000 0.31250000 0.00000000
0.22750000 0.31250000 0.00000000
0.26000000 0.31250000 0.00000000
0.29250000 0.31250000 0.00000000
0.32500000 0.31250000 0.00000000
0.35750000 0.31250000 0.00000000
0.39000000 0.31250000 0.00000000
0.42250000 0.31250000 0.00000000
0.45500000 0.31250000 0.00000000
0.48750000 0.31250000 0.00000000
0.52000000 0.31250000 0.00000000
0.55250000 0.31250000 0.00000000
0.58500000 0.31250000 0.00000000
0.61750000 0.31250000 0.00000000
0.65000000 0.31250000 0.00000000
0.68250000 0.31250000 0.00000000
0.71500000 0.31250000 0.00000000
0.74750000 0.31250000 0.00000000
0.78000000 0.31250000 0.00000000
0.81250000 0.31250000 0.00000000
0.84500000 0.31250000 0.00000000
0.87750000 0.31250000 0.00000000
0.91000000 0.31250000 0.00000000
0.94250000 0.31250000 0.00000000
0.97500000 0.31250000 0.00000000
1.00000000 0.31250000 0.00000000
1.00000000 0.31250000 0.00000000
0.00000000 0.34375000 0.00000000
0.03250000 0.34375000 0.00000000
0.06500000 0.34375000 0.00000000
0.09750000 0.34375000 0.00000000
0.13000000 0.34375000 0.00000000
0.16250000 0.34375000 0.00000000
0.19500000 0.34375000 0.00000000
0.22750000 0.34375000 0.00000000
0.26000000 0.34375000 0.00000000
0.29250000 0.34375000 0.00000000
0.32500000 0.34375000 0.00000000
0.35750000 0.34375000 0.00000000
0.39000000 0.34375000 0.00000000
0.42250000 0.34375000 0.00000000
0.45500000 0.34375000 0.00000000
0.48750000 0.34375000 0.00000000
0.52000000 0.34375000 0.00000000
0.55250000 0.34375000 0.00000000
0.58500000 0.34375000 0.00000000
0.61750000 0.34375000 0.00000000
0.65000000 0.34375000 0.00000000
0.68250000 0.34375000 0.00000000
0.71500000 0.34375000 0.00000000
0.74750000 0.34375000 0.00000000
0.78000000 0.34375000 0.00000000
0.81250000 0.34375000 0.00000000
0.84500000 0.34375000 0.00000000
0.87750000 0.34375000 0.00000000
0.91000000 0.34375000 0.00000000
0.94250000 0.34375000 0.00000000
0.97500000 0.34375000 0.00000000
1.00000000 0.34375000 0.00000000
1.00000000 0.34375000 0.00000000
0.00000000 0.37500000 0.00000000
0.03250000 0.37500000 0.00000000
0.06500000 0.37500000 0.00000000
0.09750000 0.37500000 0.00000000
0.13000000 0.37500000 0.00000000
0.16250000 0.37500000 0.00000000
0.19500000 0.37500000 0.00000000
0.22750000 0.37500000 0.00000000
0.26000000 0.37500000 0.00000000
0.29250000 0.37500000 0.00000000
0.32500000 0.37500000 0.00000000
0.35750000 0.37500000 0.00000000
0.39000000 0.37500000 0.00000000
0.42250000 0.37500000 0.00000000
0.45500000 0.37500000 0.00000000
0.48750000 0.37500000 0.00000000
0.52000000 0.37500000 0.00000000
0.55250000 0.37500000 0.00000000
0.58500000 0.37500000 0.00000000
0.61750000 0.37500000 0.00000000
0.65000000 0.37500000 0.00000000
0.68250000 0.37500000 0.00000000
0.71500000 0.37500000 0.00000000
0.74750000 0.37500000 0.00000000
0.78000000 0.37500000 0.00000000
0.81250000 0.37500000 0.00000000
0.84500000 0.37500000 0.00000000
0.87750000 0.37500000 0.00000000
0.91000000 0.37500000 0.00000000
0.94250000 0.37500000 0.00000000
0.97500000 0.37500000 0.00000000
1.00000000 0.37500000 0.00000000
1.00000000 0.37500000 0.00000000
0.00000000 0.40625000 0.00000000
0.03250000 0.40625000 0.00000000
0.06500000 0.40625000 0.00000000
0.09750000 0.40625000 0.00000000
0.13000000 0.40625000 0.00000000
0.16250000 0.40625000 0.00000000
0.19500000 0.40625000 0.00000000
0.22750000 0.40625000 0.00000000
0.26000000 0.40625000 0.00000000
0.29250000 0.40625000 0.00000000
0.32500000 0.40625000 0.00000000
0.35750000 0.40625000 0.00000000
0.39000000 0.40625000 0.00000000
0.42250000 0.40625000 0.00000000
0.45500000 0.40625000 0.00000000
0.48750000 0.40625000 0.00000000
0.52000000 0.40625000 0.00000000
0.55250000 0.40625000 0.00000000
0.58500000 0.40625000 0.00000000
0.61750000 0.40625000 0.00000000
0.65000000 0.40625000 0.00000000
0.68250000 0.40625000 0.00000000
0.71500000 0.40625000 0.00000000
0.74750000 0.40625000 0.00000000
0.78000000 0.40625000 0.00000000
0.81250000 0.40625000 0.00000000
0.84500000 0.40625000 0.00000000
0.87750000 0.40625000 0.00000000
0.91000000 0.40625000 0.00000000
0.94250000 0.40625000 0.00000000
0.97500000 0.40625000 0.00000000
1.00000000 0.40625000 0.00000000
1.00000000 0.40625000 0.00000000
0.00000000 0.43750000 0.00000000
0.03250000 0.43750000 0.00000000
0.06500000 0.43750000 0.00000000
0.09750000 0.43750000 0.00000000
0.13000000 0.43750000 0.00000000
0.16250000 0.43750000 0.00000000
0.19500000 0.43750000 0.00000000
0.22750000 0.43750000 0.00000000
0.26000000 0.43750000 0.00000000
0.29250000 0.43750000 0.00000000
0.32500000 0.43750000 0.00000000
0.35750000 0.43750000 0.00000000
0.39000000 0.43750000 0.00000000
0.42250000 0.43750000 0.00000000
0.45500000 0.43750000 0.00000000
0.48750000 0.43750000 0.00000000
0.52000000 0.43750000 0.00000000
0.55250000 0.43750000 0.00000000
0.58500000 0.43750000 0.00000000
0.61750000 0.43750000 0.00000000
0.65000000 0.43750000 0.00000000
0.68250000 0.43750000 0.00000000
0.71500000 0.43750000 0.00000000
0.74750000 0.43750000 0.00000000
0.78000000 0.43750000 0.00000000
0.81250000 0.43750000 0.00000000
0.84500000 0.43750000 0.00000000
0.87750000 0.43750000 0.00000000
0.91000000 0.43750000 0.00000000
0.94250000 0.43750000 0.00000000
0.97500000 0.43750000 0.00000000
1.00000000 0.43750000 0.00000000
1.00000000 0.43750000 0.00000000
0.00000000 0.46875000 0.00000000
0.03250000 0.46875000 0.00000000
0.06500000 0.46875000 0.00000000
0.09750000 0.46875000 0.00000000
0.13000000 0.46875000 0.00000000
0.16250000 0.46875000 0.00000000
0.19500000 0.46875000 0.00000000
0.22750000 0.46875000 0.00000000
0.26000000 0.46875000 0.00000000
0.29250000 0.46875000 0.00000000
0.32500000 0.46875000 0.00000000
0.35750000 0.46875000 0.00000000
0.39000000 0.46875000 0.00000000
0.42250000 0.46875000 0.00000000
0.45500000 0.46875000 0.00000000
0.48750000 0.46875000 0.00000000
0.52000000 0.46875000 0.00000000
0.55250000 0.46875000 0.00000000
0.58500000 0.46875000 0.00000000
0.61750000 0.46875000 0.00000000
0.65000000 0.46875000 0.00000000
0.68250000 0.46875000 0.00000000
0.71500000 0.46875000 0.00000000
0.74750000 0.46875000 0.00000000
0.78000000 0.46875000 0.00000000
0.81250000 0.46875000 0.00000000
0.84500000 0.46875000 0.00000000
0.87750000 0.46875000 0.00000000
0.91000000 0.46875000 0.00000000
0.94250000 0.46875000 0.00000000
0.97500000 0.46875000 0.00000000
1.00000000 0.46875000 0.00000000
1.00000000 0.46875000 0.00000000
0.00000000 0.50000000 0.00000000
0.03250000 0.50000000 0.00000000
0.06500000 0.50000000 0.00000000
0.09750000 0.50000000 0.00000000
0.13000000 0.50000000 0.00000000
0.16250000 0.50000000 0.00000000
0.19500000 0.50000000 0.00000000
0.22750000 0.50000000 0.00000000
0.26000000 0.50000000 0.00000000
0.29250000 0.50000000 0.00000000
0.32500000 0.50000000 0.00000000
0.35750000 0.50000000 0.00000000
0.39000000 0.50000000 0.00000000
0.42250000 0.50000000 0.00000000
0.45500000 0.50000000 0.00000000
0.48750000 0.50000000 0.00000000
0.52000000 0.50000000 0.00000000
0.55250000 0.50000000 0.00000000
0.58500000 0.50000000 0.00000000
0.61750000 0.50000000 0.00000000
0.65000000 0.50000000 0.00000000
0.68250000 0.50000000 0.00000000
0.71500000 0.50000000 0.00000000
0.74750000 0.50000000 0.00000000
0.78000000 0.50000000 0.00000000
0.81250000 0.50000000 0.00000000
0.84500000 0.50000000 0.00000000
0.87750000 0.50000000 0.00000000
0.91000000 0.50000000 0.00000000
0.94250000 0.50000000 0.00000000
0.97500000 0.50000000 0.00000000
1.00000000 0.50000000 0.00000000
1.00000000 0.50000000 0.00000000
0.00000000 0.53125000 0.00000000
0.03250000 0.53125000 0.00000000
0.06500000 0.53125000 0.00000000
0.09750000 0.53125000 0.00000000
0.13000000 0.53125000 0.00000000
0.16250000 0.53125000 0.00000000
0.19500000 0.53125000 0.00000000
0.22750000 0.53125000 0.00000000
0.26000000 0.53125000 0.00000000
0.29250000 0.53125000 0.00000000
0.32500000 0.53125000 0.00000000
0.35750000 0.53125000 0.00000000
0.39000000 0.53125000 0.00000000
0.42250000 0.53125000 0.00000000
0.45500000 0.53125000 0.00000000
0.48750000 0.53125000 0.00000000
0.52000000 0.53125000 0.00000000
0.55250000 0.53125000 0.00000000
0.58500000 0.53125000 0.00000000
0.61750000 0.53125000 0.00000000
0.65000000 0.53125000 0.00000000
0.68250000 0.53125000 0.00000000
0.71500000 0.53125000 0.00000000
0.74750000 0.53125000 0.00000000
0.78000000 0.53125000 0.00000000
0.81250000 0.53125000 0.00000000
0.84500000 0.53125000 0.00000000
0.87750000 0.53125000 0.00000000
0.91000000 0.53125000 0.00000000
0.94250000 0.53125000 0.00000000
0.97500000 0.53125000 0.00000000
1.00000000 0.53125000 0.00000000
1.00000000 0.53125000 0.00000000
0.00000000 0.56250000 0.00000000
0.03250000 0.56250000 0.00000000
0.06500000 0.56250000 0.00000000
0.09750000 0.56250000 0.00000000
0.13000000 0.56250000 0.00000000
0.16250000 0.56250000 0.00000000
0.19500000 0.56250000 0.00000000
0.22750000 0.56250000 0.00000000
0.26000000 0.56250000 0.00000000
0.29250000 0.56250000 0.00000000
0.32500000 0.56250000 0.00000000
0.35750000 0.56250000 0.00000000
0.39000000 0.56250000 0.00000000
0.42250000 0.56250000 0.00000000
0.45500000 0.56250000 0.00000000
0.48750000 0.56250000 0.00000000
0.52000000 0.56250000 0.00000000
0.55250000 0.56250000 0.00000000
0.58500000 0.56250000 0.00000000
0.61750000 0.56250000 0.00000000
0.65000000 0.56250000 0.00000000
0.68250000 0.56250000 0.00000000
0.71500000 0.56250000 0.00000000
0.74750000 0.56250000 0.00000000
0.78000000 0.56250000 0.00000000
0.81250000 0.56250000 0.00000000
0.84500000 0.56250000 0.00000000
0.87750000 0.56250000 0.00000000
0.91000000 0.56250000 0.00000000
0.94250000 0.56250000 0.00000000
0.97500000 0.56250000 0.00000000
1.00000000 0.56250000 0.00000000
1.00000000 0.56250000 0.00000000
0.00000000 0.59375000 0.00000000
0.03250000 0.59375000 0.00000000
0.06500000 0.59375000 0.00000000
0.09750000 0.59375000 0.00000000
0.13000000 0.59375000 0.00000000
0.16250000 0.59375000 0.00000000
0.19500000 0.59375000 0.00000000
0.22750000 0.59375000 0.00000000
0.26000000 0.59375000 0.00000000
0.29250000 0.59375000 0.00000000
0.32500000 0.59375000 0.00000000
0.35750000 0.59375000 0.00000000
0.39000000 0.59375000 0.00000000
0.42250000 0.59375000 0.00000000
0.45500000 0.59375000 0.00000000
0.48750000 0.59375000 0.00000000
0.52000000 0.59375000 0.00000000
0.55250000 0.59375000 0.00000000
0.58500000 0.59375000 0.00000000
0.61750000 0.59375000 0.00000000
0.65000000 0.59375000 0.00000000
0.68250000 0.59375000 0.00000000
0.71500000 0.59375000 0.00000000
0.74750000 0.59375000 0.00000000
0.78000000 0.59375000 0.00000000
0.81250000 0.59375000 0.00000000
0.84500000 0.59375000 0.00000000
0.87750000 0.59375000 0.00000000
0.91000000 0.59375000 0.00000000
0.94250000 0.59375000 0.00000000
0.97500000 0.59375000 0.00000000
1.00000000 0.59375000 0.00000000
1.00000000 0.59375000 0.00000000
0.00000000 0.62500000 0.00000000
0.03250000 0.62500000 0.00000000
0.06500000 0.62500000 0.00000000
0.09750000 0.62500000 0.00000000
0.13000000 0.62500000 0.00000000
0.16250000 0.62500000 0.00000000
0.19500000 0.62500000 0.00000000
0.22750000 0.62500000 0.00000000
0.26000000 0.62500000 0.00000000
0.29250000 0.62500000 0.00000000
0.32500000 0.62500000 0.00000000
0.35750000 0.62500000 0.00000000
0.39000000 0.62500000 0.00000000
0.42250000 0.62500000 0.00000000
0.45500000 0.62500000 0.00000000
0.48750000 0.62500000 0.00000000
0.52000000 0.62500000 0.00000000
0.55250000 0.62500000 0.00000000
0.58500000 0.62500000 0.00000000
0.61750000 0.62500000 0.00000000
0.65000000 0.62500000 0.00000000
0.68250000 0.62500000 0.00000000
0.71500000 0.62500000 0.00000000
0.74750000 0.62500000 0.00000000
0.78000000 0.62500000 0.00000000
0.81250000 0.62500000 0.00000000
0.84500000 0.62500000 0.00000000
0.87750000 0.62500000 0.00000000
0.91000000 0.62500000 0.00000000
0.94250000 0.62500000 0.00000000
0.97500000 0.62500000 0.00000000
1.00000000 0.62500000 0.00000000
1.00000000 0.62500000 0.00000000
0.00000000 0.65625000 0.00000000
0.03250000 0.65625000 0.00000000
0.06500000 0.65625000 0.00000000
0.09750000 0.65625000 0.00000000
0.13000000 0.65625000 0.00000000
0.16250000 0.65625000 0.00000000
0.19500000 0.65625000 0.00000000
0.22750000 0.65625000 0.00000000
0.26000000 0.65625000 0.00000000
0.29250000 0.65625000 0.00000000
0.32500000 0.65625000 0.00000000
0.35750000 0.65625000 0.00000000
0.39000000 0.65625000 0.00000000
0.42250000 0.65625000 0.00000000
0.45500000 0.65625000 0.00000000
0.48750000 0.65625000 0.00000000
0.52000000 0.65625000 0.00000000
0.55250000 0.65625000 0.00000000
0.58500000 0.65625000 0.00000000
0.61750000 0.65625000 0.00000000
0.65000000 0.65625000 0.00000000
0.68250000 0.65625000 0.00000000
0.71500000 0.65625000 0.00000000
0.74750000 0.65625000 0.00000000
0.78000000 0.65625000 0.00000000
0.81250000 0.65625000 0.00000000
0.84500000 0.65625000 0.00000000
0.87750000 0.65625000 0.00000000
0.91000000 0.65625000 0.00000000
0.94250000 0.65625000 0.00000000
0.97500000 0.65625000 0.00000000
1.00000000 0.65625000 0.00000000
