data/manual_verify/adaint_real.cube
TITLE "LocalColorService AdaInt FiveK sRGB"
LUT_3D_SIZE 33
DOMAIN_MIN 0.0 0.0 0.0
DOMAIN_MAX 1.0 1.0 1.0
0.00000000 0.00000000 0.00000000
0.00000000 0.00000000 0.00000000
0.00000000 0.00000000 0.00000000
0.00000000 0.00000000 0.00000000
0.01698380 0.00000000 0.00000000
0.06877842 0.00000000 0.00000000
0.11685750 0.00000000 0.00000000
0.16326803 0.00000000 0.00000000
0.21236789 0.00000000 0.00000000
0.25116436 0.00000000 0.00000000
0.28014473 0.00000000 0.00000000
0.30125442 0.00000000 0.00000000
0.32304004 0.00000000 0.00000000
0.34662924 0.00000000 0.00000000
0.36658473 0.00000000 0.00000000
0.40039378 0.00000000 0.00000000
0.42621279 0.00000000 0.00000000
0.46530858 0.00000000 0.00000000
0.51207844 0.00000000 0.00000000
0.54631971 0.00000000 0.00000000
0.57158808 0.00000000 0.00000000
0.60147772 0.00000000 0.00000000
0.63125173 0.00000000 0.00000000
0.65942156 0.00000000 0.00000000
0.70402394 0.00000000 0.00000000
0.74565214 0.00000000 0.00000000
0.77745341 0.00000000 0.00000000
0.80278398 0.00000000 0.00000000
0.82322278 0.00000000 0.00000000
0.84586801 0.00291665 0.00000000
0.86996396 0.00776058 0.00000000
0.90033725 0.01193079 0.00000000
0.91805732 0.01276914 0.00000000
0.00000000 0.00000000 0.00000000
0.00000000 0.00000000 0.00000000
0.00000000 0.00000000 0.00000000
0.00000000 0.00000000 0.00000000
0.02620935 0.00000000 0.00000000
0.07810106 0.00000000 0.00000000
0.12331432 0.00000000 0.00000000
0.16432479 0.00000000 0.00000000
0.21416993 0.00000000 0.00000000
0.25509057 0.00000000 0.00000000
0.28304161 0.00000000 0.00000000
0.30422501 0.00000000 0.00000000
0.32609437 0.00000000 0.00000000
0.34907824 0.00000000 0.00000000
0.36924961 0.00000000 0.00000000
0.40171735 0.00000000 0.00000000
0.43028759 0.00000000 0.00000000
0.46968124 0.00000000 0.00000000
0.51084969 0.00000000 0.00000000
0.54510407 0.00000000 0.00000000
0.57515003 0.00000000 0.00000000
0.59756119 0.00000000 0.00000000
0.63097316 0.00000000 0.00000000
0.66441118 0.00000000 0.00000000
0.70490186 0.00000000 0.00000000
0.74507346 0.00000000 0.00000000
0.77892579 0.00000000 0.00000000
0.80488495 0.00000000 0.00000000
0.82600886 0.00041690 0.00000000
0.84627207 0.00382740 0.00000000
0.87146934 0.01010928 0.00000000
0.90014602 0.01866992 0.00000000
0.91796850 0.02747053 0.00000000
0.00000000 0.00000000 0.00000000
0.00000000 0.00000000 0.00000000
0.00000000 0.00000000 0.00000000
0.00000000 0.00000000 0.00000000
0.03784180 0.00000000 0.00000000
0.08551776 0.00000000 0.00000000
0.13101756 0.00000000 0.00000000
0.17419439 0.00000000 0.00000000
0.22312500 0.00000000 0.00000000
0.26358133 0.00000000 0.00000000
0.29504926 0.00000000 0.00000000
0.31687478 0.00000000 0.00000000
0.33811403 0.00000000 0.00000000
0.36230269 0.00000000 0.00000000
0.38522131 0.00000000 0.00000000
0.41585812 0.00000000 0.00000000
0.44598420 0.00000000 0.00000000
0.47937040 0.00000000 0.00000000
0.52075246 0.00000000 0.00000000
0.55053429 0.00000000 0.00000000
0.57778181 0.00000000 0.00000000
0.59957502 0.00000000 0.00000000
0.63255671 0.00000000 0.00000000
0.66518004 0.00249387 0.00000000
0.71087898 0.00355917 0.00000000
0.74796709 0.00729640 0.00000000
0.78134634 0.01070161 0.00000000
0.80747898 0.01372593 0.00000000
0.82699427 0.01604042 0.00000000
0.84725289 0.01985635 0.00000000
0.87193458 0.02475262 0.00000000
0.89983164 0.02980408 0.00000000
0.91908844 0.03772300 0.00000000
0.00000000 0.00000000 0.00000000
0.00000000 0.00728338 0.00000000
0.00000000 0.02035962 0.00000000
0.00000000 0.02178093 0.00000000
0.04616212 0.02203240 0.00000000
0.09282576 0.02131197 0.00000000
0.13708286 0.02138494 0.00000000
0.18558882 0.02287058 0.00000000
0.22968354 0.02384851 0.00000000
0.27091984 0.02580640 0.00000000
0.30505116 0.02669334 0.00000000
0.33517444 0.02674441 0.00000000
0.36155384 0.02722299 0.00000000
0.38325148 0.02794604 0.00000000
0.40172273 0.02745764 0.00000000
0.43112562 0.02814908 0.00000000
0.46210193 0.02840411 0.00000000
0.49142470 0.02812207 0.00000000
0.52646619 0.02835121 0.00000000
0.55799139 0.03070209 0.00000000
0.58222809 0.03886430 0.00000000
0.60344715 0.04335360 0.00000000
0.63515970 0.04668392 0.00000000
0.66814766 0.05141377 0.00000000
0.71218964 0.05607816 0.00000000
0.74871536 0.06010047 0.00000000
0.78149364 0.06171006 0.00000000
0.80656315 0.06289948 0.00000000
0.82651370 0.06538188 0.00000000
0.84775171 0.06762718 0.00000000
0.87367645 0.06968861 0.00000000
0.90087418 0.07312297 0.00000000
0.92000472 0.07574794 0.00000000
0.00000000 0.04684824 0.00000000
0.00000000 0.06345922 0.00000000
0.00000000 0.07149750 0.00000000
0.00000000 0.07840553 0.00000000
0.04984433 0.08070400 0.00000000
0.10600656 0.08060897 0.00000000
0.15184579 0.08064017 0.00000000
0.18982375 0.08253848 0.00000000
0.23650995 0.08422366 0.00000000
0.27757791 0.08496473 0.00000000
0.32177580 0.08628750 0.00000000
0.36152838 0.08689300 0.00000000
0.39567982 0.08784036 0.00000000
0.42557690 0.08943295 0.00000000
0.45263515 0.09040881 0.00000000
0.48143770 0.09135083 0.00000000
0.49708033 0.09089820 0.00000000
0.52032033 0.09147200 0.00000000
0.54687622 0.09158987 0.00000000
0.56408847 0.09249294 0.00000000
0.59059758 0.09628968 0.00000000
0.60787727 0.09807972 0.00000000
0.63989480 0.09890822 0.00000000
0.67015496 0.10125978 0.00000000
0.71232112 0.10629841 0.00000000
0.74807122 0.11271263 0.00000000
0.77990499 0.11568054 0.00000000
0.80549706 0.11644165 0.00000000
0.82721374 0.12008861 0.00000000
0.84793627 0.12285372 0.00000000
0.87306551 0.12393407 0.00000000
0.89978309 0.12672617 0.00000000
0.91556868 0.13338976 0.00000000
0.00000000 0.10578556 0.00000000
0.00000000 0.11885837 0.00000000
0.00000000 0.12320582 0.00000000
0.00000000 0.12712519 0.00000000
0.04882616 0.13154970 0.00000000
0.10919095 0.13437966 0.00000000
0.16125122 0.13506882 0.00000000
0.20476545 0.13517889 0.00000000
0.24498692 0.13784304 0.00000000
0.28336401 0.13934126 0.00000000
0.32845266 0.14133301 0.00000000
0.37189827 0.14252446 0.00000000
0.41035605 0.14359215 0.00000000
0.44407507 0.14531622 0.00000000
0.47512043 0.14749139 0.00000000
0.50846940 0.14892598 0.00000000
0.53353550 0.14918576 0.00000000
0.55977007 0.15029976 0.00000000
0.57854160 0.15006373 0.00000000
0.59548563 0.14970202 0.00000000
0.61163495 0.14984116 0.00000000
0.62781270 0.15130226 0.00000000
0.65078547 0.15193537 0.00000000
0.67053714 0.15181342 0.00000000
0.71530211 0.15554094 0.00000000
0.74801993 0.16150455 0.00000000
0.77972347 0.16581665 0.00000000
0.80534719 0.16924920 0.00000000
0.82598653 0.17213428 0.00000000
0.84637708 0.17379707 0.00000000
0.86930117 0.17417217 0.00000000
0.89600983 0.17756106 0.00000000
0.90631904 0.18009264 0.00000000
0.00000000 0.16299249 0.00000000
0.00000000 0.16926259 0.00000000
0.00000000 0.17219756 0.00000000
0.00000000 0.17272126 0.00000000
0.04801889 0.17581137 0.00000000
0.10863102 0.17967338 0.00000000
0.16363609 0.18177385 0.00000000
0.21370647 0.18219100 0.00000000
0.25784873 0.18397040 0.00000000
0.29025539 0.18557647 0.00000000
0.32932452 0.18828435 0.00000000
0.37199834 0.19013059 0.00000000
0.41271649 0.19140503 0.00000000
0.44956669 0.19300845 0.00000000
0.48453999 0.19543536 0.00000000
0.51584236 0.19899381 0.00000000
0.54827925 0.20125938 0.00000000
0.57851857 0.20290892 0.00000000
0.60143974 0.20313085 0.00000000
0.61983833 0.20281760 0.00000000
0.63475786 0.20247436 0.00000000
0.65130338 0.20304073 0.00000000
0.66703141 0.20298743 0.00000000
0.68453953 0.20218462 0.00000000
0.72288129 0.20383248 0.00000000
0.75340433 0.20832106 0.00000000
0.78121171 0.21049185 0.00000000
0.80484900 0.21428003 0.00000000
0.82488112 0.21702603 0.00000000
0.84538949 0.21746667 0.00000000
0.86480818 0.21943566 0.00000000
0.88945101 0.22359752 0.00000000
0.90172020 0.22447207 0.00000000
0.00000000 0.21086428 0.00000000
0.00000000 0.21430586 0.00000000
0.00000000 0.21517643 0.00000000
0.00000000 0.21448582 0.00000000
0.04817392 0.21507203 0.00000000
0.10744960 0.21812413 0.00000000
0.16268443 0.22203761 0.00000000
0.21511826 0.22528041 0.00000000
0.26492283 0.22676287 0.00000000
0.29844008 0.22738128 0.00000000
0.33173494 0.22870556 0.00000000
0.37066730 0.23048952 0.00000000
0.41081749 0.23235504 0.00000000
0.44928060 0.23464261 0.00000000
0.48757625 0.23818861 0.00000000
0.51874409 0.24200857 0.00000000
0.55113841 0.24683468 0.00000000
0.58385786 0.24946611 0.00000000
0.61355880 0.25010985 0.00000000
0.63592939 0.25153393 0.00000000
0.65355369 0.25199444 0.00000000
0.66757693 0.25232355 0.00000000
0.68455405 0.25209905 0.00000000
0.70234754 0.25233550 0.00000000
0.73111953 0.25235125 0.00000000
0.75780946 0.25387591 0.00000000
0.78216426 0.25416135 0.00000000
0.80453926 0.25617970 0.00000000
0.82494924 0.25723968 0.00000000
0.84471834 0.25724909 0.00000000
0.86280716 0.26066885 0.00000000
0.88492486 0.26511451 0.00000000
0.90005792 0.26673478 0.00000000
0.00000000 0.24915216 0.00000000
0.00000000 0.25227054 0.00000000
0.00000000 0.25240691 0.00000000
0.00000000 0.25166780 0.00000000
0.04915169 0.25079900 0.00000000
0.10674893 0.25255623 0.00000000
0.16168262 0.25778718 0.00000000
0.21447273 0.26484240 0.00000000
0.26431840 0.26774093 0.00000000
0.30451511 0.26827874 0.00000000
0.33689611 0.26732758 0.00000000
0.37252889 0.26796173 0.00000000
0.40976512 0.26991358 0.00000000
0.44642398 0.27298311 0.00000000
0.48443960 0.27773201 0.00000000
0.51961204 0.28007466 0.00000000
0.55206466 0.28617376 0.00000000
0.58640910 0.29003253 0.00000000
0.61990183 0.29143000 0.00000000
0.64753374 0.29418345 0.00000000
0.66813879 0.29593963 0.00000000
0.67881993 0.29742281 0.00000000
0.69958240 0.29834820 0.00000000
0.71513919 0.29858746 0.00000000
0.73881421 0.29759251 0.00000000
0.76105368 0.29687907 0.00000000
0.78392735 0.29690042 0.00000000
0.80510026 0.29670627 0.00000000
0.82499138 0.29538047 0.00000000
0.84335435 0.29547372 0.00000000
0.86309164 0.29811606 0.00000000
0.88336202 0.30164021 0.00000000
0.89822380 0.30245941 0.00063650
0.00000000 0.28548259 0.00000000
0.00000000 0.28462749 0.00000000
0.00000000 0.28729528 0.00000000
0.00000000 0.28731182 0.00000000
0.05073718 0.28602719 0.00000000
0.10729426 0.28655361 0.00000000
0.16188998 0.29132765 0.00000000
0.21454311 0.30073846 0.00000000
0.26385689 0.30636249 0.00000000
0.30535647 0.30831420 0.00000000
0.34147956 0.30777930 0.00000000
0.37793498 0.30718174 0.00000000
0.41369472 0.30793805 0.00000000
0.44785895 0.31043906 0.00000000
0.48227658 0.31412524 0.00000000
0.51650031 0.31654357 0.00000000
0.55199995 0.32131685 0.00000000
0.58683564 0.32623932 0.00000000
0.62388662 0.33010170 0.00000000
0.65243946 0.33194567 0.00000000
0.68008422 0.33514354 0.00000000
0.69357791 0.33717271 0.00000000
0.71200864 0.33853889 0.00000000
0.72547337 0.33697444 0.00000000
0.74802081 0.33500588 0.00000000
0.76950033 0.33488492 0.00000000
0.78923487 0.33432403 0.00000000
0.80612859 0.33258832 0.00000000
0.82370827 0.33137896 0.00000000
0.84131310 0.33171798 0.00000000
0.86258596 0.33274028 0.00000000
0.88175435 0.33396821 0.00000000
0.89636494 0.33235171 0.00285363
0.00000000 0.32275976 0.00000000
0.00000000 0.32107914 0.00000000
0.00000000 0.32238668 0.00000000
0.00000000 0.32466682 0.00000000
0.05104202 0.32376405 0.00000000
0.10585535 0.32315454 0.00000000
0.15966071 0.32478482 0.00000000
0.21315020 0.33085603 0.00000000
0.26309922 0.34258574 0.00000000
0.30327108 0.34373471 0.00000000
0.33937735 0.34563802 0.00000000
0.37948035 0.34565738 0.00000000
0.42092154 0.34581255 0.00000000
0.45803098 0.34754482 0.00000000
0.48778562 0.34960521 0.00000000
0.51402160 0.35179179 0.00000000
0.55009832 0.35533804 0.00000000
0.58369548 0.36127338 0.00000000
0.62186934 0.36693038 0.00000000
0.65763210 0.37134569 0.00000000
0.68625769 0.37268473 0.00000000
0.71086068 0.37375170 0.00000000
0.72900407 0.37182255 0.00000000
0.73912233 0.37425285 0.00000000
0.75765758 0.37241116 0.00000000
0.78113695 0.36763182 0.00000000
0.79415140 0.36735431 0.00000000
0.80615264 0.36633235 0.00000000
0.82295193 0.36581884 0.00000000
0.84048225 0.36667873 0.00000000
0.86047737 0.36905075 0.00000000
0.88102445 0.36886921 0.00000000
0.89602210 0.36620128 0.00223263
0.00000000 0.35590506 0.00000000
0.00000000 0.35719195 0.00000000
0.00000000 0.35844244 0.00000000
0.00000000 0.35986341 0.00000000
0.05152476 0.36040931 0.00000000
0.10561134 0.35966513 0.00000000
0.15906727 0.35985811 0.00000000
0.20995880 0.36153382 0.00000000
0.25834214 0.37091809 0.00000000
0.30196138 0.37832236 0.00000000
0.33952699 0.38039945 0.00000000
0.37892435 0.38184610 0.00000000
0.42039455 0.38305133 0.00000000
0.46113513 0.38376829 0.00000000
0.49799699 0.38486130 0.00000000
0.52523694 0.38588106 0.00000000
0.55120297 0.38893518 0.00000000
0.58329951 0.39147591 0.00000000
0.61887125 0.39470440 0.00000000
0.65487585 0.40084193 0.00000000
0.68942174 0.40478156 0.00000000
0.71677133 0.40587550 0.00000000
0.74011882 0.40380658 0.00000000
0.75785534 0.40292500 0.00000000
0.76867554 0.40167208 0.00000000
0.78380744 0.40123620 0.00000000
0.80060156 0.40151471 0.00000000
0.81068146 0.39839375 0.00000000
0.82455326 0.39978745 0.00000000
0.84106168 0.40100945 0.00000000
0.85990761 0.40130935 0.00000000
0.88133154 0.40042119 0.00000000
0.89507567 0.39606196 0.00095224
0.00000000 0.38971828 0.00000000
0.00000000 0.39242476 0.00000000
0.00000000 0.39351358 0.00000000
0.00162474 0.39382069 0.00000000
0.05253774 0.39513492 0.00000000
0.10560248 0.39574243 0.00000000
0.15738173 0.39603552 0.00000000
0.20769116 0.39704349 0.00000000
0.25641569 0.40073048 0.00000000
0.30052225 0.40475922 0.00000000
0.34087442 0.41264557 0.00000000
0.37986137 0.41607183 0.00000000
0.42038798 0.41736550 0.00000000
0.46178415 0.41883006 0.00000000
0.49961226 0.41848410 0.00000000
0.53145986 0.41821720 0.00000000
0.56093292 0.42007537 0.00000000
0.58222042 0.42188653 0.00000000
0.61596723 0.42362060 0.00000000
0.65110090 0.42615299 0.00000000
0.68624985 0.43146180 0.00000000
0.71685659 0.43753154 0.00000000
0.74514871 0.43605104 0.00000000
0.76448847 0.43355285 0.00000000
0.77631019 0.43208851 0.00000000
0.79227684 0.43244206 0.00000000
0.80539649 0.43203779 0.00000000
0.81573795 0.43108809 0.00000000
0.82515152 0.43145738 0.00000000
0.83992044 0.43250596 0.00000000
0.85866900 0.43236627 0.00000000
0.88153557 0.43260091 0.00000000
0.89391157 0.43061785 0.00298650
0.00000000 0.42351700 0.00000000
0.00000000 0.42652282 0.00000000
0.00000000 0.42645623 0.00000000
0.00409638 0.42641356 0.00000000
0.05495104 0.42756105 0.00000000
0.10725224 0.42861107 0.00000000
0.15635328 0.42966966 0.00000000
0.20634958 0.43124301 0.00000000
0.25471638 0.43305546 0.00000000
0.29893624 0.43599500 0.00000000
0.34025108 0.44411703 0.00000000
0.38055203 0.44847989 0.00000000
0.42127837 0.45038406 0.00000000
0.46154513 0.45191047 0.00000000
0.49866141 0.45176108 0.00000000
0.53294520 0.45185453 0.00000000
0.56294340 0.45142761 0.00000000
0.58468398 0.45167976 0.00000000
0.61560183 0.45261647 0.00000000
0.64806909 0.45429058 0.00000000
0.68264863 0.45775924 0.00000000
0.71395373 0.46295062 0.00000000
0.74446843 0.46663792 0.00000000
0.76925196 0.46460889 0.00000000
0.78281366 0.46217132 0.00000000
0.79816728 0.46249759 0.00000000
0.81244893 0.46048395 0.00000000
0.82366562 0.46149386 0.00000000
0.83003871 0.46216445 0.00000000
0.84097770 0.46323700 0.00000000
0.85910629 0.46323348 0.00000000
0.88133633 0.46392697 0.00081127
0.89264672 0.46327906 0.00356371
0.00000000 0.45685983 0.00000000
0.00000000 0.46011985 0.00000000
0.00000000 0.45864985 0.00000000
0.00578177 0.45920168 0.00000000
0.05736118 0.46064287 0.00000000
0.10995666 0.46161202 0.00000000
0.15747659 0.46331353 0.00000000
0.20536815 0.46553035 0.00000000
0.25309381 0.46647961 0.00000000
0.29618885 0.46886292 0.00000000
0.33794642 0.47386820 0.00000000
0.37952756 0.47878172 0.00000000
0.42038091 0.48208087 0.00000000
0.45976277 0.48364703 0.00000000
0.49747496 0.48418906 0.00000000
0.53371848 0.48419626 0.00000000
0.56439151 0.48370791 0.00000000
0.59008704 0.48257997 0.00000000
0.61829011 0.48230918 0.00000000
0.64745338 0.48301484 0.00000000
0.67936464 0.48507461 0.00000000
0.70957422 0.48770368 0.00000000
0.74080888 0.49279109 0.00000000
0.76991006 0.49291202 0.00000000
0.78607344 0.49165928 0.00000000
0.80093908 0.49180099 0.00000000
0.81682459 0.48914779 0.00000000
0.83014869 0.48925919 0.00000000
0.83659282 0.49033571 0.00000000
0.84490438 0.49093003 0.00000000
0.86096430 0.49038845 0.00000000
0.88187202 0.49175460 0.00236583
0.89213237 0.49012829 0.00395739
0.00000000 0.48999103 0.00000000
0.00000000 0.49295170 0.00000000
0.00000000 0.49114847 0.00000000
0.00720940 0.49205134 0.00000000
0.05796776 0.49333142 0.00000000
0.11212505 0.49416903 0.00000000
0.16019524 0.49608888 0.00000000
0.20468232 0.49802494 0.00000000
0.25224568 0.49842880 0.00000000
0.29424326 0.49970551 0.00000000
0.33585945 0.50245194 0.00000000
0.37741040 0.50763024 0.00000000
0.41822273 0.51240207 0.00000000
0.45786079 0.51485031 0.00000000
0.49655496 0.51565162 0.00000000
0.53491092 0.51531250 0.00000000
0.56795913 0.51618217 0.00000000
0.59578205 0.51498641 0.00000000
0.62297622 0.51360343 0.00000000
0.64985491 0.51230710 0.00000000
0.67851599 0.51398447 0.00000000
0.70757673 0.51583934 0.00000000
0.73738885 0.51775199 0.00000000
0.76683789 0.51901824 0.00000000
0.78545745 0.51937799 0.00000000
0.80121340 0.51992618 0.00000000
0.81714468 0.51806089 0.00000000
0.83313420 0.51587360 0.00000000
0.84186943 0.51586344 0.00000000
0.85060909 0.51633070 0.00059810
0.86409577 0.51618610 0.00144286
0.88334151 0.51802720 0.00344615
0.89263001 0.51326082 0.00546503
0.00000000 0.52295962 0.00000000
0.00000000 0.52367885 0.00000000
0.00000000 0.52331824 0.00000000
0.01021337 0.52291755 0.00000000
0.05689652 0.52186211 0.00000000
0.11295628 0.52267126 0.00000000
0.16335089 0.52461434 0.00000000
0.20594554 0.52496456 0.00000000
0.25267854 0.52675151 0.00000000
0.29586683 0.52840788 0.00000000
0.33546459 0.53146008 0.00000000
0.37598846 0.53595320 0.00000000
0.41764172 0.54156704 0.00000000
0.45820769 0.54626804 0.00000000
0.49589991 0.54735964 0.00000000
0.53473858 0.54810732 0.00000000
0.56875650 0.54807365 0.00000000
0.59889068 0.54788998 0.00000000
0.62750650 0.54696374 0.00000000
0.65390113 0.54520264 0.00000000
0.68248646 0.54506953 0.00000000
0.71183893 0.54710556 0.00000000
0.73753967 0.54823110 0.00000000
0.76507930 0.54710952 0.00000000
0.78329002 0.54503072 0.00000000
0.79972596 0.54632459 0.00000000
0.81698953 0.54606999 0.00000000
0.83456608 0.54382366 0.00195856
0.84532317 0.54123698 0.00290063
0.85612655 0.54264352 0.00388555
0.86863727 0.54566075 0.00379044
0.88498594 0.54668555 0.00561784
0.89363738 0.53853116 0.00860095
0.00000000 0.55261728 0.00000000
0.00000000 0.55062692 0.00000000
0.00000000 0.55121858 0.00000000
0.01968631 0.54981656 0.00000000
0.06121322 0.54917783 0.00000000
0.11654706 0.55103292 0.00000000
0.17089142 0.55335963 0.00000000
0.21538639 0.55332834 0.00000000
0.25335505 0.55284405 0.00000000
0.29540820 0.55649240 0.00000000
0.33371884 0.55868198 0.00000000
0.37411424 0.56177477 0.00000000
0.41606437 0.56932184 0.00000000
0.45739963 0.57887136 0.00000000
0.49710951 0.58267444 0.00000000
0.53380540 0.58194197 0.00000000
0.56879690 0.58211244 0.00000000
0.59890718 0.58198242 0.00000000
0.62965814 0.58175694 0.00000000
0.65466519 0.58086972 0.00000000
0.68565873 0.57913228 0.00000000
0.71699983 0.58015449 0.00000000
0.74548843 0.58188771 0.00000000
0.76752648 0.58040897 0.00000000
0.78395838 0.57601796 0.00000000
0.79982333 0.57216169 0.00128658
0.81836336 0.57630414 0.00175821
0.83767605 0.57491721 0.00331139
0.85004923 0.57109360 0.00344705
0.85989301 0.56781478 0.00459435
0.87335743 0.56891730 0.00507320
0.88706742 0.57159090 0.00624075
0.89457122 0.56652061 0.01608219
0.00000000 0.57539561 0.00000000
0.00000000 0.57950569 0.00000000
0.00215448 0.57722276 0.00000000
0.03483656 0.57788789 0.00000000
0.07183007 0.57836018 0.00000000
0.11925062 0.58101612 0.00000000
0.17252742 0.58365188 0.00000000
0.22248369 0.58291156 0.00000000
0.26491442 0.58239671 0.00000000
0.29655642 0.58579304 0.00000000
0.33433323 0.58892067 0.00000000
0.37415439 0.59002586 0.00000000
0.41446312 0.59180531 0.00000000
0.45486068 0.59844124 0.00000000
0.49447291 0.61110404 0.00000000
0.53109164 0.61607755 0.00000000
0.56682147 0.61666719 0.00000000
0.60078407 0.61684015 0.00000000
0.62846166 0.61686387 0.00000000
0.65724516 0.61666211 0.00000000
0.68784945 0.61540629 0.00000000
0.71643318 0.61500408 0.00000000
0.75046557 0.61798330 0.00000000
0.77283954 0.61663155 0.00000000
0.78734031 0.61213153 0.00183875
0.80021893 0.60654247 0.00314398
0.81699830 0.60425963 0.00472243
0.83955068 0.60492248 0.00543311
0.85511242 0.60455559 0.00595812
0.86384983 0.60133077 0.00652034
0.87417063 0.59833594 0.00923759
0.88921322 0.59743985 0.01055172
0.89637922 0.59435927 0.02121682
0.00000000 0.60022828 0.00000000
0.00000000 0.60448580 0.00000000
0.01858511 0.60454235 0.00000000
0.05136391 0.60301055 0.00000000
0.08414421 0.60320360 0.00000000
0.12479251 0.60533447 0.00000000
0.17204153 0.60783982 0.00000000
0.22337444 0.60895776 0.00000000
0.27117136 0.60982742 0.00000000
0.30347751 0.61111169 0.00000000
0.33498602 0.61261543 0.00000000
0.37237555 0.61290344 0.00000000
0.41233512 0.61467590 0.00000000
0.45150062 0.61903727 0.00000000
0.49046634 0.62414726 0.00000000
0.52806437 0.63126373 0.00000000
0.56431085 0.64320619 0.00000000
0.60064514 0.64720305 0.00000000
0.62985809 0.64908718 0.00000000
0.65841237 0.64893238 0.00000000
0.69181474 0.64911670 0.00000000
0.72063109 0.64791596 0.00000000
0.75117377 0.64759595 0.00000000
0.77712372 0.64785207 0.00000000
0.79473535 0.64286708 0.00216954
0.80558851 0.63748019 0.00532585
0.81949192 0.63357273 0.00644586
0.84112052 0.63121168 0.00877292
0.85566196 0.63102505 0.00949145
0.86516825 0.62987388 0.01154701
0.87694259 0.62774619 0.01371639
0.88980107 0.62696322 0.01814890
0.89584963 0.62013107 0.02413932
0.00000000 0.62164654 0.00000000
0.00000000 0.62468110 0.00000000
0.02907323 0.62503264 0.00000000
0.05945971 0.62820616 0.00000000
0.09381971 0.62857549 0.00000000
0.12857565 0.62828115 0.00000000
0.17062598 0.62943042 0.00000000
0.22451646 0.63236725 0.00000000
0.27384404 0.63301128 0.00000000
0.30989479 0.63545582 0.00000000
0.33929636 0.63699051 0.00000000
0.37264815 0.63842800 0.00000000
0.41173818 0.63903623 0.00000000
0.45231258 0.63952859 0.00000000
0.48941772 0.64226677 0.00000000
0.52775370 0.64592663 0.00000000
0.56157199 0.65304635 0.00000000
0.59613463 0.66725287 0.00000000
0.62669489 0.67347396 0.00000000
0.65576281 0.67704045 0.00000000
0.68943080 0.67747118 0.00000000
0.72193437 0.67849257 0.00000000
0.74971977 0.67905381 0.00000000
0.77397975 0.67781446 0.00000000
0.79652997 0.67382574 0.00520250
0.81064700 0.66884812 0.00722540
0.82087551 0.66344397 0.00947571
0.83985824 0.65931546 0.01205672
0.85529719 0.65653668 0.01357644
0.86539036 0.65691811 0.01503570
0.87817406 0.65664390 0.01787871
0.88958439 0.65828181 0.02407132
0.89665157 0.65113600 0.02652124
0.00000000 0.64026689 0.00000000
0.00922406 0.64322098 0.00000000
0.03212467 0.64689289 0.00000000
0.06269408 0.64882786 0.00000000
0.09927677 0.65012805 0.00000000
0.13564511 0.65206971 0.00000000
0.17589812 0.65304891 0.00000000
0.22498832 0.65352578 0.00000000
0.27319820 0.65629658 0.00000000
0.31061103 0.65906137 0.00000000
0.34230005 0.65950854 0.00000000
0.37672208 0.65961202 0.00000000
0.41326062 0.66140971 0.00000000
0.45021586 0.66429944 0.00000000
0.48824260 0.66611994 0.00000000
0.52472690 0.67122330 0.00000000
0.56344879 0.67267752 0.00000000
0.59551518 0.68052488 0.00000000
0.62279090 0.68962504 0.00000000
0.65148936 0.69700770 0.00000000
0.68596066 0.70022273 0.00000000
0.71887391 0.70306996 0.00088397
0.75050099 0.70360360 0.00138159
0.77221919 0.70629555 0.00668758
0.79340367 0.70376359 0.00729631
0.81103014 0.69934816 0.01208218
0.82473810 0.69392626 0.01434762
0.83907411 0.68834663 0.01665567
0.85431637 0.68491601 0.01764290
0.86587741 0.68322184 0.01806952
0.87881449 0.68451859 0.02002390
