data/manual_verify/adaint_real.cube
TITLE "LocalColorService AdaInt FiveK sRGB"
LUT_3D_SIZE 5
DOMAIN_MIN 0.0 0.0 0.0
DOMAIN_MAX 1.0 1.0 1.0
0.00000000 0.00000000 0.00000000
0.21236789 0.00000000 0.00000000
0.42621279 0.00000000 0.00000000
0.70402394 0.00000000 0.00000000
0.91805732 0.01276914 0.00000000
0.00000000 0.24915216 0.00000000
0.26431840 0.26774093 0.00000000
0.55206466 0.28617376 0.00000000
0.73881421 0.29759251 0.00000000
0.89822380 0.30245941 0.00063650
0.00000000 0.52295962 0.00000000
0.25267854 0.52675151 0.00000000
0.56875650 0.54807365 0.00000000
0.78329002 0.54503072 0.00000000
0.89363738 0.53853116 0.00860095
0.00000000 0.70906260 0.00000000
0.27882010 0.74095193 0.00000000
0.56029024 0.74123313 0.00568956
0.78741760 0.76685992 0.02340020
0.90854921 0.74153631 0.04993684
0.03822421 0.95516098 0.02418279
0.28622758 0.97298428 0.03272418
0.57267199 0.96627527 0.05711899
0.77512136 0.93979963 0.08723880
0.97527200 0.94056833 0.15528801
0.00000000 0.00000000 0.25890311
0.22200429 0.00000000 0.26680598
0.52145604 0.00000000 0.26880027
0.76098312 0.02715963 0.27889383
0.91503040 0.07168046 0.27919645
0.00000000 0.26171671 0.27187792
0.29398482 0.29013675 0.28854665
0.58930460 0.28476100 0.27548782
0.79874525 0.28115111 0.26358952
0.92134777 0.31185756 0.28184563
0.00000000 0.54836547 0.25803823
0.27006997 0.57335513 0.26697618
0.59207711 0.57902340 0.25067244
0.79841070 0.57517658 0.25592732
0.92647250 0.55353955 0.28962823
0.03232559 0.71800569 0.26800313
0.28150213 0.75471655 0.27130776
0.58199329 0.76092116 0.26869875
0.78995304 0.77085965 0.28728682
0.94061990 0.75519536 0.31582122
0.05380825 0.95411889 0.27271583
0.29286979 0.96409360 0.28857948
0.59878442 0.95481031 0.32899608
0.78160341 0.94305940 0.34586829
0.99047560 0.94967078 0.42925333
0.00000000 0.00000000 0.54377054
0.25252202 0.00000000 0.57295387
0.54113444 0.00000000 0.56960684
0.77661968 0.03070378 0.56875306
0.93660951 0.07922370 0.56505874
0.00000000 0.26566963 0.54345680
0.26239713 0.28043398 0.57683611
0.60313418 0.28352995 0.59642501
0.80354736 0.28801915 0.58203521
0.94307079 0.34161086 0.57942817
0.00000000 0.54992253 0.56552311
0.26434819 0.57243004 0.59556461
0.59906970 0.58825094 0.59915417
0.79430201 0.58121612 0.58952658
0.93958317 0.59328019 0.58161815
0.04785347 0.70915254 0.55467647
0.32323167 0.76529828 0.59132676
0.59099456 0.77163443 0.58755128
0.79149857 0.77849558 0.58570780
0.94267438 0.76746340 0.59657930
0.05997644 0.93631094 0.55801460
0.33243427 0.94613187 0.58965282
0.60955960 0.94490382 0.59760103
0.78804897 0.94354625 0.59817403
0.99265574 0.94850671 0.64490611
0.00000000 0.03380331 0.72682471
0.26459332 0.03911638 0.75716706
0.53542869 0.03238618 0.74775208
0.78518234 0.05140523 0.79351486
0.96321725 0.08811786 0.80313912
0.00000000 0.26309415 0.72647468
0.25978980 0.28092529 0.76097450
0.59266030 0.28739321 0.78538266
0.80646735 0.29150064 0.79290382
0.96073088 0.37310703 0.77754167
0.00556178 0.53056332 0.75045118
0.29662176 0.55982769 0.77112807
0.58599370 0.57938251 0.78067080
0.79871370 0.61092602 0.79731682
0.95525215 0.62235685 0.79055596
0.11876647 0.73941058 0.76181286
0.40889970 0.76276546 0.78287055
0.62354320 0.77139472 0.78803534
0.79436285 0.78480290 0.79616356
0.94898965 0.78323038 0.79474850
0.13005424 0.92283503 0.75763279
0.42149549 0.94218397 0.77754020
0.64369035 0.94688957 0.78742074
0.79555059 0.94499368 0.79317165
0.98328115 0.94270635 0.79733605
0.11475003 0.11469261 0.83211768
0.27401966 0.11461772 0.86508688
0.57109430 0.12049839 0.88010029
0.75672544 0.13109952 0.91004292
0.93823880 0.28354892 0.94457340
0.10425263 0.31678752 0.87715324
0.27365875 0.32664352 0.90797631
0.59075844 0.35858450 0.91501730
0.78299057 0.37041964 0.92804368
0.99021079 0.42382161 0.94975966
0.11322030 0.51979631 0.87099195
0.33257359 0.55968336 0.89675189
0.59400179 0.58935905 0.91757503
0.78623065 0.61510501 0.93103340
1.00000000 0.66407325 0.95449838
0.30983037 0.73358739 0.90099047
0.54081888 0.75740702 0.91445688
0.64005787 0.76874670 0.92126448
0.80151217 0.80636626 0.93389917
0.99702382 0.82156858 0.96236708
0.50563532 0.92505050 0.93696809
0.62266002 0.92760936 0.94664022
0.76038413 0.93857876 0.97461711
0.83519097 0.94341134 0.98128016
1.00000000 1.00000000 1.00000000
