data/manual_verify/adaint_real.cube
TITLE "LocalColorService AdaInt FiveK sRGB"
LUT_3D_SIZE 9
DOMAIN_MIN 0.0 0.0 0.0
DOMAIN_MAX 1.0 1.0 1.0
0.00000000 0.00000000 0.00000000
0.01698380 0.00000000 0.00000000
0.21236789 0.00000000 0.00000000
0.32304004 0.00000000 0.00000000
0.42621279 0.00000000 0.00000000
0.57158808 0.00000000 0.00000000
0.70402394 0.00000000 0.00000000
0.82322278 0.00000000 0.00000000
0.91805732 0.01276914 0.00000000
0.00000000 0.04684824 0.00000000
0.04984433 0.08070400 0.00000000
0.23650995 0.08422366 0.00000000
0.39567982 0.08784036 0.00000000
0.49708033 0.09089820 0.00000000
0.59059758 0.09628968 0.00000000
0.71232112 0.10629841 0.00000000
0.82721374 0.12008861 0.00000000
0.91556868 0.13338976 0.00000000
0.00000000 0.24915216 0.00000000
0.04915169 0.25079900 0.00000000
0.26431840 0.26774093 0.00000000
0.40976512 0.26991358 0.00000000
0.55206466 0.28617376 0.00000000
0.66813879 0.29593963 0.00000000
0.73881421 0.29759251 0.00000000
0.82499138 0.29538047 0.00000000
0.89822380 0.30245941 0.00063650
0.00000000 0.38971828 0.00000000
0.05253774 0.39513492 0.00000000
0.25641569 0.40073048 0.00000000
0.42038798 0.41736550 0.00000000
0.56093292 0.42007537 0.00000000
0.68624985 0.43146180 0.00000000
0.77631019 0.43208851 0.00000000
0.82515152 0.43145738 0.00000000
0.89391157 0.43061785 0.00298650
0.00000000 0.52295962 0.00000000
0.05689652 0.52186211 0.00000000
0.25267854 0.52675151 0.00000000
0.41764172 0.54156704 0.00000000
0.56875650 0.54807365 0.00000000
0.68248646 0.54506953 0.00000000
0.78329002 0.54503072 0.00000000
0.84532317 0.54123698 0.00290063
0.89363738 0.53853116 0.00860095
0.00000000 0.62164654 0.00000000
0.09381971 0.62857549 0.00000000
0.27384404 0.63301128 0.00000000
0.41173818 0.63903623 0.00000000
0.56157199 0.65304635 0.00000000
0.68943080 0.67747118 0.00000000
0.79652997 0.67382574 0.00520250
0.85529719 0.65653668 0.01357644
0.89665157 0.65113600 0.02652124
0.00000000 0.70906260 0.00000000
0.11257159 0.73764976 0.00000000
0.27882010 0.74095193 0.00000000
0.41952778 0.74146115 0.00000000
0.56029024 0.74123313 0.00568956
0.67956890 0.75231608 0.01051228
0.78741760 0.76685992 0.02340020
0.85551317 0.75979816 0.04660299
0.90854921 0.74153631 0.04993684
0.02156343 0.80887573 0.01080201
0.13279379 0.84316030 0.01325846
0.28299249 0.84587787 0.01607104
0.43441915 0.84697533 0.02463373
0.56579398 0.84468765 0.03087342
0.67655607 0.84038723 0.03716096
0.78406514 0.84563593 0.05185528
0.87660740 0.85133008 0.09860928
0.93433915 0.83511268 0.09991023
0.03822421 0.95516098 0.02418279
0.15160093 0.96791547 0.02420928
0.28622758 0.97298428 0.03272418
0.44679053 0.97077223 0.04254820
0.57267199 0.96627527 0.05711899
0.68466596 0.95414684 0.08276870
0.77512136 0.93979963 0.08723880
0.86459855 0.93759708 0.10285545
0.97527200 0.94056833 0.15528801
0.00000000 0.00000000 0.05888710
0.01887868 0.00000000 0.05847028
0.21171997 0.00000000 0.05740941
0.36915157 0.00000000 0.06237352
0.50363173 0.00000000 0.07939016
0.61024863 0.00000000 0.09154843
0.72086326 0.00000000 0.09413325
0.83306563 0.00535260 0.10334602
0.92134561 0.01972987 0.13051443
0.00000000 0.07476698 0.08286809
0.07584674 0.09495901 0.08512274
0.28026424 0.08523176 0.07789785
0.44618677 0.07801612 0.07594193
0.57677300 0.08150180 0.07975356
0.68462686 0.08889334 0.08731016
0.77509544 0.10103923 0.10758765
0.84687374 0.12702524 0.13806913
0.91353217 0.14759650 0.17053827
0.00000000 0.25543896 0.06649661
0.06055631 0.27681512 0.06505183
0.28831786 0.28310580 0.06159172
0.44772692 0.28750598 0.06327362
0.57976529 0.29147126 0.06107796
0.70032887 0.29163345 0.06995772
0.78273818 0.29003092 0.09288863
0.84579949 0.29259748 0.12206241
0.91214383 0.31128214 0.16947088
0.00000000 0.40962443 0.05932998
0.05213915 0.41630479 0.05495582
0.28257708 0.43077497 0.04484934
0.46297862 0.44582402 0.04589258
0.59330677 0.44288355 0.04971683
0.69532101 0.44243458 0.06283038
0.79367408 0.43756479 0.08692356
0.85236536 0.43548046 0.12201817
0.91775398 0.43164466 0.17027387
0.00000000 0.54886064 0.05998613
0.05006746 0.54490315 0.05374024
0.27570889 0.54726994 0.04890229
0.44843807 0.56782725 0.04391042
0.59177806 0.57566085 0.05689638
0.70858459 0.57186695 0.06452687
0.79124628 0.57012086 0.09144590
0.85374775 0.56393330 0.11595458
0.92160703 0.55896641 0.16968876
0.00000000 0.62979009 0.07043424
0.09250120 0.63797632 0.06605579
0.27467048 0.64515130 0.06676711
0.44152394 0.65511306 0.07017793
0.57962243 0.66466906 0.07547482
0.70105239 0.68340157 0.08638458
0.79546539 0.68168004 0.10456439
0.86344484 0.67414098 0.12550325
0.92416265 0.66676753 0.17678773
0.02400477 0.71722192 0.10464471
0.11296543 0.73967743 0.09932883
0.27906156 0.74446672 0.09882113
0.44933866 0.74486026 0.09932244
0.58076737 0.74976555 0.10353685
0.69739416 0.76355034 0.13202520
0.79021137 0.76879963 0.14504747
0.86857487 0.76700750 0.18512547
0.92996638 0.75395252 0.20308559
0.03485080 0.83983202 0.14654728
0.12987092 0.84634628 0.14018117
0.28490100 0.84866942 0.13735972
0.45514762 0.84810924 0.13577842
0.58600946 0.84740254 0.13997868
0.69741355 0.84650943 0.14705203
0.78782282 0.84816347 0.18765994
0.87565190 0.85803865 0.25085161
0.94529426 0.83954097 0.26616672
0.04595585 0.96455544 0.16423089
0.14553390 0.97015821 0.15937514
0.29596806 0.97309804 0.15829305
0.46046942 0.97471618 0.15570164
0.59243035 0.96959577 0.15950690
0.70280492 0.95751297 0.17936333
0.78043803 0.94327990 0.19569986
0.86225412 0.94215185 0.25721615
0.98489572 0.94819886 0.32690937
0.00000000 0.00000000 0.25890311
0.03764613 0.00000000 0.27096482
0.22200429 0.00000000 0.26680598
0.36706311 0.00000000 0.26673098
0.52145604 0.00000000 0.26880027
0.65049034 0.00059557 0.27317445
0.76098312 0.02715963 0.27889383
0.84315118 0.04143722 0.27768500
0.91503040 0.07168046 0.27919645
0.00000000 0.10009720 0.28291213
0.05473215 0.09061342 0.28419694
0.28163170 0.08277014 0.28348164
0.44064792 0.07865170 0.28252996
0.58187693 0.07943032 0.28309258
0.69666850 0.09319069 0.28084048
0.77929893 0.09861140 0.27042155
0.85254970 0.12323462 0.27147468
0.92092801 0.15609670 0.27758151
0.00000000 0.26171671 0.27187792
0.04599456 0.28775459 0.28934824
0.29398482 0.29013675 0.28854665
0.45519076 0.28638075 0.28022469
0.58930460 0.28476100 0.27548782
0.70626902 0.28169900 0.26705284
0.79874525 0.28115111 0.26358952
0.85726268 0.29263701 0.27023910
0.92134777 0.31185756 0.28184563
0.00000000 0.40883400 0.26278770
0.03418436 0.43585168 0.27513474
0.27522650 0.44732765 0.26878287
0.46809430 0.44884952 0.26607598
0.59657505 0.44767722 0.26564648
0.70383290 0.44417985 0.26273944
0.79787142 0.43736418 0.26229343
0.86433346 0.43440531 0.27798257
0.92159086 0.43184361 0.28060582
0.00000000 0.54836547 0.25803823
0.04507889 0.56009963 0.26819861
0.27006997 0.57335513 0.26697618
0.45547143 0.57987627 0.25497143
0.59207711 0.57902340 0.25067244
0.71067415 0.57357767 0.24566996
0.79841070 0.57517658 0.25592732
0.86560553 0.56774940 0.27356078
0.92647250 0.55353955 0.28962823
0.01170839 0.63083945 0.26153364
0.08613693 0.65875017 0.26602389
0.27253809 0.66913547 0.26378107
0.44872560 0.66834257 0.25870560
0.58071242 0.67652411 0.25318080
0.70305957 0.68999441 0.25172822
0.79565136 0.68416178 0.25784823
0.86445096 0.67773135 0.27224671
0.93158738 0.66525583 0.28927000
0.03232559 0.71800569 0.26800313
0.10893715 0.74146492 0.26510858
0.28150213 0.75471655 0.27130776
0.45910418 0.75835954 0.27030530
0.58199329 0.76092116 0.26869875
0.69804488 0.76771011 0.27146974
0.78995304 0.77085965 0.28728682
0.87159748 0.77100999 0.29653267
0.94061990 0.75519536 0.31582122
0.04155282 0.83711836 0.27047891
0.12663380 0.84166992 0.26863413
0.29000654 0.84524903 0.27798331
0.46476373 0.84714440 0.28625108
0.59185906 0.84873045 0.28749746
0.69753710 0.84854995 0.28770248
0.78744614 0.85116963 0.31464958
0.87481055 0.85911548 0.35867201
0.94962386 0.84330827 0.36465984
0.05380825 0.95411889 0.27271583
0.13938134 0.95927165 0.27595820
0.29286979 0.96409360 0.28857948
0.47425042 0.96312134 0.30475293
0.59878442 0.95481031 0.32899608
0.70280814 0.94684900 0.33842734
0.78160341 0.94305940 0.34586829
0.86244376 0.94297594 0.37612927
0.99047560 0.94967078 0.42925333
0.00000000 0.00000000 0.38899660
0.05071501 0.00000000 0.44118722
0.23645134 0.00000000 0.43643301
0.40446795 0.00000000 0.43149242
0.52771134 0.00000000 0.43376667
0.65635284 0.01053225 0.43241934
0.77087989 0.03103386 0.42627610
0.84176489 0.05034405 0.42188139
0.92041589 0.08327549 0.42226857
0.00000000 0.10377129 0.41160799
0.05114480 0.09186291 0.43635476
0.28498478 0.07968975 0.43665851
0.45511695 0.07794207 0.44785791
0.58433392 0.08878516 0.44912988
0.70542990 0.09754023 0.44091108
0.78296518 0.11812135 0.42842357
0.85424075 0.12835233 0.43114579
0.93442070 0.15640290 0.43162180
0.00000000 0.26843820 0.42500401
0.02460826 0.28837625 0.46436067
0.26731572 0.28144987 0.46031961
0.46455965 0.28568874 0.46687716
0.59621705 0.28273761 0.46349139
0.71643250 0.28494884 0.45797114
0.80063412 0.28880324 0.44842577
0.86489920 0.29929632 0.44592003
0.93383837 0.32369349 0.43990920
0.00000000 0.41573360 0.44170776
0.02842752 0.44115667 0.45992455
0.26704432 0.44277696 0.46099758
0.46849382 0.45255807 0.46244556
0.59170070 0.44790320 0.45668521
0.70969352 0.45092622 0.45580990
0.80086950 0.44697740 0.44807480
0.86660406 0.44384389 0.44539680
0.93131486 0.46000404 0.43781607
0.00000000 0.55004546 0.43435769
0.05890575 0.56314926 0.45173688
0.26215266 0.57423874 0.45430101
0.45963880 0.58314192 0.45021656
0.60218685 0.58426005 0.44922127
0.70625235 0.57550381 0.44255166
0.79135881 0.57399144 0.44565469
0.86597118 0.57107459 0.44893729
0.92995891 0.55359676 0.43846383
0.01790603 0.63992847 0.42972200
0.10882581 0.65860549 0.44961994
0.28588995 0.67860364 0.45078601
0.45479117 0.68029044 0.44861530
0.58617098 0.68332104 0.44158760
0.70121989 0.68733358 0.43991128
0.79650716 0.68806338 0.44274594
0.86712850 0.68275738 0.44656018
0.93621896 0.66833134 0.44750582
0.03771709 0.71063623 0.42791385
0.12478196 0.74111029 0.45053376
0.29274768 0.76225279 0.45011788
0.46780450 0.76753114 0.44903395
0.58707064 0.76874292 0.44486593
0.69576130 0.77121981 0.44235113
0.78964005 0.77585174 0.44748645
0.87123569 0.77300570 0.45037937
0.94010754 0.76383840 0.46597065
0.04605960 0.83495836 0.42839930
0.13270879 0.84183798 0.44981698
0.29401147 0.84513727 0.45125597
0.47366727 0.84862914 0.45471247
0.59673139 0.85048921 0.45597328
0.70006892 0.85116608 0.45632292
0.78682621 0.85152241 0.46022772
0.87436187 0.85865452 0.48249584
0.95033812 0.84692967 0.48025544
0.05228844 0.94092356 0.43066128
0.14466304 0.95159053 0.45204267
0.30558639 0.95192672 0.46386719
0.48638661 0.94992976 0.46673842
0.60491705 0.94502822 0.47215980
0.70754991 0.94507909 0.47300429
0.78366383 0.94297572 0.47800116
0.86150546 0.94362854 0.49009302
0.99562703 0.95052175 0.53334922
0.00000000 0.00000000 0.54377054
0.05478983 0.00000000 0.57359216
0.25252202 0.00000000 0.57295387
0.42224736 0.00000000 0.56590519
0.54113444 0.00000000 0.56960684
0.65583309 0.00844297 0.57127803
0.77661968 0.03070378 0.56875306
0.85885732 0.04902509 0.56723968
0.93660951 0.07922370 0.56505874
0.00000000 0.09715578 0.53056355
0.04941852 0.08789494 0.55697468
0.27771780 0.08341427 0.57392602
0.45538289 0.08073360 0.57554025
0.58075871 0.08807588 0.57166702
0.71665771 0.09565641 0.57098875
0.79051162 0.12808344 0.55768297
0.86090441 0.14324860 0.55645387
0.94278399 0.15910758 0.55131293
0.00000000 0.26566963 0.54345680
0.02419618 0.27891112 0.55970419
0.26239713 0.28043398 0.57683611
0.46197825 0.28154121 0.58791793
0.60313418 0.28352995 0.59642501
0.71709318 0.28375734 0.58942252
0.80354736 0.28801915 0.58203521
0.86745732 0.30283415 0.57867443
0.94307079 0.34161086 0.57942817
0.00000000 0.41179451 0.56845715
0.02786363 0.43369779 0.58592909
0.25273365 0.44094409 0.59715701
0.45545991 0.44594435 0.59848075
0.59708603 0.45016794 0.60197441
0.71558345 0.46538920 0.60166451
0.80201672 0.46048344 0.59177102
0.87296479 0.46644518 0.58765099
0.94051909 0.47680314 0.58184176
0.00000000 0.54992253 0.56552311
0.08929075 0.55623164 0.57852119
0.26434819 0.57243004 0.59556461
0.45791921 0.57981265 0.59862694
0.59906970 0.58825094 0.59915417
0.70642622 0.58351376 0.59142495
0.79430201 0.58121612 0.58952658
0.86850811 0.58202215 0.58540844
0.93958317 0.59328019 0.58161815
0.02736094 0.64526455 0.56110474
0.15105210 0.65770415 0.57608735
0.30655905 0.67523731 0.58681051
0.45984132 0.68248559 0.59040633
0.58859770 0.68858173 0.58899766
0.70333889 0.68976150 0.58729263
0.79353564 0.68730166 0.58375637
0.86424829 0.68156964 0.58136342
0.93685554 0.67312632 0.58260295
0.04785347 0.70915254 0.55467647
0.15754432 0.75017278 0.57874942
0.32323167 0.76529828 0.59132676
0.48332404 0.77081382 0.58991265
0.59099456 0.77163443 0.58755128
0.69670912 0.77489576 0.58366270
0.79149857 0.77849558 0.58570780
0.86823775 0.77359633 0.58619512
0.94267438 0.76746340 0.59657930
0.05234456 0.82765692 0.55422601
0.15945527 0.83982607 0.57712219
0.32828061 0.84547131 0.58803657
0.48940298 0.84824061 0.59057054
0.59842566 0.85089852 0.59003802
0.70291104 0.85202427 0.58952837
0.78819418 0.85285850 0.59002778
0.87858942 0.86167645 0.60007197
0.94943355 0.84933022 0.60749325
0.05997644 0.93631094 0.55801460
0.16603478 0.94956800 0.58057172
0.33243427 0.94613187 0.58965282
0.50140405 0.94476015 0.59461689
0.60955960 0.94490382 0.59760103
0.70671839 0.94549281 0.59919616
0.78804897 0.94354625 0.59817403
0.86261767 0.94249561 0.59605350
0.99265574 0.94850671 0.64490611
0.00000000 0.00000000 0.65117387
0.06853210 0.00950913 0.67299767
0.27252533 0.00918493 0.67879870
0.42406447 0.00498938 0.66892573
0.54324986 0.00432369 0.67592702
0.65916142 0.01487321 0.69424173
0.78981503 0.03416805 0.69616054
0.86548739 0.05216867 0.69241504
0.95608242 0.07981517 0.69389515
0.00000000 0.09590919 0.63756309
0.05715253 0.09695921 0.65535391
0.26958528 0.09250633 0.67651739
0.44419962 0.08998468 0.69315721
0.57236436 0.09065302 0.69017176
0.70706783 0.10004747 0.68876934
0.79753987 0.13014983 0.68073783
0.86817981 0.15001942 0.67612294
0.95081438 0.17043127 0.66653200
0.00000000 0.26756250 0.65879171
0.03731135 0.27789367 0.65043759
0.25935512 0.27873601 0.68443416
0.45935682 0.28153249 0.69817245
0.59913647 0.28270161 0.70082318
0.71391776 0.28361375 0.69444764
0.80695621 0.28614240 0.69152820
0.87586900 0.30715688 0.68546397
0.95078271 0.36471520 0.67875550
0.00000000 0.40081755 0.66099043
0.03517196 0.43229690 0.68626178
0.24702004 0.43627428 0.69282492
0.45056210 0.44556462 0.69363026
0.59216797 0.45780993 0.71139425
0.71192717 0.46262152 0.71385554
0.80634732 0.46234931 0.70649634
0.87968451 0.46994947 0.70080626
0.94718446 0.48514099 0.69366831
0.00000000 0.53727393 0.66463877
0.10777028 0.55121951 0.68414552
0.27598931 0.56032655 0.69043253
0.45253959 0.57363010 0.70125356
0.58611262 0.58163682 0.70552462
0.70709058 0.59266161 0.70774550
0.80074993 0.60236794 0.70635097
0.87537772 0.60701841 0.70120828
0.94654192 0.61336278 0.69604190
0.04140094 0.63850176 0.66189569
0.17946889 0.65546529 0.67753800
0.32404041 0.67168015 0.68995779
0.47389451 0.68268729 0.70304356
0.59550355 0.69023564 0.70524014
0.70249372 0.69428764 0.70205634
0.79251621 0.69218329 0.69818563
0.86814123 0.69374542 0.69807689
0.94606361 0.69943184 0.69898147
0.06809957 0.73511134 0.65629140
0.18766628 0.75694636 0.68234696
0.35899804 0.76435708 0.69380833
0.50312294 0.76945158 0.70313758
0.59758130 0.77166450 0.70077423
0.69771069 0.77533589 0.70117956
0.79279101 0.77821029 0.69863428
0.86838251 0.77940285 0.70081569
0.94109734 0.77052645 0.69803119
0.06883263 0.82867023 0.65584383
0.19144228 0.84297979 0.68236510
0.37031241 0.84845659 0.69394781
0.51516262 0.85129687 0.70088149
0.60714737 0.85320251 0.70188023
0.70502512 0.85417094 0.70145551
0.78877176 0.85594043 0.70192771
0.88600519 0.86736888 0.70821212
0.94811850 0.84931583 0.70137827
0.07481098 0.93003656 0.65855183
0.19707678 0.94410054 0.68163633
0.37683969 0.94478623 0.69260355
0.52194793 0.94285449 0.69766676
0.61713000 0.94466802 0.69978428
0.71021160 0.94588168 0.70142492
0.79117412 0.94460142 0.70317396
0.86687033 0.94258700 0.70316951
0.98792503 0.94235181 0.72030079
0.00000000 0.03380331 0.72682471
0.09665976 0.04287743 0.75067281
0.26459332 0.03911638 0.75716706
0.41475163 0.03381798 0.75424254
0.53542869 0.03238618 0.74775208
0.64589848 0.03613437 0.76866430
0.78518234 0.05140523 0.79351486
0.86711921 0.07249672 0.79908267
0.96321725 0.08811786 0.80313912
0.00000000 0.10366573 0.73506618
0.08486292 0.14227674 0.75355537
0.26689249 0.14700141 0.76527937
0.44522097 0.14589526 0.77965627
0.57331286 0.14486619 0.78564834
0.70319629 0.14774328 0.79164746
0.80286215 0.15053770 0.79050966
0.87475619 0.15715027 0.78748257
0.95887663 0.17774889 0.77254342
0.00000000 0.26309415 0.72647468
0.07390266 0.28048230 0.74810711
0.25978980 0.28092529 0.76097450
0.45505929 0.28200215 0.77222050
0.59266030 0.28739321 0.78538266
0.71007115 0.28873300 0.79217463
0.80646735 0.29150064 0.79290382
0.88335370 0.30556507 0.79067995
0.96073088 0.37310703 0.77754167
0.00000000 0.39379080 0.74425494
0.08241524 0.43510757 0.75194464
0.25491034 0.43891063 0.75812945
0.45279508 0.44605491 0.77316260
0.59289202 0.45869903 0.78411458
0.70761087 0.46251691 0.79083273
0.80517141 0.46605544 0.79455759
0.88559843 0.47144265 0.79523334
0.95820645 0.50311276 0.78382958
0.00556178 0.53056332 0.75045118
0.12162000 0.55505341 0.76893927
0.29662176 0.55982769 0.77112807
0.45259898 0.57395959 0.77558115
0.58599370 0.57938251 0.78067080
0.70164497 0.60225428 0.79186562
0.79871370 0.61092602 0.79731682
0.88212856 0.61636219 0.79845030
0.95525215 0.62235685 0.79055596
0.08930356 0.63109978 0.76106103
0.27666060 0.65475356 0.78021949
0.39460152 0.67030967 0.78233520
0.50935185 0.68051191 0.78126898
0.59409424 0.68631324 0.78780270
0.69880901 0.69420402 0.79410829
0.79504693 0.69856896 0.79498056
0.87600872 0.71883993 0.79647645
0.95723906 0.72670866 0.79530140
0.11876647 0.73941058 0.76181286
0.28374179 0.75962033 0.77913769
0.40889970 0.76276546 0.78287055
0.52599870 0.76779623 0.78800608
0.62354320 0.77139472 0.78803534
0.70236475 0.77565327 0.79347899
0.79436285 0.78480290 0.79616356
0.86996715 0.78438512 0.79342903
0.94898965 0.78323038 0.79474850
0.12069543 0.83094181 0.75825554
0.28332583 0.84435587 0.77725965
0.41442546 0.84713284 0.78411526
0.53927243 0.85217487 0.79015352
0.64339030 0.85460591 0.79302986
0.71045617 0.85636169 0.79311177
0.79388226 0.85908605 0.79492141
0.89031144 0.87726030 0.80459610
0.94711001 0.86728712 0.79765115
0.13005424 0.92283503 0.75763279
0.28518888 0.94129994 0.77567310
0.42149549 0.94218397 0.77754020
0.54273190 0.94584544 0.78341086
0.64369035 0.94688957 0.78742074
0.71578251 0.94626853 0.78990101
0.79555059 0.94499368 0.79317165
0.87332089 0.94401302 0.79744899
0.98328115 0.94270635 0.79733605
0.01981349 0.06380079 0.78033084
0.15077634 0.06724215 0.79656705
0.26957566 0.06434138 0.80878597
0.41812761 0.05945138 0.81521753
0.53807439 0.06014780 0.82364114
0.63764614 0.06237392 0.82545721
0.77381266 0.07735546 0.85416593
0.87056804 0.12384493 0.86899285
0.96426446 0.13456237 0.87943503
0.00663457 0.15135629 0.80459492
0.12938447 0.16420399 0.82630670
0.26882814 0.19695224 0.83257247
0.44605530 0.19945343 0.83986820
0.57202345 0.20225800 0.84733469
0.69871237 0.20511448 0.85267328
0.79884309 0.21680971 0.86240232
0.87930393 0.23245489 0.86864477
0.96869478 0.22756818 0.85388112
0.01029137 0.28725308 0.80782573
0.12278475 0.28999228 0.82677468
0.26621550 0.28891482 0.83117842
0.45639297 0.29409676 0.83334222
0.58943260 0.31463433 0.84109316
0.70335758 0.32325222 0.85309539
0.79888473 0.32751839 0.86255025
0.88235829 0.33507604 0.86881177
0.97339947 0.37238608 0.86081278
0.02848415 0.39539782 0.79991937
0.14152089 0.43511792 0.81686724
0.26595568 0.44170584 0.82656533
0.45659369 0.44923579 0.83661611
0.58972723 0.45950272 0.84302136
0.70111670 0.46505690 0.84772113
0.79669742 0.47186452 0.85792981
0.88146937 0.47804374 0.86458733
0.97509846 0.51804409 0.86780577
0.07983968 0.53123396 0.81353918
0.22134362 0.55554769 0.82209123
0.32524205 0.55843343 0.82172202
0.45567775 0.57051654 0.83382131
0.58673670 0.58393050 0.83836158
0.70214921 0.61333754 0.84937018
0.79375587 0.61388231 0.85872344
0.88151844 0.62379829 0.86571347
0.97304756 0.64298600 0.86814857
0.15113704 0.63015997 0.82086290
0.32526100 0.65600672 0.83221488
0.43341697 0.67580736 0.83305903
0.50879509 0.67387031 0.83505018
0.59680393 0.68302140 0.84474244
0.69687770 0.69131744 0.84789041
0.79241205 0.70485146 0.86208713
0.88051198 0.72456807 0.87150595
0.96709780 0.73102995 0.87281298
0.27446647 0.73747109 0.84119422
0.41122049 0.75886199 0.85287678
0.53407617 0.76927174 0.85955912
0.57681512 0.77091508 0.85795991
0.64570740 0.77378663 0.85602296
0.70411991 0.77689809 0.85874249
0.79439253 0.79503283 0.86827165
0.87959884 0.79809753 0.87554370
0.96364157 0.81571354 0.88438180
0.29145850 0.83937365 0.85037593
0.41826856 0.84800543 0.86389331
0.54360134 0.84921174 0.87082054
0.62975815 0.85253876 0.87880094
0.69012429 0.85779892 0.88494767
0.74719315 0.86298505 0.88584751
0.81174962 0.86934378 0.89066074
0.91259107 0.90938226 0.91539708
0.95527541 0.89135497 0.89144727
0.29885010 0.91994754 0.84784969
0.41665047 0.94070834 0.86171895
0.55057123 0.94026069 0.86566871
0.64714273 0.94581598 0.87269768
0.69854883 0.94589151 0.88064294
0.75518526 0.94880981 0.88445338
0.81018453 0.94747729 0.88751016
0.88871614 0.94892660 0.89620243
0.98857421 0.95481853 0.88444498
0.11475003 0.11469261 0.83211768
0.18746523 0.11881493 0.85786204
0.27401966 0.11461772 0.86508688
0.43329467 0.11445948 0.87703016
0.57109430 0.12049839 0.88010029
0.65337605 0.12828432 0.89200758
0.75672544 0.13109952 0.91004292
0.85598960 0.14877500 0.92284307
0.93823880 0.28354892 0.94457340
0.10395214 0.17981399 0.87437800
0.16184366 0.19728318 0.91304205
0.27467066 0.23942697 0.91092102
0.45430059 0.25441174 0.91586881
0.57898558 0.26009527 0.91807942
0.69481427 0.26140902 0.92091538
0.77918236 0.25643993 0.92591069
0.86548174 0.26555790 0.94279163
0.96948163 0.33387264 0.94994016
0.10425263 0.31678752 0.87715324
0.17172413 0.32658722 0.90908272
0.27365875 0.32664352 0.90797631
0.46302228 0.33670021 0.90937034
0.59075844 0.35858450 0.91501730
0.69904810 0.37479720 0.92273004
0.78299057 0.37041964 0.92804368
0.86567504 0.37821230 0.94179077
0.99021079 0.42382161 0.94975966
0.10288693 0.43156855 0.87298819
0.18212081 0.43670709 0.89681559
0.27801405 0.44385730 0.90197766
0.46445551 0.44988010 0.91064833
0.58822006 0.45685190 0.91721824
0.69262519 0.46899491 0.92067552
0.78161984 0.47300030 0.92717742
0.86580516 0.49104186 0.93907774
1.00000000 0.53414363 0.95435352
0.11322030 0.51979631 0.87099195
0.29353824 0.54963309 0.89290446
0.33257359 0.55968336 0.89675189
0.47429641 0.57036566 0.91044743
0.59400179 0.58935905 0.91757503
0.69581950 0.60730526 0.92410028
0.78623065 0.61510501 0.93103340
0.86497279 0.62753883 0.93615017
1.00000000 0.66407325 0.95449838
0.22322553 0.63293571 0.88345709
0.34556606 0.65159604 0.89677937
0.43616994 0.65728895 0.89487018
0.52991880 0.67183427 0.91003279
0.60306709 0.68027644 0.91748502
0.70721401 0.70803733 0.92467533
0.79527599 0.73260935 0.93151816
0.86892375 0.72993303 0.93905371
1.00000000 0.74496336 0.95434022
0.30983037 0.73358739 0.90099047
0.45132999 0.74981262 0.90870226
0.54081888 0.75740702 0.91445688
0.57019709 0.75643038 0.91214768
0.64005787 0.76874670 0.92126448
0.72405078 0.79735248 0.92750967
0.80151217 0.80636626 0.93389917
0.87733550 0.81628148 0.94172945
0.99702382 0.82156858 0.96236708
0.42781464 0.82828461 0.92252751
0.55497980 0.83344803 0.93556835
0.60687328 0.83944258 0.93618103
0.65568870 0.84411097 0.93710256
0.68628653 0.84380172 0.93650377
0.74023292 0.85009097 0.93660195
0.80644043 0.86859051 0.94160311
0.89108843 0.89503325 0.94886396
0.98741636 0.89265619 0.96517519
0.50563532 0.92505050 0.93696809
0.58716667 0.92672390 0.94558155
0.62266002 0.92760936 0.94664022
0.71385043 0.93469631 0.96035158
0.76038413 0.93857876 0.97461711
0.78854567 0.93951688 0.97558462
0.83519097 0.94341134 0.98128016
0.89078243 0.94913211 0.98686837
1.00000000 1.00000000 1.00000000
