data/manual_verify/v02_test.cube
# Generated by Local Color Service V0.1.3 using OpenColorIO Baker
# Recipe Hash: 9fd8238d9395baa2b975c522cb6233069a433bb9a3bc8ae9a3b79b25a4142334
# OCIO Config: studio-config-v4.0.0_aces-v2.0_ocio-v2.5
LUT_3D_SIZE 9
-0.001312 -0.001344 -0.001362
0.115969 -0.001321 -0.001338
0.241573 -0.001056 -0.001225
0.365885 -0.000655 -0.001079
0.493080 -0.000872 -0.000873
0.620865 -0.001383 -0.000680
0.748501 -0.001850 -0.000746
0.875769 -0.002195 -0.001019
1.002608 -0.002365 -0.001288
-0.001199 0.116159 -0.001264
0.116959 0.116362 -0.001240
0.241754 0.118101 -0.001126
0.367507 0.116839 -0.000953
0.494474 0.114332 -0.000779
0.621930 0.111047 -0.000623
0.749329 0.107779 -0.000783
0.876426 0.105327 -0.001053
1.003143 0.104290 -0.001318
-0.000284 0.242648 -0.000780
0.119715 0.242819 -0.000762
0.244994 0.243213 -0.000703
0.371077 0.243447 -0.000626
0.497827 0.243423 -0.000544
0.624920 0.243200 -0.000708
0.751900 0.242940 -0.000946
0.878626 0.242839 -0.001199
1.005029 0.243105 -0.001444
-0.000564 0.370126 -0.000621
0.119826 0.370222 -0.000629
0.247698 0.370526 -0.000668
0.374375 0.370887 -0.000749
0.501281 0.371184 -0.000879
0.628269 0.371407 -0.001052
0.755053 0.371631 -0.001255
0.881549 0.371944 -0.001469
1.007707 0.372446 -0.001676
-0.000170 0.498163 -0.001153
0.124369 0.498222 -0.001160
0.251120 0.498436 -0.001192
0.377736 0.498748 -0.001257
0.504617 0.499071 -0.001359
0.631475 0.499380 -0.001493
0.758142 0.499695 -0.001648
0.884521 0.500057 -0.001812
1.010554 0.500519 -0.001966
0.062516 0.626006 -0.001641
0.135740 0.626045 -0.001646
0.256779 0.626193 -0.001670
0.382064 0.626432 -0.001719
0.508305 0.626713 -0.001793
0.634796 0.627005 -0.001889
0.761238 0.627306 -0.001998
0.887464 0.627636 -0.002109
1.013379 0.628027 -0.002209
0.103749 0.753350 -0.001940
0.155122 0.753377 -0.001944
0.266035 0.753483 -0.001962
0.388087 0.753667 -0.001996
0.512896 0.753902 -0.002047
0.638617 0.754159 -0.002113
0.764597 0.754430 -0.002185
0.890527 0.754720 -0.002255
1.016245 0.755050 -0.002311
0.142206 0.880136 -0.001962
0.180255 0.880155 -0.001965
0.279128 0.880234 -0.001977
0.396327 0.880378 -0.002000
0.518843 0.880570 -0.002033
0.643295 0.880791 -0.002073
0.768499 0.881030 -0.002113
0.893928 0.881283 -0.002145
1.019308 0.881563 -0.002158
0.179916 1.006341 -0.001603
0.209254 1.006356 -0.001605
0.296100 1.006418 -0.001612
0.407143 1.006531 -0.001624
0.526498 1.006689 -0.001640
0.649136 1.006877 -0.001657
0.773203 1.007087 -0.001669
0.897880 1.007311 -0.001666
1.022756 1.007555 -0.001639
-0.001297 -0.001333 0.115045
0.116096 -0.001310 0.115257
0.241540 -0.001043 0.116229
0.366027 -0.000650 0.117462
0.493319 -0.000879 0.117573
0.621135 -0.001385 0.116770
0.748736 -0.001850 0.115503
0.875966 -0.002194 0.113949
1.002773 -0.002364 0.112329
-0.001184 0.116258 0.115902
0.117087 0.116460 0.116111
0.241779 0.118098 0.117083
0.367665 0.116837 0.118145
0.494710 0.114352 0.117691
0.622187 0.111092 0.116737
0.749551 0.107827 0.115393
0.876613 0.105373 0.113804
1.003303 0.104333 0.112180
-0.000310 0.242767 0.118354
0.119610 0.242934 0.118385
0.245100 0.243322 0.118355
0.371259 0.243549 0.118016
0.498040 0.243516 0.117271
0.625121 0.243275 0.116123
0.752079 0.243001 0.114680
0.878786 0.242888 0.113083
1.005169 0.243146 0.111492
-0.000542 0.370241 0.116758
0.120054 0.370335 0.116732
0.247848 0.370632 0.116578
0.374518 0.370984 0.116159
0.501424 0.371269 0.115394
0.628408 0.371480 0.114291
0.755184 0.371693 0.112951
0.881671 0.371997 0.111482
1.007820 0.372491 0.110020
-0.000146 0.498246 0.113725
0.124571 0.498305 0.113687
0.251231 0.498516 0.113513
0.377833 0.498823 0.113119
0.504712 0.499140 0.112445
0.631570 0.499443 0.111508
0.758235 0.499751 0.110380
0.884611 0.500107 0.109177
1.010641 0.500562 0.108047
0.062972 0.626069 0.110576
0.135907 0.626107 0.110540
0.256868 0.626254 0.110383
0.382135 0.626490 0.110051
0.508372 0.626768 0.109522
0.634863 0.627056 0.108817
0.761304 0.627354 0.107987
0.887530 0.627680 0.107122
1.013444 0.628067 0.106345
0.103968 0.753398 0.108687
0.155251 0.753425 0.108656
0.266107 0.753531 0.108530
0.388142 0.753714 0.108276
0.512947 0.753946 0.107885
0.638666 0.754202 0.107379
0.764645 0.754471 0.106813
0.890576 0.754758 0.106272
1.016294 0.755084 0.105873
0.142336 0.880175 0.109074
0.180354 0.880194 0.109055
0.279186 0.880273 0.108969
0.396370 0.880416 0.108801
0.518882 0.880607 0.108556
0.643333 0.880827 0.108260
0.768537 0.881063 0.107968
0.893965 0.881316 0.107761
1.019346 0.881593 0.107741
0.179999 1.006374 0.112758
0.209326 1.006388 0.112751
0.296148 1.006449 0.112707
0.407179 1.006562 0.112628
0.526530 1.006719 0.112527
0.649165 1.006908 0.112429
0.773232 1.007116 0.112390
0.897908 1.007340 0.112479
1.022785 1.007583 0.112784
-0.001020 -0.001273 0.238261
0.118410 -0.001250 0.238512
0.241885 -0.000978 0.239345
0.366609 -0.000607 0.240275
0.493935 -0.000890 0.241360
0.621712 -0.001391 0.242131
0.749272 -0.001851 0.242634
0.876461 -0.002191 0.242957
1.003230 -0.002358 0.243179
-0.000922 0.116748 0.239229
0.119127 0.116951 0.239496
0.242277 0.118168 0.240318
0.368243 0.116892 0.241193
0.495280 0.114410 0.241927
0.622734 0.111167 0.242472
0.750067 0.107921 0.242845
0.877095 0.105484 0.243090
1.003747 0.104459 0.243263
-0.000296 0.243045 0.241952
0.120000 0.243196 0.242086
0.245547 0.243549 0.242444
0.371727 0.243750 0.242810
0.498513 0.243697 0.243097
0.625588 0.243437 0.243289
0.752531 0.243146 0.243406
0.879216 0.243020 0.243474
1.005575 0.243267 0.243520
-0.000481 0.370503 0.243380
0.120687 0.370592 0.243429
0.248255 0.370874 0.243580
0.374896 0.371207 0.243746
0.501801 0.371473 0.243854
0.628783 0.371667 0.243886
0.755553 0.371862 0.243861
0.882031 0.372149 0.243805
1.008166 0.372629 0.243750
-0.000066 0.498478 0.243954
0.125258 0.498534 0.243972
0.251592 0.498738 0.244033
0.378141 0.499034 0.244099
0.505007 0.499338 0.244123
0.631861 0.499627 0.244092
0.758526 0.499920 0.244019
0.884900 0.500261 0.243929
1.010924 0.500703 0.243859
0.064683 0.626266 0.244161
0.136539 0.626303 0.244168
0.257194 0.626446 0.244188
0.382391 0.626676 0.244206
0.508605 0.626945 0.244199
0.635090 0.627225 0.244159
0.761531 0.627511 0.244095
0.887757 0.627826 0.244029
1.013671 0.628202 0.243997
0.104848 0.753566 0.244473
0.155776 0.753592 0.244475
0.266396 0.753694 0.244480
0.388356 0.753873 0.244483
0.513135 0.754101 0.244473
0.638846 0.754350 0.244449
0.764823 0.754612 0.244419
0.890755 0.754892 0.244406
1.016473 0.755210 0.244440
0.142880 0.880316 0.245316
0.180755 0.880336 0.245317
0.279429 0.880413 0.245321
0.396550 0.880553 0.245325
0.519035 0.880742 0.245328
0.643477 0.880957 0.245334
0.768678 0.881188 0.245353
0.894106 0.881435 0.245405
1.019488 0.881707 0.245519
0.180364 1.006495 0.247080
0.209624 1.006510 0.247082
0.296349 1.006570 0.247089
0.407328 1.006681 0.247105
0.526656 1.006836 0.247130
0.649281 1.007021 0.247172
0.773346 1.007226 0.247243
0.898021 1.007445 0.247361
1.022899 1.007685 0.247548
-0.000530 -0.001184 0.360281
0.121702 -0.001158 0.360727
0.242208 -0.000878 0.361979
0.367243 -0.000540 0.363597
0.494595 -0.000919 0.365326
0.622315 -0.001408 0.366689
0.749835 -0.001858 0.367772
0.876997 -0.002190 0.368651
1.003744 -0.002351 0.369389
-0.000481 0.117450 0.362066
0.118636 0.117913 0.362493
0.242817 0.118096 0.363633
0.368867 0.116795 0.364924
0.495880 0.114343 0.366143
0.623304 0.111157 0.367211
0.750610 0.107974 0.368119
0.877618 0.105593 0.368890
1.004253 0.104614 0.369559
-0.000315 0.243315 0.366036
0.120226 0.243441 0.366214
0.246031 0.243744 0.366741
0.372240 0.243916 0.367377
0.499023 0.243850 0.368007
0.626087 0.243584 0.368601
0.753020 0.243291 0.369152
0.879697 0.243165 0.369662
1.006046 0.243413 0.370142
-0.000399 0.370773 0.368541
0.121533 0.370854 0.368620
0.248785 0.371115 0.368888
0.375365 0.371428 0.369252
0.502253 0.371679 0.369622
0.629219 0.371862 0.369967
0.755984 0.372049 0.370289
0.882458 0.372327 0.370597
1.008590 0.372799 0.370904
0.018642 0.498741 0.370162
0.126383 0.498794 0.370200
0.252150 0.498988 0.370344
0.378582 0.499272 0.370560
0.505407 0.499563 0.370791
0.632243 0.499841 0.371013
0.758899 0.500125 0.371219
0.885271 0.500456 0.371422
1.011294 0.500887 0.371637
0.067729 0.626516 0.371312
0.137691 0.626552 0.371333
0.257760 0.626689 0.371415
0.382802 0.626910 0.371546
0.508959 0.627171 0.371700
0.635420 0.627441 0.371856
0.761852 0.627719 0.372009
0.888076 0.628024 0.372167
1.013989 0.628390 0.372345
0.106538 0.753797 0.372324
0.156781 0.753823 0.372336
0.266922 0.753923 0.372386
0.388726 0.754097 0.372473
0.513444 0.754317 0.372582
0.639129 0.754560 0.372704
0.765096 0.754814 0.372833
0.891025 0.755085 0.372978
1.016743 0.755395 0.373149
0.143952 0.880529 0.373469
0.181544 0.880547 0.373478
0.279897 0.880623 0.373511
0.396877 0.880761 0.373573
0.519305 0.880944 0.373658
0.643720 0.881153 0.373760
0.768909 0.881379 0.373879
0.894334 0.881619 0.374020
1.019714 0.881884 0.374193
0.181108 1.006688 0.374946
0.210237 1.006702 0.374952
0.296749 1.006761 0.374977
0.407617 1.006870 0.375026
0.526889 1.007022 0.375097
0.649490 1.007203 0.375190
0.773542 1.007402 0.375305
0.898212 1.007618 0.375448
1.023092 1.007851 0.375630
0.013224 -0.001052 0.482864
0.120248 -0.000977 0.483365
0.242628 -0.000739 0.484839
0.368126 -0.000558 0.486966
0.495377 -0.000964 0.489076
0.622986 -0.001436 0.490833
0.750429 -0.001870 0.492297
0.877542 -0.002188 0.493531
1.004258 -0.002340 0.494594
-0.000379 0.118182 0.485288
0.118188 0.118204 0.485720
0.243522 0.117896 0.486979
0.369638 0.116571 0.488531
0.496582 0.114173 0.490077
0.623931 0.111079 0.491492
0.751178 0.108001 0.492747
0.878146 0.105712 0.493851
1.004755 0.104810 0.494827
-0.000320 0.243590 0.489971
0.120672 0.243686 0.490168
0.246677 0.243929 0.490791
0.372869 0.244064 0.491605
0.499609 0.243984 0.492461
0.626628 0.243716 0.493309
0.753526 0.243430 0.494126
0.880181 0.243313 0.494903
1.006515 0.243571 0.495638
-0.000262 0.371044 0.493202
0.122846 0.371115 0.493299
0.249517 0.371349 0.493642
0.375959 0.371638 0.494133
0.502784 0.371871 0.494668
0.629700 0.372046 0.495202
0.756436 0.372229 0.495726
0.882894 0.372505 0.496239
1.009017 0.372975 0.496746
0.033533 0.499003 0.495481
0.128115 0.499053 0.495533
0.252956 0.499234 0.495730
0.379170 0.499501 0.496041
0.505900 0.499780 0.496399
0.632681 0.500049 0.496766
0.759309 0.500326 0.497130
0.885666 0.500650 0.497490
1.011682 0.501076 0.497855
0.072303 0.626769 0.497185
0.139506 0.626803 0.497216
0.258614 0.626934 0.497335
0.383379 0.627146 0.497537
0.509418 0.627398 0.497786
0.635822 0.627659 0.498053
0.762224 0.627930 0.498325
0.888432 0.628229 0.498600
1.014339 0.628588 0.498884
0.109249 0.754043 0.498590
0.158403 0.754068 0.498609
0.267749 0.754164 0.498686
0.389273 0.754332 0.498822
0.513871 0.754547 0.499001
0.639497 0.754782 0.499203
0.765433 0.755029 0.499417
0.891346 0.755294 0.499642
1.017057 0.755598 0.499881
0.145750 0.880766 0.499907
0.182862 0.880785 0.499920
0.280653 0.880858 0.499972
0.397385 0.880991 0.500068
0.519698 0.881169 0.500201
0.644054 0.881374 0.500360
0.769213 0.881593 0.500538
0.894621 0.881828 0.500731
1.019994 0.882087 0.500945
0.182385 1.006914 0.501308
0.211286 1.006928 0.501318
0.297425 1.006985 0.501355
0.408082 1.007092 0.501427
0.527249 1.007240 0.501531
0.649792 1.007417 0.501662
0.773815 1.007612 0.501814
0.898469 1.007821 0.501988
1.023342 1.008050 0.502186
-0.000206 -0.000812 0.605528
0.119395 -0.000754 0.606002
0.243419 -0.000560 0.607623
0.369335 -0.000634 0.610015
0.496369 -0.001019 0.612330
0.623800 -0.001465 0.614359
0.751114 -0.001878 0.616106
0.878141 -0.002178 0.617611
1.004799 -0.002317 0.618922
-0.000405 0.118077 0.608348
0.118867 0.118040 0.608738
0.244634 0.117622 0.610000
0.370680 0.116287 0.611689
0.497479 0.113971 0.613454
0.624691 0.111005 0.615123
0.751831 0.108077 0.616640
0.878725 0.105913 0.617996
1.005285 0.105122 0.619206
-0.000208 0.243883 0.613417
0.122071 0.243952 0.613615
0.247723 0.244131 0.614284
0.373741 0.244227 0.615217
0.500363 0.244131 0.616241
0.627280 0.243864 0.617281
0.754104 0.243588 0.618301
0.880706 0.243488 0.619278
1.007004 0.243764 0.620205
0.008683 0.371333 0.617191
0.125192 0.371393 0.617299
0.250654 0.371597 0.617688
0.376794 0.371855 0.618269
0.503473 0.372070 0.618926
0.630283 0.372236 0.619601
0.756952 0.372417 0.620275
0.883368 0.372695 0.620939
1.009463 0.373167 0.621593
0.047261 0.499272 0.619969
0.130915 0.499317 0.620031
0.254201 0.499484 0.620266
0.380013 0.499732 0.620645
0.506552 0.499996 0.621096
0.633222 0.500255 0.621571
0.759784 0.500526 0.622049
0.886100 0.500846 0.622524
1.012092 0.501270 0.622999
0.079031 0.627023 0.622090
0.142380 0.627054 0.622128
0.259936 0.627177 0.622276
0.384218 0.627379 0.622529
0.510043 0.627620 0.622850
0.636333 0.627873 0.623200
0.762668 0.628137 0.623560
0.888835 0.628431 0.623923
1.014718 0.628787 0.624290
0.113437 0.754289 0.623808
0.160954 0.754312 0.623833
0.269029 0.754404 0.623930
0.390083 0.754565 0.624105
0.514467 0.754772 0.624337
0.639978 0.755001 0.624603
0.765848 0.755242 0.624885
0.891721 0.755503 0.625176
1.017408 0.755801 0.625476
0.148591 0.881006 0.625314
0.184957 0.881023 0.625330
0.281838 0.881095 0.625398
0.398151 0.881223 0.625522
0.520260 0.881396 0.625695
0.644506 0.881595 0.625902
0.769600 0.881810 0.626129
0.894970 0.882039 0.626371
1.020319 0.882294 0.626627
0.184420 1.007149 0.626759
0.212951 1.007163 0.626770
0.298484 1.007218 0.626819
0.408790 1.007322 0.626912
0.527773 1.007466 0.627044
0.650215 1.007638 0.627209
0.774174 1.007829 0.627397
0.898791 1.008034 0.627605
1.023643 1.008258 0.627829
-0.000208 -0.000536 0.728054
0.120425 -0.000493 0.728521
0.245128 -0.000467 0.730206
0.370959 -0.000710 0.732544
0.497664 -0.001069 0.734941
0.624830 -0.001485 0.737152
0.751953 -0.001871 0.739118
0.878847 -0.002150 0.740849
1.005413 -0.002272 0.742376
-0.000177 0.117943 0.730950
0.121553 0.117862 0.731297
0.246464 0.117363 0.732502
0.372140 0.116044 0.734237
0.498669 0.113840 0.736136
0.625659 0.111035 0.737993
0.752631 0.108304 0.739720
0.879408 0.106295 0.741290
1.005883 0.105647 0.742706
0.024816 0.244215 0.736194
0.125245 0.244262 0.736386
0.249442 0.244383 0.737067
0.375008 0.244440 0.738077
0.501391 0.244325 0.739230
0.628120 0.244061 0.740429
0.754814 0.243802 0.741621
0.881324 0.243724 0.742775
1.007556 0.244025 0.743873
0.042683 0.371657 0.740402
0.129171 0.371707 0.740514
0.252454 0.371879 0.740930
0.378017 0.372105 0.741576
0.504418 0.372297 0.742331
0.631042 0.372455 0.743126
0.757589 0.372635 0.743930
0.883924 0.372916 0.744730
1.009964 0.373392 0.745517
0.062067 0.499563 0.743609
0.135288 0.499602 0.743677
0.256118 0.499752 0.743940
0.381245 0.499978 0.744372
0.507453 0.500226 0.744900
0.633933 0.500475 0.745467
0.760375 0.500739 0.746046
0.886614 0.501057 0.746624
1.012554 0.501479 0.747201
0.088243 0.627284 0.746106
0.146720 0.627314 0.746148
0.261928 0.627427 0.746319
0.385438 0.627616 0.746615
0.510914 0.627845 0.746996
0.637010 0.628090 0.747419
0.763227 0.628348 0.747858
0.889318 0.628638 0.748301
1.015151 0.628991 0.748746
0.119493 0.754535 0.748124
0.164763 0.754557 0.748152
0.270945 0.754645 0.748267
0.391264 0.754798 0.748475
0.515304 0.754997 0.748754
0.640625 0.755218 0.749076
0.766378 0.755453 0.749420
0.892177 0.755710 0.749774
1.017816 0.756005 0.750133
0.152794 0.881245 0.749840
0.188083 0.881262 0.749860
0.283611 0.881330 0.749941
0.399272 0.881454 0.750090
0.521058 0.881620 0.750299
0.645121 0.881814 0.750549
0.770103 0.882024 0.750824
0.895400 0.882248 0.751114
1.020703 0.882500 0.751414
0.187476 1.007384 0.751395
0.215469 1.007396 0.751410
0.300073 1.007450 0.751468
0.409833 1.007550 0.751580
0.528521 1.007691 0.751739
0.650795 1.007858 0.751937
0.774649 1.008044 0.752161
0.899196 1.008246 0.752404
1.024009 1.008467 0.752660
0.032595 -0.000414 0.850490
0.125280 -0.000438 0.850898
0.248108 -0.000547 0.852370
0.373121 -0.000772 0.854551
0.499342 -0.001103 0.856944
0.626139 -0.001485 0.859258
0.752998 -0.001839 0.861384
0.879706 -0.002093 0.863298
1.006139 -0.002194 0.865012
0.039663 0.117878 0.853063
0.126915 0.117772 0.853369
0.249265 0.117227 0.854489
0.374149 0.115956 0.856202
0.500243 0.113889 0.858164
0.626900 0.111279 0.860148
0.753635 0.108780 0.862037
0.880241 0.106961 0.863784
1.006591 0.106487 0.865381
0.052353 0.244611 0.858320
0.130859 0.244640 0.858502
0.252087 0.244716 0.859175
0.376815 0.244736 0.860225
0.502784 0.244599 0.861472
0.629221 0.244344 0.862798
0.755714 0.244106 0.864136
0.882082 0.244055 0.865443
1.008211 0.244388 0.866697
0.063692 0.372031 0.862864
0.135256 0.372071 0.862978
0.255163 0.372213 0.863405
0.379770 0.372405 0.864095
0.505712 0.372574 0.864928
0.632045 0.372724 0.865824
0.758404 0.372903 0.866743
0.884610 0.373190 0.867665
1.010561 0.373671 0.868576
0.078195 0.499886 0.866445
0.141623 0.499921 0.866517
0.258934 0.500052 0.866797
0.383001 0.500255 0.867270
0.508694 0.500485 0.867861
0.634880 0.500723 0.868508
0.761137 0.500981 0.869177
0.887251 0.501296 0.869851
1.013106 0.501717 0.870525
0.099910 0.627565 0.869284
0.152861 0.627591 0.869331
0.264788 0.627695 0.869518
0.387165 0.627871 0.869850
0.512117 0.628087 0.870282
0.637919 0.628322 0.870769
0.763951 0.628573 0.871279
0.889921 0.628859 0.871797
1.015671 0.629210 0.872318
0.127649 0.754792 0.871592
0.170111 0.754812 0.871624
0.273683 0.754894 0.871753
0.392937 0.755039 0.871990
0.516465 0.755228 0.872310
0.641498 0.755442 0.872684
0.767073 0.755671 0.873085
0.892752 0.755923 0.873498
1.018309 0.756215 0.873917
0.158654 0.881487 0.873533
0.192514 0.881503 0.873555
0.286142 0.881568 0.873648
0.400861 0.881686 0.873820
0.522167 0.881846 0.874062
0.645956 0.882034 0.874352
0.770766 0.882238 0.874673
0.895948 0.882459 0.875011
1.021174 0.882706 0.875358
0.191805 1.007617 0.875240
0.219044 1.007631 0.875256
0.302347 1.007682 0.875324
0.411316 1.007779 0.875452
0.529572 1.007913 0.875637
0.651586 1.008077 0.875867
0.775278 1.008260 0.876126
0.899717 1.008458 0.876406
1.024461 1.008674 0.876699
0.063804 -0.000473 0.972421
0.133812 -0.000496 0.972760
0.252241 -0.000598 0.974034
0.375944 -0.000803 0.976041
0.501480 -0.001103 0.978369
0.627784 -0.001449 0.980722
0.754299 -0.001768 0.982954
0.880762 -0.001995 0.985011
1.007017 -0.002073 0.986881
0.067113 0.118009 0.974667
0.135284 0.117890 0.974938
0.253245 0.117344 0.975964
0.376837 0.116151 0.977611
0.502280 0.114228 0.979581
0.628477 0.111854 0.981637
0.754891 0.109610 0.983643
0.881268 0.108013 0.985533
1.007449 0.107737 0.987283
0.075068 0.245103 0.979824
0.139111 0.245120 0.979994
0.255895 0.245160 0.980646
0.379301 0.245143 0.981709
0.504630 0.244990 0.983016
0.630646 0.244746 0.984438
0.756857 0.244534 0.985896
0.883025 0.244517 0.987337
1.009008 0.244886 0.988729
0.083854 0.372469 0.984618
0.143706 0.372500 0.984729
0.259006 0.372615 0.985159
0.382192 0.372774 0.985873
0.507445 0.372922 0.986764
0.633361 0.373064 0.987743
0.759451 0.373244 0.988763
0.885470 0.373538 0.989795
1.011290 0.374024 0.990821
0.095577 0.500254 0.988518
0.150138 0.500283 0.988593
0.262862 0.500397 0.988883
0.385404 0.500577 0.989384
0.510364 0.500788 0.990026
0.636131 0.501014 0.990741
0.762122 0.501266 0.991491
0.888057 0.501579 0.992253
1.013786 0.501999 0.993018
0.113749 0.627874 0.991670
0.160977 0.627898 0.991720
0.268703 0.627992 0.991922
0.389523 0.628153 0.992279
0.513739 0.628355 0.992754
0.639124 0.628579 0.993297
0.764894 0.628824 0.993872
0.890687 0.629106 0.994461
1.016314 0.629454 0.995055
0.137954 0.755065 0.994256
0.177200 0.755084 0.994291
0.277419 0.755160 0.994432
0.395219 0.755296 0.994692
0.518034 0.755475 0.995049
0.642661 0.755679 0.995468
0.767978 0.755902 0.995923
0.893485 0.756150 0.996393
1.018924 0.756440 0.996871
0.166331 0.881738 0.996428
0.198442 0.881754 0.996453
0.289599 0.881815 0.996555
0.403033 0.881927 0.996747
0.523671 0.882080 0.997018
0.647071 0.882260 0.997346
0.771636 0.882458 0.997712
0.896654 0.882675 0.998097
1.021764 0.882920 0.998492
0.197609 1.007856 0.998313
0.223894 1.007868 0.998332
0.305459 1.007917 0.998408
0.413346 1.008010 0.998553
0.530995 1.008140 0.998762
0.652648 1.008298 0.999022
0.776107 1.008476 0.999318
0.900390 1.008671 0.999637
1.025032 1.008884 0.999970
