data/manual_verify/v02_test.cube
# Generated by Local Color Service V0.1.3 using OpenColorIO Baker
# Recipe Hash: 9fd8238d9395baa2b975c522cb6233069a433bb9a3bc8ae9a3b79b25a4142334
# OCIO Config: studio-config-v4.0.0_aces-v2.0_ocio-v2.5
LUT_3D_SIZE 5
-0.001312 -0.001344 -0.001362
0.241573 -0.001056 -0.001225
0.493080 -0.000872 -0.000873
0.748501 -0.001850 -0.000746
1.002608 -0.002365 -0.001288
-0.000284 0.242648 -0.000780
0.244994 0.243213 -0.000703
0.497827 0.243423 -0.000544
0.751900 0.242940 -0.000946
1.005029 0.243105 -0.001444
-0.000170 0.498163 -0.001153
0.251120 0.498436 -0.001192
0.504617 0.499071 -0.001359
0.758142 0.499695 -0.001648
1.010554 0.500519 -0.001966
0.103749 0.753350 -0.001940
0.266035 0.753483 -0.001962
0.512896 0.753902 -0.002047
0.764597 0.754430 -0.002185
1.016245 0.755050 -0.002311
0.179916 1.006341 -0.001603
0.296100 1.006418 -0.001612
0.526498 1.006689 -0.001640
0.773203 1.007087 -0.001669
1.022756 1.007555 -0.001639
-0.001020 -0.001273 0.238261
0.241885 -0.000978 0.239345
0.493935 -0.000890 0.241360
0.749272 -0.001851 0.242634
1.003230 -0.002358 0.243179
-0.000296 0.243045 0.241952
0.245547 0.243549 0.242444
0.498513 0.243697 0.243097
0.752531 0.243146 0.243406
1.005575 0.243267 0.243520
-0.000066 0.498478 0.243954
0.251592 0.498738 0.244033
0.505007 0.499338 0.244123
0.758526 0.499920 0.244019
1.010924 0.500703 0.243859
0.104848 0.753566 0.244473
0.266396 0.753694 0.244480
0.513135 0.754101 0.244473
0.764823 0.754612 0.244419
1.016473 0.755210 0.244440
0.180364 1.006495 0.247080
0.296349 1.006570 0.247089
0.526656 1.006836 0.247130
0.773346 1.007226 0.247243
1.022899 1.007685 0.247548
0.013224 -0.001052 0.482864
0.242628 -0.000739 0.484839
0.495377 -0.000964 0.489076
0.750429 -0.001870 0.492297
1.004258 -0.002340 0.494594
-0.000320 0.243590 0.489971
0.246677 0.243929 0.490791
0.499609 0.243984 0.492461
0.753526 0.243430 0.494126
1.006515 0.243571 0.495638
0.033533 0.499003 0.495481
0.252956 0.499234 0.495730
0.505900 0.499780 0.496399
0.759309 0.500326 0.497130
1.011682 0.501076 0.497855
0.109249 0.754043 0.498590
0.267749 0.754164 0.498686
0.513871 0.754547 0.499001
0.765433 0.755029 0.499417
1.017057 0.755598 0.499881
0.182385 1.006914 0.501308
0.297425 1.006985 0.501355
0.527249 1.007240 0.501531
0.773815 1.007612 0.501814
1.023342 1.008050 0.502186
-0.000208 -0.000536 0.728054
0.245128 -0.000467 0.730206
0.497664 -0.001069 0.734941
0.751953 -0.001871 0.739118
1.005413 -0.002272 0.742376
0.024816 0.244215 0.736194
0.249442 0.244383 0.737067
0.501391 0.244325 0.739230
0.754814 0.243802 0.741621
1.007556 0.244025 0.743873
0.062067 0.499563 0.743609
0.256118 0.499752 0.743940
0.507453 0.500226 0.744900
0.760375 0.500739 0.746046
1.012554 0.501479 0.747201
0.119493 0.754535 0.748124
0.270945 0.754645 0.748267
0.515304 0.754997 0.748754
0.766378 0.755453 0.749420
1.017816 0.756005 0.750133
0.187476 1.007384 0.751395
0.300073 1.007450 0.751468
0.528521 1.007691 0.751739
0.774649 1.008044 0.752161
1.024009 1.008467 0.752660
0.063804 -0.000473 0.972421
0.252241 -0.000598 0.974034
0.501480 -0.001103 0.978369
0.754299 -0.001768 0.982954
1.007017 -0.002073 0.986881
0.075068 0.245103 0.979824
0.255895 0.245160 0.980646
0.504630 0.244990 0.983016
0.756857 0.244534 0.985896
1.009008 0.244886 0.988729
0.095577 0.500254 0.988518
0.262862 0.500397 0.988883
0.510364 0.500788 0.990026
0.762122 0.501266 0.991491
1.013786 0.501999 0.993018
0.137954 0.755065 0.994256
0.277419 0.755160 0.994432
0.518034 0.755475 0.995049
0.767978 0.755902 0.995923
1.018924 0.756440 0.996871
0.197609 1.007856 0.998313
0.305459 1.007917 0.998408
0.530995 1.008140 0.998762
0.776107 1.008476 0.999318
1.025032 1.008884 0.999970
