data/manual_verify/v02_test.cube
# Generated by Local Color Service V0.1.3 using OpenColorIO Baker
# Recipe Hash: 9fd8238d9395baa2b975c522cb6233069a433bb9a3bc8ae9a3b79b25a4142334
# OCIO Config: studio-config-v4.0.0_aces-v2.0_ocio-v2.5
LUT_3D_SIZE 33
-0.001312 -0.001344 -0.001362
-0.001061 -0.001343 -0.001362
0.009074 -0.001340 -0.001358
0.078002 -0.001333 -0.001350
0.115969 -0.001321 -0.001338
0.150620 -0.001305 -0.001321
0.181432 -0.001242 -0.001292
0.211262 -0.001151 -0.001259
0.241573 -0.001056 -0.001225
0.272263 -0.000957 -0.001190
0.303242 -0.000856 -0.001154
0.334461 -0.000755 -0.001117
0.365885 -0.000655 -0.001079
0.397478 -0.000562 -0.001040
0.429294 -0.000638 -0.000985
0.461173 -0.000752 -0.000928
0.493080 -0.000872 -0.000873
0.525011 -0.000997 -0.000821
0.556962 -0.001125 -0.000772
0.588919 -0.001255 -0.000725
0.620865 -0.001383 -0.000680
0.652799 -0.001508 -0.000637
0.684718 -0.001627 -0.000620
0.716621 -0.001742 -0.000680
0.748501 -0.001850 -0.000746
0.780356 -0.001951 -0.000813
0.812187 -0.002043 -0.000881
0.843992 -0.002125 -0.000950
0.875769 -0.002195 -0.001019
0.907521 -0.002256 -0.001088
0.939245 -0.002305 -0.001156
0.970941 -0.002342 -0.001223
1.002608 -0.002365 -0.001288
-0.001307 -0.001092 -0.001359
-0.001057 -0.001091 -0.001358
0.010222 -0.001087 -0.001354
0.078064 -0.001080 -0.001347
0.116005 -0.001068 -0.001335
0.150646 -0.001052 -0.001317
0.181380 -0.000988 -0.001289
0.211239 -0.000898 -0.001256
0.241571 -0.000802 -0.001222
0.272278 -0.000704 -0.001187
0.303270 -0.000604 -0.001151
0.334501 -0.000503 -0.001114
0.365934 -0.000404 -0.001076
0.397543 -0.000324 -0.001036
0.429366 -0.000415 -0.000979
0.461238 -0.000528 -0.000923
0.493139 -0.000646 -0.000869
0.525065 -0.000769 -0.000818
0.557012 -0.000896 -0.000769
0.588965 -0.001024 -0.000722
0.620908 -0.001151 -0.000677
0.652839 -0.001274 -0.000635
0.684755 -0.001393 -0.000620
0.716655 -0.001507 -0.000682
0.748533 -0.001614 -0.000747
0.780386 -0.001714 -0.000814
0.812215 -0.001805 -0.000882
0.844018 -0.001885 -0.000951
0.875794 -0.001955 -0.001020
0.907544 -0.002015 -0.001089
0.939266 -0.002064 -0.001157
0.970961 -0.002100 -0.001224
1.002628 -0.002123 -0.001289
-0.001290 -0.000010 -0.001344
-0.001039 -0.000009 -0.001343
0.013813 -0.000006 -0.001339
0.078328 0.003999 -0.001331
0.116160 0.009313 -0.001319
0.150757 0.012971 -0.001302
0.181165 0.021377 -0.001273
0.211145 0.027945 -0.001241
0.241567 0.033096 -0.001207
0.272344 0.037439 -0.001173
0.303393 0.041237 -0.001137
0.334673 0.044600 -0.001101
0.366148 0.047593 -0.001064
0.397851 0.046650 -0.001014
0.429658 0.043500 -0.000958
0.461504 0.039723 -0.000905
0.493383 0.035087 -0.000853
0.525290 0.029088 -0.000804
0.557220 0.020131 -0.000756
0.589157 -0.000037 -0.000711
0.621086 -0.000158 -0.000668
0.653004 -0.000276 -0.000627
0.684910 -0.000389 -0.000624
0.716799 -0.000498 -0.000687
0.748668 -0.000601 -0.000753
0.780513 -0.000697 -0.000820
0.812334 -0.000784 -0.000888
0.844129 -0.000861 -0.000956
0.875899 -0.000928 -0.001025
0.907643 -0.000985 -0.001094
0.939360 -0.001030 -0.001162
0.971051 -0.001064 -0.001229
1.002713 -0.001085 -0.001294
-0.001255 0.077918 -0.001313
-0.001004 0.077931 -0.001312
0.018573 0.077985 -0.001308
0.078857 0.078095 -0.001301
0.116471 0.078268 -0.001289
0.150839 0.078534 -0.001271
0.180763 0.079633 -0.001242
0.210980 0.080843 -0.001210
0.241580 0.082095 -0.001178
0.272498 0.083358 -0.001145
0.303659 0.084615 -0.001110
0.335066 0.085360 -0.001072
0.366710 0.084512 -0.001020
0.398422 0.083471 -0.000969
0.430186 0.082297 -0.000919
0.461994 0.080996 -0.000870
0.493838 0.079574 -0.000823
0.525713 0.078039 -0.000777
0.557613 0.076399 -0.000733
0.589524 0.074681 -0.000690
0.621428 0.072924 -0.000650
0.653325 0.071144 -0.000611
0.685211 0.069354 -0.000635
0.717082 0.067573 -0.000699
0.748932 0.065828 -0.000764
0.780761 0.064150 -0.000831
0.812568 0.062580 -0.000899
0.844350 0.061151 -0.000967
0.876108 0.059864 -0.001036
0.907841 0.058746 -0.001104
0.939548 0.057841 -0.001172
0.971228 0.057190 -0.001238
1.002881 0.056826 -0.001303
-0.001199 0.116159 -0.001264
-0.000948 0.116167 -0.001263
0.023731 0.116198 -0.001259
0.079680 0.116262 -0.001252
0.116959 0.116362 -0.001240
0.149979 0.116644 -0.001220
0.180213 0.117255 -0.001192
0.210799 0.117879 -0.001163
0.241754 0.118101 -0.001126
0.272991 0.117920 -0.001084
0.304378 0.117649 -0.001041
0.335897 0.117287 -0.000997
0.367507 0.116839 -0.000953
0.399177 0.116315 -0.000909
0.430900 0.115718 -0.000865
0.462668 0.115055 -0.000822
0.494474 0.114332 -0.000779
0.526313 0.113557 -0.000738
0.558179 0.112738 -0.000698
0.590056 0.111896 -0.000660
0.621930 0.111047 -0.000623
0.653798 0.110196 -0.000601
0.685658 0.109360 -0.000654
0.717502 0.108550 -0.000717
0.749329 0.107779 -0.000783
0.781136 0.107062 -0.000849
0.812922 0.106415 -0.000917
0.844685 0.105834 -0.000985
0.876426 0.105327 -0.001053
0.908143 0.104908 -0.001121
0.939835 0.104587 -0.001188
0.971502 0.104377 -0.001254
1.003143 0.104290 -0.001318
-0.000954 0.149076 -0.001165
-0.000702 0.149068 -0.001164
0.037443 0.149036 -0.001160
0.083314 0.148972 -0.001151
0.119169 0.148876 -0.001136
0.149992 0.148957 -0.001112
0.180671 0.149037 -0.001083
0.211557 0.149084 -0.001052
0.242644 0.149084 -0.001019
0.273904 0.149031 -0.000984
0.305295 0.148923 -0.000948
0.336806 0.148755 -0.000912
0.368393 0.148535 -0.000874
0.400036 0.148266 -0.000837
0.431729 0.147952 -0.000800
0.463464 0.147596 -0.000762
0.495237 0.147202 -0.000726
0.527043 0.146777 -0.000690
0.558877 0.146324 -0.000655
0.590722 0.145853 -0.000622
0.622564 0.145373 -0.000590
0.654404 0.144897 -0.000620
0.686233 0.144432 -0.000681
0.718048 0.143985 -0.000745
0.749847 0.143566 -0.000810
0.781628 0.143182 -0.000876
0.813390 0.142832 -0.000943
0.845131 0.142522 -0.001010
0.876851 0.142260 -0.001078
0.908548 0.142053 -0.001145
0.940222 0.141909 -0.001211
0.971871 0.141835 -0.001276
1.003495 0.141839 -0.001339
-0.000516 0.179852 -0.001032
-0.000264 0.179850 -0.001032
0.051595 0.179842 -0.001028
0.088698 0.179833 -0.001020
0.119755 0.179920 -0.001005
0.150484 0.180026 -0.000985
0.181330 0.180124 -0.000962
0.212329 0.180205 -0.000937
0.243494 0.180258 -0.000910
0.274793 0.180277 -0.000881
0.306208 0.180260 -0.000852
0.337725 0.180205 -0.000822
0.369305 0.180116 -0.000791
0.400934 0.179994 -0.000760
0.432609 0.179842 -0.000728
0.464324 0.179662 -0.000697
0.496074 0.179454 -0.000667
0.527856 0.179220 -0.000636
0.559665 0.178964 -0.000607
0.591482 0.178695 -0.000578
0.623298 0.178424 -0.000598
0.655107 0.178155 -0.000657
0.686906 0.177893 -0.000718
0.718692 0.177645 -0.000781
0.750464 0.177410 -0.000846
0.782218 0.177193 -0.000911
0.813955 0.176999 -0.000977
0.845673 0.176833 -0.001043
0.877371 0.176700 -0.001110
0.909046 0.176605 -0.001176
0.940700 0.176556 -0.001241
0.972329 0.176556 -0.001305
1.003935 0.176612 -0.001367
-0.000184 0.211060 -0.000904
0.014979 0.211068 -0.000903
0.056409 0.211103 -0.000899
0.088588 0.211168 -0.000891
0.119814 0.211257 -0.000879
0.150842 0.211359 -0.000864
0.181885 0.211465 -0.000846
0.213022 0.211562 -0.000825
0.244277 0.211644 -0.000804
0.275632 0.211706 -0.000781
0.307085 0.211744 -0.000757
0.338620 0.211756 -0.000732
0.370204 0.211745 -0.000707
0.401833 0.211710 -0.000682
0.433502 0.211652 -0.000656
0.465208 0.211572 -0.000630
0.496946 0.211473 -0.000605
0.528714 0.211355 -0.000580
0.560505 0.211221 -0.000559
0.592301 0.211081 -0.000592
0.624093 0.210939 -0.000648
0.655876 0.210797 -0.000706
0.687649 0.210656 -0.000766
0.719409 0.210520 -0.000828
0.751155 0.210392 -0.000891
0.782886 0.210277 -0.000955
0.814599 0.210178 -0.001020
0.846294 0.210101 -0.001085
0.877968 0.210048 -0.001150
0.909622 0.210025 -0.001215
0.941254 0.210035 -0.001278
0.972864 0.210083 -0.001341
1.004451 0.210171 -0.001402
-0.000284 0.242648 -0.000780
-0.000055 0.242655 -0.000780
0.054457 0.242685 -0.000776
0.087923 0.242740 -0.000770
0.119715 0.242819 -0.000762
0.151080 0.242914 -0.000750
0.182347 0.243017 -0.000736
0.213642 0.243119 -0.000720
0.244994 0.243213 -0.000703
0.276417 0.243296 -0.000685
0.307921 0.243362 -0.000666
0.339478 0.243412 -0.000646
0.371077 0.243447 -0.000626
0.402715 0.243464 -0.000605
0.434388 0.243466 -0.000585
0.466093 0.243452 -0.000564
0.497827 0.243423 -0.000544
0.529589 0.243382 -0.000553
0.561370 0.243328 -0.000602
0.593149 0.243267 -0.000654
0.624920 0.243200 -0.000708
0.656684 0.243131 -0.000765
0.688435 0.243063 -0.000824
0.720175 0.242998 -0.000884
0.751900 0.242940 -0.000946
0.783608 0.242892 -0.001009
0.815300 0.242857 -0.001072
0.846973 0.242838 -0.001135
0.878626 0.242839 -0.001199
0.910260 0.242862 -0.001262
0.941872 0.242913 -0.001324
0.973462 0.242993 -0.001384
1.005029 0.243105 -0.001444
-0.000386 0.274389 -0.000667
-0.000154 0.274395 -0.000667
0.052290 0.274420 -0.000665
0.087173 0.274468 -0.000660
0.119552 0.274537 -0.000654
0.151262 0.274624 -0.000645
0.182762 0.274721 -0.000635
0.214206 0.274822 -0.000623
0.245660 0.274922 -0.000609
0.277161 0.275015 -0.000595
0.308713 0.275100 -0.000581
0.340299 0.275174 -0.000565
0.371918 0.275236 -0.000550
0.403570 0.275287 -0.000534
0.435254 0.275325 -0.000522
0.466967 0.275351 -0.000542
0.498707 0.275364 -0.000583
0.530468 0.275366 -0.000628
0.562240 0.275357 -0.000676
0.594005 0.275342 -0.000727
0.625763 0.275323 -0.000780
0.657510 0.275303 -0.000835
0.689246 0.275284 -0.000892
0.720968 0.275267 -0.000951
0.752674 0.275256 -0.001011
0.784365 0.275254 -0.001071
0.816038 0.275261 -0.001133
0.847692 0.275283 -0.001194
0.879327 0.275320 -0.001256
0.910942 0.275376 -0.001316
0.942535 0.275453 -0.001376
0.974107 0.275555 -0.001435
1.005656 0.275684 -0.001492
-0.000482 0.306248 -0.000566
-0.000247 0.306253 -0.000566
0.050158 0.306274 -0.000564
0.086472 0.306315 -0.000561
0.119411 0.306375 -0.000556
0.151450 0.306452 -0.000550
0.183156 0.306542 -0.000543
0.214740 0.306638 -0.000534
0.246300 0.306736 -0.000524
0.277880 0.306832 -0.000514
0.309476 0.306923 -0.000505
0.341096 0.307008 -0.000509
0.372742 0.307085 -0.000531
0.404416 0.307153 -0.000561
0.436114 0.307211 -0.000595
0.467836 0.307259 -0.000632
0.499578 0.307297 -0.000672
0.531339 0.307325 -0.000716
0.563103 0.307346 -0.000762
0.594860 0.307363 -0.000811
0.626607 0.307377 -0.000862
0.658342 0.307391 -0.000915
0.690065 0.307405 -0.000970
0.721773 0.307422 -0.001027
0.753465 0.307444 -0.001084
0.785141 0.307472 -0.001143
0.816798 0.307510 -0.001202
0.848437 0.307559 -0.001261
0.880056 0.307621 -0.001320
0.911654 0.307700 -0.001378
0.943231 0.307796 -0.001436
0.974786 0.307912 -0.001492
1.006319 0.308052 -0.001547
-0.000547 0.338166 -0.000504
-0.000309 0.338171 -0.000504
0.048742 0.338189 -0.000505
0.086122 0.338224 -0.000507
0.119469 0.338277 -0.000511
0.151744 0.338345 -0.000517
0.183615 0.338427 -0.000526
0.215324 0.338516 -0.000537
0.246979 0.338610 -0.000551
0.278615 0.338704 -0.000567
0.310250 0.338797 -0.000587
0.341897 0.338887 -0.000610
0.373563 0.338971 -0.000635
0.405251 0.339048 -0.000664
0.436959 0.339118 -0.000697
0.468688 0.339181 -0.000732
0.500435 0.339235 -0.000771
0.532197 0.339282 -0.000813
0.563956 0.339324 -0.000857
0.595705 0.339362 -0.000904
0.627443 0.339399 -0.000953
0.659170 0.339436 -0.001004
0.690882 0.339473 -0.001057
0.722580 0.339513 -0.001111
0.754261 0.339558 -0.001166
0.785924 0.339608 -0.001222
0.817568 0.339667 -0.001279
0.849194 0.339735 -0.001335
0.880799 0.339815 -0.001392
0.912384 0.339909 -0.001447
0.943947 0.340018 -0.001502
0.975487 0.340144 -0.001556
1.007006 0.340290 -0.001608
-0.000564 0.370126 -0.000621
-0.000324 0.370130 -0.000621
0.048606 0.370145 -0.000622
0.086309 0.370176 -0.000625
0.119826 0.370222 -0.000629
0.152228 0.370283 -0.000636
0.184201 0.370356 -0.000644
0.215993 0.370438 -0.000655
0.247698 0.370526 -0.000668
0.279367 0.370618 -0.000684
0.311027 0.370710 -0.000703
0.342694 0.370800 -0.000724
0.374375 0.370887 -0.000749
0.406075 0.370970 -0.000777
0.437793 0.371047 -0.000808
0.469529 0.371119 -0.000842
0.501281 0.371184 -0.000879
0.533042 0.371244 -0.000919
0.564794 0.371300 -0.000961
0.596538 0.371354 -0.001006
0.628269 0.371407 -0.001052
0.659989 0.371460 -0.001101
0.691693 0.371514 -0.001151
0.723381 0.371570 -0.001203
0.755053 0.371631 -0.001255
0.786706 0.371697 -0.001308
0.818340 0.371770 -0.001362
0.849955 0.371852 -0.001416
0.881549 0.371944 -0.001469
0.913121 0.372048 -0.001522
0.944672 0.372165 -0.001574
0.976201 0.372298 -0.001625
1.007707 0.372446 -0.001676
-0.000541 0.402113 -0.000747
-0.000298 0.402116 -0.000748
0.049581 0.402129 -0.000749
0.086975 0.402156 -0.000751
0.120468 0.402197 -0.000756
0.152901 0.402251 -0.000762
0.184912 0.402317 -0.000770
0.216728 0.402392 -0.000780
0.248452 0.402475 -0.000793
0.280139 0.402562 -0.000808
0.311814 0.402652 -0.000826
0.343495 0.402742 -0.000847
0.375188 0.402830 -0.000870
0.406896 0.402915 -0.000897
0.438621 0.402996 -0.000926
0.470362 0.403073 -0.000958
0.502118 0.403146 -0.000994
0.533874 0.403215 -0.001031
0.565621 0.403281 -0.001071
0.597358 0.403346 -0.001114
0.629083 0.403410 -0.001158
0.660795 0.403474 -0.001204
0.692492 0.403540 -0.001252
0.724173 0.403608 -0.001300
0.755836 0.403680 -0.001350
0.787481 0.403758 -0.001400
0.819107 0.403841 -0.001451
0.850712 0.403932 -0.001501
0.882296 0.404032 -0.001552
0.913860 0.404141 -0.001602
0.945401 0.404260 -0.001651
0.976920 0.404391 -0.001700
1.008416 0.404536 -0.001747
-0.000467 0.434119 -0.000880
-0.000223 0.434122 -0.000880
0.051835 0.434134 -0.000881
0.088222 0.434157 -0.000884
0.121450 0.434193 -0.000888
0.153778 0.434242 -0.000894
0.185742 0.434302 -0.000901
0.217539 0.434371 -0.000911
0.249260 0.434449 -0.000923
0.280947 0.434532 -0.000938
0.312628 0.434618 -0.000955
0.344313 0.434705 -0.000975
0.376010 0.434793 -0.000997
0.407722 0.434879 -0.001022
0.439450 0.434962 -0.001050
0.471194 0.435043 -0.001080
0.502948 0.435120 -0.001114
0.534696 0.435195 -0.001149
0.566436 0.435268 -0.001187
0.598167 0.435341 -0.001227
0.629885 0.435413 -0.001269
0.661590 0.435486 -0.001312
0.693280 0.435560 -0.001357
0.724954 0.435636 -0.001402
0.756610 0.435714 -0.001449
0.788248 0.435797 -0.001496
0.819866 0.435884 -0.001543
0.851464 0.435978 -0.001590
0.883042 0.436078 -0.001638
0.914597 0.436186 -0.001685
0.946130 0.436304 -0.001731
0.977641 0.436432 -0.001776
1.009129 0.436571 -0.001820
-0.000344 0.466140 -0.001016
-0.000099 0.466143 -0.001016
0.055121 0.466153 -0.001018
0.089982 0.466174 -0.001020
0.122733 0.466206 -0.001024
0.154850 0.466250 -0.001029
0.186708 0.466305 -0.001037
0.218449 0.466369 -0.001046
0.250138 0.466442 -0.001058
0.281808 0.466520 -0.001071
0.313478 0.466602 -0.001088
0.345158 0.466687 -0.001106
0.376851 0.466773 -0.001127
0.408562 0.466858 -0.001151
0.440289 0.466941 -0.001177
0.472031 0.467023 -0.001206
0.503775 0.467102 -0.001237
0.535514 0.467180 -0.001270
0.567245 0.467257 -0.001306
0.598968 0.467333 -0.001343
0.630679 0.467409 -0.001381
0.662377 0.467484 -0.001422
0.694060 0.467561 -0.001463
0.725727 0.467639 -0.001505
0.757377 0.467720 -0.001548
0.789009 0.467804 -0.001592
0.820621 0.467892 -0.001637
0.852213 0.467985 -0.001681
0.883783 0.468085 -0.001725
0.915332 0.468191 -0.001769
0.946858 0.468306 -0.001812
0.978361 0.468430 -0.001853
1.009842 0.468563 -0.001894
-0.000170 0.498163 -0.001153
0.019376 0.498165 -0.001153
0.059275 0.498175 -0.001155
0.092280 0.498193 -0.001157
0.124369 0.498222 -0.001160
0.156168 0.498262 -0.001166
0.187853 0.498311 -0.001173
0.219493 0.498370 -0.001181
0.251120 0.498436 -0.001192
0.282750 0.498509 -0.001205
0.314394 0.498586 -0.001220
0.346055 0.498667 -0.001238
0.377736 0.498748 -0.001257
0.409436 0.498830 -0.001279
0.441156 0.498912 -0.001304
0.472887 0.498992 -0.001330
0.504617 0.499071 -0.001359
0.536342 0.499149 -0.001390
0.568062 0.499227 -0.001422
0.599774 0.499304 -0.001457
0.631475 0.499380 -0.001493
0.663164 0.499457 -0.001530
0.694840 0.499535 -0.001568
0.726499 0.499614 -0.001608
0.758142 0.499695 -0.001648
0.789767 0.499779 -0.001689
0.821372 0.499867 -0.001730
0.852957 0.499959 -0.001771
0.884521 0.500057 -0.001812
0.916063 0.500161 -0.001852
0.947584 0.500272 -0.001891
0.979080 0.500391 -0.001929
1.010554 0.500519 -0.001966
0.018876 0.530164 -0.001286
0.035024 0.530166 -0.001287
0.064373 0.530175 -0.001288
0.095239 0.530191 -0.001290
0.126458 0.530217 -0.001293
0.157814 0.530253 -0.001298
0.189245 0.530298 -0.001305
0.220727 0.530351 -0.001313
0.252251 0.530412 -0.001323
0.283812 0.530480 -0.001335
0.315406 0.530552 -0.001349
0.347032 0.530627 -0.001365
0.378686 0.530705 -0.001383
0.410366 0.530783 -0.001403
0.442067 0.530862 -0.001426
0.473773 0.530940 -0.001451
0.505481 0.531018 -0.001477
0.537189 0.531096 -0.001506
0.568893 0.531173 -0.001536
0.600590 0.531250 -0.001568
0.632279 0.531327 -0.001601
0.663957 0.531404 -0.001636
0.695622 0.531482 -0.001671
0.727272 0.531561 -0.001708
0.758907 0.531642 -0.001745
0.790522 0.531725 -0.001783
0.822120 0.531812 -0.001820
0.853699 0.531902 -0.001858
0.885256 0.531998 -0.001895
0.916792 0.532098 -0.001932
0.948304 0.532206 -0.001968
0.979795 0.532320 -0.002002
1.011262 0.532442 -0.002035
0.038028 0.562140 -0.001412
0.046700 0.562142 -0.001413
0.070272 0.562150 -0.001414
0.098873 0.562165 -0.001416
0.129037 0.562188 -0.001419
0.159823 0.562220 -0.001423
0.190914 0.562261 -0.001430
0.222179 0.562310 -0.001437
0.253557 0.562366 -0.001446
0.285015 0.562428 -0.001458
0.316535 0.562495 -0.001471
0.348105 0.562566 -0.001486
0.379717 0.562639 -0.001503
0.411362 0.562714 -0.001522
0.443025 0.562790 -0.001543
0.474699 0.562866 -0.001566
0.506379 0.562943 -0.001590
0.538062 0.563019 -0.001617
0.569745 0.563095 -0.001645
0.601424 0.563171 -0.001674
0.633097 0.563247 -0.001705
0.664760 0.563324 -0.001737
0.696412 0.563401 -0.001770
0.728051 0.563479 -0.001803
0.759674 0.563559 -0.001837
0.791281 0.563641 -0.001872
0.822871 0.563726 -0.001906
0.854440 0.563815 -0.001940
0.885989 0.563907 -0.001974
0.917518 0.564005 -0.002007
0.949025 0.564108 -0.002039
0.980508 0.564217 -0.002070
1.011969 0.564334 -0.002099
0.051077 0.594088 -0.001531
0.057255 0.594090 -0.001531
0.076833 0.594097 -0.001532
0.103168 0.594110 -0.001534
0.132128 0.594131 -0.001537
0.162224 0.594160 -0.001542
0.192889 0.594197 -0.001547
0.223873 0.594242 -0.001554
0.255059 0.594293 -0.001563
0.286380 0.594351 -0.001574
0.317798 0.594413 -0.001586
0.349292 0.594480 -0.001600
0.380842 0.594549 -0.001616
0.412429 0.594620 -0.001633
0.444042 0.594693 -0.001653
0.475673 0.594767 -0.001674
0.507317 0.594841 -0.001697
0.538970 0.594916 -0.001721
0.570626 0.594991 -0.001747
0.602282 0.595065 -0.001774
0.633934 0.595141 -0.001802
0.665579 0.595216 -0.001831
0.697215 0.595292 -0.001861
0.728839 0.595369 -0.001891
0.760450 0.595448 -0.001922
0.792046 0.595528 -0.001953
0.823624 0.595611 -0.001984
0.855184 0.595697 -0.002015
0.886725 0.595787 -0.002045
0.918245 0.595881 -0.002075
0.949744 0.595980 -0.002104
0.981221 0.596084 -0.002131
1.012674 0.596195 -0.002158
0.062516 0.626006 -0.001641
0.067329 0.626008 -0.001641
0.083935 0.626014 -0.001642
0.108089 0.626026 -0.001643
0.135740 0.626045 -0.001646
0.165040 0.626071 -0.001650
0.195193 0.626105 -0.001656
0.225834 0.626146 -0.001662
0.256779 0.626193 -0.001670
0.287925 0.626246 -0.001680
0.319214 0.626304 -0.001691
0.350604 0.626366 -0.001704
0.382064 0.626432 -0.001719
0.413575 0.626500 -0.001735
0.445125 0.626569 -0.001753
0.476705 0.626641 -0.001772
0.508305 0.626713 -0.001793
0.539919 0.626785 -0.001815
0.571542 0.626858 -0.001839
0.603169 0.626931 -0.001863
0.634796 0.627005 -0.001889
0.666419 0.627079 -0.001916
0.698036 0.627154 -0.001943
0.729643 0.627229 -0.001970
0.761238 0.627306 -0.001998
0.792819 0.627385 -0.002026
0.824385 0.627466 -0.002054
0.855934 0.627549 -0.002081
0.887464 0.627636 -0.002109
0.918975 0.627726 -0.002135
0.950465 0.627822 -0.002161
0.981933 0.627921 -0.002186
1.013379 0.628027 -0.002209
0.073246 0.657893 -0.001738
0.077177 0.657894 -0.001738
0.091493 0.657899 -0.001739
0.113596 0.657910 -0.001741
0.139871 0.657928 -0.001743
0.168281 0.657952 -0.001747
0.197846 0.657982 -0.001752
0.228082 0.658020 -0.001758
0.258737 0.658063 -0.001766
0.289669 0.658112 -0.001775
0.320789 0.658166 -0.001785
0.352041 0.658224 -0.001797
0.383389 0.658286 -0.001810
0.414810 0.658351 -0.001825
0.446286 0.658418 -0.001841
0.477802 0.658486 -0.001859
0.509349 0.658556 -0.001878
0.540917 0.658626 -0.001898
0.572501 0.658697 -0.001919
0.604094 0.658768 -0.001941
0.635690 0.658840 -0.001964
0.667286 0.658912 -0.001988
0.698879 0.658986 -0.002013
0.730465 0.659060 -0.002038
0.762042 0.659135 -0.002063
0.793606 0.659211 -0.002088
0.825157 0.659289 -0.002113
0.856693 0.659371 -0.002138
0.888210 0.659455 -0.002163
0.919709 0.659542 -0.002187
0.951190 0.659633 -0.002210
0.982649 0.659728 -0.002232
1.014088 0.659828 -0.002252
0.083622 0.689746 -0.001821
0.086931 0.689747 -0.001822
0.099417 0.689752 -0.001822
0.119635 0.689762 -0.001824
0.144512 0.689778 -0.001826
0.171960 0.689800 -0.001830
0.200863 0.689828 -0.001834
0.230630 0.689862 -0.001840
0.260938 0.689902 -0.001847
0.291607 0.689947 -0.001855
0.322520 0.689998 -0.001864
0.353610 0.690053 -0.001875
0.384829 0.690111 -0.001887
0.416144 0.690172 -0.001901
0.447532 0.690236 -0.001915
0.478974 0.690302 -0.001931
0.510457 0.690369 -0.001948
0.541972 0.690437 -0.001967
0.573508 0.690506 -0.001986
0.605060 0.690575 -0.002006
0.636621 0.690645 -0.002027
0.668186 0.690715 -0.002049
0.699751 0.690787 -0.002071
0.731312 0.690859 -0.002094
0.762866 0.690932 -0.002117
0.794412 0.691006 -0.002140
0.825945 0.691082 -0.002162
0.857463 0.691161 -0.002185
0.888968 0.691242 -0.002207
0.920454 0.691326 -0.002228
0.951922 0.691413 -0.002248
0.983371 0.691504 -0.002267
1.014799 0.691600 -0.002285
0.093800 0.721565 -0.001888
0.096639 0.721566 -0.001889
0.107645 0.721571 -0.001889
0.126150 0.721580 -0.001891
0.149626 0.721594 -0.001893
0.176055 0.721614 -0.001896
0.204223 0.721640 -0.001900
0.233457 0.721671 -0.001905
0.263370 0.721709 -0.001912
0.293736 0.721751 -0.001919
0.324417 0.721798 -0.001928
0.355323 0.721850 -0.001938
0.386392 0.721905 -0.001949
0.417584 0.721964 -0.001961
0.448871 0.722024 -0.001975
0.480227 0.722087 -0.001990
0.511638 0.722151 -0.002005
0.543089 0.722217 -0.002022
0.574571 0.722283 -0.002040
0.606075 0.722350 -0.002058
0.637594 0.722418 -0.002077
0.669123 0.722487 -0.002097
0.700655 0.722556 -0.002117
0.732187 0.722626 -0.002138
0.763716 0.722697 -0.002158
0.795238 0.722770 -0.002179
0.826751 0.722843 -0.002199
0.858252 0.722919 -0.002219
0.889739 0.722997 -0.002238
0.921210 0.723078 -0.002256
0.952664 0.723162 -0.002274
0.984101 0.723249 -0.002290
1.015517 0.723340 -0.002305
0.103749 0.753350 -0.001940
0.106230 0.753351 -0.001940
0.116031 0.753355 -0.001941
0.132999 0.753363 -0.001942
0.155122 0.753377 -0.001944
0.180505 0.753395 -0.001947
0.207899 0.753419 -0.001951
0.236556 0.753448 -0.001956
0.266035 0.753483 -0.001962
0.296069 0.753522 -0.001969
0.326489 0.753567 -0.001977
0.357186 0.753615 -0.001986
0.388087 0.753667 -0.001996
0.419141 0.753722 -0.002007
0.450310 0.753780 -0.002020
0.481569 0.753839 -0.002033
0.512896 0.753902 -0.002047
0.544276 0.753964 -0.002063
0.575696 0.754029 -0.002079
0.607146 0.754094 -0.002095
0.638617 0.754159 -0.002113
0.670103 0.754226 -0.002131
0.701598 0.754293 -0.002149
0.733097 0.754361 -0.002167
0.764597 0.754430 -0.002185
0.796092 0.754500 -0.002203
0.827580 0.754572 -0.002221
0.859060 0.754645 -0.002239
0.890527 0.754720 -0.002255
0.921981 0.754799 -0.002271
0.953420 0.754879 -0.002286
0.984841 0.754962 -0.002299
1.016245 0.755050 -0.002311
0.113514 0.785100 -0.001975
0.115711 0.785101 -0.001975
0.124515 0.785105 -0.001976
0.140128 0.785112 -0.001977
0.160962 0.785124 -0.001979
0.185295 0.785141 -0.001982
0.211886 0.785163 -0.001985
0.239930 0.785191 -0.001990
0.268941 0.785223 -0.001995
0.298611 0.785260 -0.002001
0.328743 0.785301 -0.002009
0.359209 0.785347 -0.002017
0.389921 0.785396 -0.002026
0.420820 0.785448 -0.002037
0.451859 0.785503 -0.002048
0.483008 0.785560 -0.002060
0.514241 0.785619 -0.002073
0.545539 0.785679 -0.002087
0.576888 0.785742 -0.002101
0.608276 0.785804 -0.002116
