data/manual_verify/canoncgt_candidates/candidate_b.cube
TITLE "LocalColorService CanonCGT fitted transform"
LUT_3D_SIZE 33
DOMAIN_MIN 0.0 0.0 0.0
DOMAIN_MAX 1.0 1.0 1.0
0.00000000 0.00000000 0.00000000
0.00000000 0.03457013 0.00000000
0.00000000 0.07938280 0.00492084
0.00000000 0.12113526 0.02191591
0.00000000 0.15982525 0.03776505
0.00000000 0.19545280 0.05246828
0.00000000 0.22801788 0.06602559
0.00000000 0.25752051 0.07843699
0.00000000 0.28396069 0.08970247
0.00000000 0.30733840 0.09982203
0.00000000 0.32765367 0.10879568
0.00000000 0.34490647 0.11662341
0.00000000 0.35909682 0.12330522
0.00000000 0.37022471 0.12884112
0.00000000 0.37829015 0.13323110
0.00000000 0.38329312 0.13647516
0.00000000 0.38523365 0.13857331
0.00000000 0.38411171 0.13952555
0.00000000 0.37992732 0.13933186
0.00000000 0.37268048 0.13799226
0.00000000 0.36237117 0.13550674
0.00000000 0.34899942 0.13187531
0.00000000 0.33256520 0.12709796
0.01763697 0.31306853 0.12117469
0.10087268 0.29050940 0.11410551
0.19093216 0.26488782 0.10589041
0.28781540 0.23620378 0.09652939
0.39152241 0.20445728 0.08602246
0.50205318 0.16964833 0.07436961
0.61940771 0.13177692 0.06157085
0.74358601 0.09084305 0.04762617
0.87458219 0.04684893 0.03253633
1.00000000 0.00342092 0.01755900
0.00000000 0.00000000 0.00000000
0.00000000 0.00000000 0.00000000
0.00000000 0.02618124 0.00000000
0.00000000 0.06793992 0.00370422
0.00000000 0.10663616 0.01948666
0.00000000 0.14226993 0.03412319
0.00000000 0.17484125 0.04761379
0.00000000 0.20435011 0.05995848
0.00000000 0.23079652 0.07115726
0.00000000 0.25418047 0.08121011
0.00000000 0.27450197 0.09011706
0.00000000 0.29176100 0.09787808
0.00000000 0.30595758 0.10449319
0.00000000 0.31709171 0.10996238
0.00000000 0.32516338 0.11428565
0.00000000 0.33017259 0.11746301
0.00000000 0.33211935 0.11949446
0.00000000 0.33100365 0.12037998
0.00000000 0.32682549 0.12011959
0.00000000 0.31958488 0.11871329
0.00000000 0.30928181 0.11616106
0.00000000 0.29591628 0.11246292
0.00000000 0.27948830 0.10761887
0.03300515 0.25999786 0.10162889
0.11613812 0.23744497 0.09449301
0.20609486 0.21182961 0.08621120
0.30287536 0.18315181 0.07678348
0.40647962 0.15141154 0.06620984
0.51690765 0.11660882 0.05449029
0.63415944 0.07874365 0.04162482
0.75823499 0.03781601 0.02761343
0.88912844 0.00000000 0.01245689
1.00000000 0.00000000 0.00000000
0.01583193 0.00000000 0.00000000
0.00000000 0.00000000 0.00000000
0.00000000 0.00000000 0.00000000
0.00000000 0.01499613 0.00000000
0.00000000 0.05369909 0.00123115
0.00000000 0.08933958 0.01579576
0.00000000 0.12191762 0.02921445
0.00000000 0.15143320 0.04148723
0.00000000 0.17788633 0.05261409
0.00000000 0.20127700 0.06259504
0.00000000 0.22160521 0.07143007
0.00000000 0.23887097 0.07911918
0.00000000 0.25307427 0.08566238
0.00000000 0.26421512 0.09105966
0.00000000 0.27229350 0.09531102
0.00000000 0.27730944 0.09841647
0.00000000 0.27926291 0.10037600
0.00000000 0.27815393 0.10118961
0.00000000 0.27398249 0.10085731
0.00000000 0.26674860 0.09937909
0.00000000 0.25645225 0.09675496
0.00000000 0.24309344 0.09298490
0.00000000 0.22667218 0.08806894
0.04862991 0.20718846 0.08200705
0.13165212 0.18464229 0.07479925
0.22149809 0.15903365 0.06644553
0.31816783 0.13036257 0.05694590
0.42166133 0.09862902 0.04630035
0.53197859 0.06383302 0.03450888
0.64911962 0.02597456 0.02157150
0.77308441 0.00000000 0.00748820
0.90386710 0.00000000 0.00000000
1.00000000 0.00000000 0.00000000
0.03297433 0.00000000 0.00000000
0.00000000 0.00000000 0.00000000
0.00000000 0.00000000 0.00000000
0.00000000 0.00000000 0.00000000
0.00000000 0.00646091 0.00000000
0.00000000 0.04210813 0.00000000
0.00000000 0.07469289 0.01238639
0.00000000 0.10421519 0.02458725
0.00000000 0.13067504 0.03564220
0.00000000 0.15407243 0.04555123
0.00000000 0.17440736 0.05431434
0.00000000 0.19167984 0.06193154
0.00000000 0.20588986 0.06840282
0.00000000 0.21703742 0.07372819
0.00000000 0.22512253 0.07790763
0.00000000 0.23014518 0.08094117
0.00000000 0.23210538 0.08282878
0.00000000 0.23100312 0.08357048
0.00000000 0.22683840 0.08316626
0.00000000 0.21961123 0.08161613
0.00000000 0.20932160 0.07892008
0.00000000 0.19596951 0.07507811
0.00000000 0.17955497 0.07009023
0.06323270 0.16007797 0.06395643
0.14614414 0.13753851 0.05667671
0.23587935 0.11193660 0.04825108
0.33243832 0.08327223 0.03867953
0.43582106 0.05154541 0.02796207
0.54602755 0.01675613 0.01609869
0.66305781 0.00000000 0.00308939
0.78691184 0.00000000 0.00000000
0.91758377 0.00000000 0.00000000
1.00000000 0.00000000 0.00000000
0.04909399 0.00000000 0.00000000
0.00000000 0.00000000 0.00000000
0.00000000 0.00000000 0.00000000
0.00000000 0.00000000 0.00000000
0.00000000 0.00000000 0.00000000
0.00000000 0.00057888 0.00000000
0.00000000 0.03317036 0.00000000
0.00000000 0.06269938 0.00925949
0.00000000 0.08916595 0.02024253
0.00000000 0.11257006 0.03007964
0.00000000 0.13291171 0.03877084
0.00000000 0.15019091 0.04631612
0.00000000 0.16440765 0.05271549
0.00000000 0.17556193 0.05796894
0.00000000 0.18365376 0.06207647
0.00000000 0.18868313 0.06503809
0.00000000 0.19065005 0.06685379
0.00000000 0.18955451 0.06752357
0.00000000 0.18539651 0.06704744
0.00000000 0.17817606 0.06542539
0.00000000 0.16789315 0.06265742
0.00000000 0.15454778 0.05874354
0.00083584 0.13813996 0.05368374
0.07681275 0.11866968 0.04747803
0.15961343 0.09613694 0.04012640
0.24923787 0.07054175 0.03162885
0.34568608 0.04188410 0.02198539
0.44895804 0.01016400 0.01119601
0.55905377 0.00000000 0.00000000
0.67597327 0.00000000 0.00000000
0.79971652 0.00000000 0.00000000
0.93027769 0.00000000 0.00000000
1.00000000 0.00000000 0.00000000
0.06419091 0.00000000 0.00000000
0.00000000 0.00000000 0.00000000
0.00000000 0.00000000 0.00000000
0.00000000 0.00000000 0.00000000
0.00000000 0.00000000 0.00000000
0.00000000 0.00000000 0.00000000
0.00000000 0.00000000 0.00000000
0.00000000 0.02688578 0.00000000
0.00000000 0.05335907 0.00641507
0.00000000 0.07676990 0.01618027
0.00000000 0.09711827 0.02479956
0.00000000 0.11440419 0.03227292
0.00000000 0.12862765 0.03860037
0.00000000 0.13978865 0.04378191
0.00000000 0.14788720 0.04781753
0.00000000 0.15292329 0.05070723
0.00000000 0.15489693 0.05245101
0.00000000 0.15380811 0.05304888
0.00000000 0.14965683 0.05250083
0.00000000 0.14244309 0.05080687
0.00000000 0.13216690 0.04796699
0.00000000 0.11882826 0.04398119
0.01350392 0.10242715 0.03884948
0.08937007 0.08296359 0.03257185
0.17205998 0.06043758 0.02514830
0.26157365 0.03484911 0.01657884
0.35791109 0.00619818 0.00686346
0.46107229 0.00000000 0.00000000
0.57105726 0.00000000 0.00000000
0.68786598 0.00000000 0.00000000
0.81149847 0.00000000 0.00000000
0.94194888 0.00000000 0.00000000
1.00000000 0.00000000 0.00000000
0.07826510 0.00000000 0.00000000
0.01057153 0.00000000 0.00000000
0.00000000 0.00000000 0.00000000
0.00000000 0.00000000 0.00000000
0.00000000 0.00000000 0.00000000
0.00000000 0.00000000 0.00000000
0.00000000 0.00000000 0.00000000
0.00000000 0.00000000 0.00000000
0.00000000 0.02325439 0.00000000
0.00000000 0.04667194 0.00385313
0.00000000 0.06702703 0.01240049
0.00000000 0.08431967 0.01980195
0.00000000 0.09854985 0.02605748
0.00000000 0.10971757 0.03116710
0.00000000 0.11782284 0.03513080
0.00000000 0.12286565 0.03794859
0.00000000 0.12484601 0.03962046
0.00000000 0.12376391 0.04014641
0.00000000 0.11961935 0.03952645
0.00000000 0.11241234 0.03776057
0.00000000 0.10214287 0.03484877
0.00000000 0.08881094 0.03079106
0.02514927 0.07241656 0.02558743
0.10090465 0.05295972 0.01923789
0.18348379 0.03044042 0.01174243
0.27288670 0.00485867 0.00310105
0.36911337 0.00000000 0.00000000
0.47216380 0.00000000 0.00000000
0.58203800 0.00000000 0.00000000
0.69873596 0.00000000 0.00000000
0.82225768 0.00000000 0.00000000
0.95259733 0.00000000 0.00000000
1.00000000 0.00000000 0.00000000
0.09131655 0.00000000 0.00000000
0.02352023 0.00000000 0.00000000
0.00000000 0.00000000 0.00000000
0.00000000 0.00000000 0.00000000
0.00000000 0.00000000 0.00000000
0.00000000 0.00000000 0.00000000
0.00000000 0.00000000 0.00000000
0.00000000 0.00000000 0.00000000
0.00000000 0.00000000 0.00000000
0.00000000 0.02227619 0.00000000
0.00000000 0.04263800 0.00157365
0.00000000 0.05993736 0.00890319
0.00000000 0.07417426 0.01508681
0.00000000 0.08534870 0.02012451
0.00000000 0.09346069 0.02401630
0.00000000 0.09851022 0.02676217
0.00000000 0.10049730 0.02836213
0.00000000 0.09942192 0.02881616
0.00000000 0.09528408 0.02812429
0.00000000 0.08808378 0.02628649
0.00000000 0.07782103 0.02330278
0.00000000 0.06449583 0.01917315
0.03577187 0.04810816 0.01389761
0.11141649 0.02865804 0.00747615
0.19388486 0.00614547 0.00000000
0.28317701 0.00000000 0.00000000
0.37929291 0.00000000 0.00000000
0.48223258 0.00000000 0.00000000
0.59199601 0.00000000 0.00000000
0.70858320 0.00000000 0.00000000
0.83199416 0.00000000 0.00000000
0.96222304 0.00000000 0.00000000
1.00000000 0.00000000 0.00000000
0.10334526 0.00000000 0.00000000
0.03544620 0.00000000 0.00000000
0.00000000 0.00000000 0.00000000
0.00000000 0.00000000 0.00000000
0.00000000 0.00000000 0.00000000
0.00000000 0.00000000 0.00000000
0.00000000 0.00000000 0.00000000
0.00000000 0.00000000 0.00000000
0.00000000 0.00000000 0.00000000
0.00000000 0.00358264 0.00000000
0.00000000 0.02395118 0.00000000
0.00000000 0.04125725 0.00000000
0.00000000 0.05550087 0.00568836
0.00000000 0.06668204 0.01065415
0.00000000 0.07480074 0.01447402
0.00000000 0.07985699 0.01714798
0.00000000 0.08185079 0.01867601
0.00000000 0.08078213 0.01905814
0.00000000 0.07665101 0.01829434
0.00000000 0.06945744 0.01638463
0.00000000 0.05920140 0.01332901
0.00000000 0.04588292 0.00912747
0.04537174 0.02950197 0.00378001
0.12090559 0.01005857 0.00000000
0.20326320 0.00000000 0.00000000
0.29244457 0.00000000 0.00000000
0.38844971 0.00000000 0.00000000
0.49127861 0.00000000 0.00000000
0.60093127 0.00000000 0.00000000
0.71740770 0.00000000 0.00000000
0.84070789 0.00000000 0.00000000
0.97082601 0.00000000 0.00000000
1.00000000 0.00000000 0.00000000
0.11435123 0.00000000 0.00000000
0.04634943 0.00000000 0.00000000
0.00000000 0.00000000 0.00000000
0.00000000 0.00000000 0.00000000
0.00000000 0.00000000 0.00000000
0.00000000 0.00000000 0.00000000
0.00000000 0.00000000 0.00000000
0.00000000 0.00000000 0.00000000
0.00000000 0.00000000 0.00000000
0.00000000 0.00000000 0.00000000
0.00000000 0.01096655 0.00000000
0.00000000 0.02827935 0.00000000
0.00000000 0.04252969 0.00000000
0.00000000 0.05371757 0.00275600
0.00000000 0.06184300 0.00650396
0.00000000 0.06690597 0.00910600
0.00000000 0.06890649 0.01056212
0.00000000 0.06784455 0.01087233
0.00000000 0.06372015 0.01003662
0.00000000 0.05653329 0.00805500
0.00000000 0.04628398 0.00492746
0.00000000 0.03297222 0.00065400
0.05394887 0.01659799 0.00000000
0.12937195 0.00000000 0.00000000
0.21161880 0.00000000 0.00000000
0.30068940 0.00000000 0.00000000
0.39658377 0.00000000 0.00000000
0.49930191 0.00000000 0.00000000
0.60884380 0.00000000 0.00000000
0.72520946 0.00000000 0.00000000
0.84839889 0.00000000 0.00000000
0.97840624 0.00000000 0.00000000
1.00000000 0.00000000 0.00000000
0.12433447 0.00000000 0.00000000
0.05622992 0.00000000 0.00000000
0.00000000 0.00000000 0.00000000
0.00000000 0.00000000 0.00000000
0.00000000 0.00000000 0.00000000
0.00000000 0.00000000 0.00000000
0.00000000 0.00000000 0.00000000
0.00000000 0.00000000 0.00000000
0.00000000 0.00000000 0.00000000
0.00000000 0.00000000 0.00000000
0.00000000 0.00368414 0.00000000
0.00000000 0.02100365 0.00000000
0.00000000 0.03526071 0.00000000
0.00000000 0.04645532 0.00000000
0.00000000 0.05458746 0.00010612
0.00000000 0.05965716 0.00263624
0.00000000 0.06166439 0.00402045
0.00000000 0.06060917 0.00425875
0.00000000 0.05649149 0.00335112
0.00000000 0.04931136 0.00129758
0.00000000 0.03906876 0.00000000
0.00000000 0.02576372 0.00000000
0.06150327 0.00939621 0.00000000
0.13681558 0.00000000 0.00000000
0.21895166 0.00000000 0.00000000
0.30791150 0.00000000 0.00000000
0.40369510 0.00000000 0.00000000
0.50630247 0.00000000 0.00000000
0.61573360 0.00000000 0.00000000
0.73198849 0.00000000 0.00000000
0.85506715 0.00000000 0.00000000
0.98496374 0.00000000 0.00000000
1.00000000 0.00000000 0.00000000
0.13329496 0.00000000 0.00000000
0.06508767 0.00000000 0.00000000
0.00000000 0.00000000 0.00000000
0.00000000 0.00000000 0.00000000
0.00000000 0.00000000 0.00000000
0.00000000 0.00000000 0.00000000
0.00000000 0.00000000 0.00000000
0.00000000 0.00000000 0.00000000
0.00000000 0.00000000 0.00000000
0.00000000 0.00000000 0.00000000
0.00000000 0.00210393 0.00000000
0.00000000 0.01943016 0.00000000
0.00000000 0.03369394 0.00000000
0.00000000 0.04489527 0.00000000
0.00000000 0.05303413 0.00000000
0.00000000 0.05811054 0.00000000
0.00000000 0.06012450 0.00000000
0.00000000 0.05907600 0.00000000
0.00000000 0.05496504 0.00000000
0.00000000 0.04779162 0.00000000
0.00000000 0.03755575 0.00000000
0.00000000 0.02425743 0.00000000
0.06803492 0.00789664 0.00000000
0.14323647 0.00000000 0.00000000
0.22526178 0.00000000 0.00000000
0.31411085 0.00000000 0.00000000
0.40978369 0.00000000 0.00000000
0.51228029 0.00000000 0.00000000
0.62160065 0.00000000 0.00000000
0.73774478 0.00000000 0.00000000
0.86071267 0.00000000 0.00000000
0.99049850 0.00000000 0.00000000
1.00000000 0.00000000 0.00000000
0.14123272 0.00000000 0.00000000
0.07292269 0.00000000 0.00000000
0.00471852 0.00000000 0.00000000
0.00000000 0.00000000 0.00000000
0.00000000 0.00000000 0.00000000
0.00000000 0.00000000 0.00000000
0.00000000 0.00000000 0.00000000
0.00000000 0.00000000 0.00000000
0.00000000 0.00000000 0.00000000
0.00000000 0.00000000 0.00000000
0.00000000 0.00622592 0.00000000
0.00000000 0.02355888 0.00000000
0.00000000 0.03782938 0.00000000
0.00000000 0.04903742 0.00000000
0.00000000 0.05718301 0.00000000
0.00000000 0.06226614 0.00000000
0.00000000 0.06428681 0.00000000
0.00000000 0.06324503 0.00000000
0.00000000 0.05914079 0.00000000
0.00000000 0.05197410 0.00000000
0.00000000 0.04174495 0.00000000
0.00527682 0.02845334 0.00000000
0.07354384 0.01209927 0.00000000
0.14863462 0.00000000 0.00000000
0.23054916 0.00000000 0.00000000
0.31928747 0.00000000 0.00000000
0.41484954 0.00000000 0.00000000
0.51723537 0.00000000 0.00000000
0.62644497 0.00000000 0.00000000
0.74247833 0.00000000 0.00000000
0.86533545 0.00000000 0.00000000
0.99501052 0.00000000 0.00000000
1.00000000 0.00000000 0.00000000
0.14814774 0.00000000 0.00000000
0.07973497 0.00000000 0.00000000
0.01142003 0.00000000 0.00000000
0.00000000 0.00000000 0.00000000
0.00000000 0.00000000 0.00000000
0.00000000 0.00000000 0.00000000
0.00000000 0.00000000 0.00000000
0.00000000 0.00000000 0.00000000
0.00000000 0.00000000 0.00000000
0.00000000 0.00000000 0.00000000
0.00000000 0.01605012 0.00000000
0.00000000 0.03338980 0.00000000
0.00000000 0.04766702 0.00000000
0.00000000 0.05888178 0.00000000
0.00000000 0.06703409 0.00000000
0.00000000 0.07212394 0.00000000
0.00000000 0.07415133 0.00000000
0.00000000 0.07311627 0.00000000
0.00000000 0.06901875 0.00000000
0.00000000 0.06185878 0.00000000
0.00000000 0.05163634 0.00000000
0.00987377 0.03835146 0.00000000
0.07803002 0.02200411 0.00000000
0.15301003 0.00259431 0.00000000
0.23481381 0.00000000 0.00000000
0.32344135 0.00000000 0.00000000
0.41889265 0.00000000 0.00000000
0.52116772 0.00000000 0.00000000
0.63026655 0.00000000 0.00000000
0.74618914 0.00000000 0.00000000
0.86893550 0.00000000 0.00000000
0.99849980 0.00000000 0.00000000
1.00000000 0.00000000 0.00000000
0.15404002 0.00000000 0.00000000
0.08552451 0.00000000 0.00000000
0.01709881 0.00000000 0.00000000
0.00000000 0.00000000 0.00000000
0.00000000 0.00000000 0.00000000
0.00000000 0.00000000 0.00000000
0.00000000 0.00000000 0.00000000
0.00000000 0.00000000 0.00000000
0.00000000 0.00000000 0.00000000
0.00000000 0.01116767 0.00000000
0.00000000 0.03157653 0.00000000
0.00000000 0.04892292 0.00000000
0.00000000 0.06320686 0.00000000
0.00000000 0.07442834 0.00000000
0.00000000 0.08258737 0.00000000
0.00000000 0.08768394 0.00000000
0.00000000 0.08971806 0.00000000
0.00000000 0.08868971 0.00000000
0.00000000 0.08459891 0.00000000
0.00000000 0.07744566 0.00000000
0.00000000 0.06722995 0.00000000
0.01344798 0.05395178 0.00000000
0.08149346 0.03761116 0.00000000
0.15636271 0.01820808 0.00000000
0.23805572 0.00000000 0.00000000
0.32657249 0.00000000 0.00000000
0.42191303 0.00000000 0.00000000
0.52407732 0.00000000 0.00000000
0.63306539 0.00000000 0.00000000
0.74887721 0.00000000 0.00000000
0.87151280 0.00000000 0.00000000
1.00000000 0.00000000 0.00000000
1.00000000 0.00000000 0.00000000
0.15890957 0.00000000 0.00000000
0.09029131 0.00000000 0.00000000
0.02175485 0.00000000 0.00000000
0.00000000 0.00000000 0.00000000
0.00000000 0.00000000 0.00000000
0.00000000 0.00000000 0.00000000
0.00000000 0.00000000 0.00000000
0.00000000 0.00000000 0.00000000
0.00000000 0.00891154 0.00000000
0.00000000 0.03238956 0.00000000
0.00000000 0.05280514 0.00000000
0.00000000 0.07015825 0.00000000
0.00000000 0.08444891 0.00000000
0.00000000 0.09567711 0.00000000
0.00000000 0.10384286 0.00000000
0.00000000 0.10894615 0.00000000
0.00000000 0.11098698 0.00000000
0.00000000 0.10996536 0.00000000
0.00000000 0.10588128 0.00000000
0.00000000 0.09873475 0.00000000
0.00000000 0.08852576 0.00000000
0.01599945 0.07525431 0.00000000
0.08393416 0.05892040 0.00000000
0.15869264 0.03952404 0.00000000
0.24027489 0.01706523 0.00000000
0.32868089 0.00000000 0.00000000
0.42391066 0.00000000 0.00000000
0.52596419 0.00000000 0.00000000
0.63484149 0.00000000 0.00000000
0.75054255 0.00000000 0.00000000
0.87306737 0.00000000 0.00000000
1.00000000 0.00000000 0.00000000
1.00000000 0.00000000 0.00000000
0.16275637 0.00000000 0.00000000
0.09403537 0.00000000 0.00000000
0.02538815 0.00000000 0.00000000
0.00000000 0.00000000 0.00000000
0.00000000 0.00000000 0.00000000
0.00000000 0.00000000 0.00000000
0.00000000 0.00000000 0.00000000
0.00000000 0.00928171 0.00000000
0.00000000 0.03582891 0.00000000
0.00000000 0.05931366 0.00000000
0.00000000 0.07973595 0.00000000
0.00000000 0.09709579 0.00000000
0.00000000 0.11139317 0.00000000
0.00000000 0.12262809 0.00000000
0.00000000 0.13080056 0.00000000
0.00000000 0.13591057 0.00000000
0.00000000 0.13795812 0.00000000
0.00000000 0.13694322 0.00000000
0.00000000 0.13286586 0.00000000
0.00000000 0.12572604 0.00000000
0.00000000 0.11552377 0.00000000
0.01752818 0.10225904 0.00000000
0.08535213 0.08593186 0.00000000
0.15999984 0.06654222 0.00000000
0.24147132 0.04409012 0.00000000
0.32976656 0.01857557 0.00000000
0.42488556 0.00000000 0.00000000
0.52682833 0.00000000 0.00000000
0.63559485 0.00000000 0.00000000
0.75118515 0.00000000 0.00000000
0.87359920 0.00000000 0.00000000
1.00000000 0.00000000 0.00000000
1.00000000 0.00000000 0.00000000
0.16558044 0.00000000 0.00000000
0.09675670 0.00000000 0.00000000
0.02799871 0.00000000 0.00000000
0.00000000 0.00000000 0.00000000
0.00000000 0.00000000 0.00000000
0.00000000 0.00000000 0.00000000
0.00000000 0.01227819 0.00000000
0.00000000 0.04189457 0.00000000
0.00000000 0.06844849 0.00000000
0.00000000 0.09193996 0.00000000
0.00000000 0.11236897 0.00000000
0.00000000 0.12973553 0.00000000
0.00000000 0.14403963 0.00000000
0.00000000 0.15528127 0.00000000
0.00000000 0.16346045 0.00000000
0.00000000 0.16857718 0.00137015
0.00000000 0.17063146 0.00225095
0.00000000 0.16962328 0.00198584
0.00000000 0.16555264 0.00057481
0.00000000 0.15841954 0.00000000
0.00000000 0.14822399 0.00000000
0.01803417 0.13496598 0.00000000
0.08574736 0.11864552 0.00000000
0.16028430 0.09926260 0.00000000
0.24164501 0.07681722 0.00000000
0.32982948 0.05130939 0.00000000
0.42483772 0.02273910 0.00000000
0.52666972 0.00000000 0.00000000
0.63532548 0.00000000 0.00000000
0.75080501 0.00000000 0.00000000
0.87310829 0.00000000 0.00000000
1.00000000 0.00000000 0.00000000
1.00000000 0.00000000 0.00000000
0.16738177 0.00000000 0.00000000
0.09845528 0.00000000 0.00000000
0.02958654 0.00000000 0.00000000
0.00000000 0.00000000 0.00000000
0.00000000 0.00000000 0.00000000
0.00000000 0.01790098 0.00000000
0.00000000 0.05058653 0.00000000
0.00000000 0.08020963 0.00000000
0.00000000 0.10677028 0.00000000
0.00000000 0.13026847 0.00000000
0.00000000 0.15070420 0.00000000
0.00000000 0.16807747 0.00000000
0.00000000 0.18238829 0.00000000
0.00000000 0.19363665 0.00242263
0.00000000 0.20182256 0.00552336
0.00000000 0.20694601 0.00747816
0.00000000 0.20900700 0.00828705
0.00000000 0.20800554 0.00795002
0.00000000 0.20394162 0.00646707
0.00000000 0.19681525 0.00383821
0.00000000 0.18662641 0.00006344
0.01751743 0.17337513 0.00000000
0.08511985 0.15706138 0.00000000
0.15954603 0.13768518 0.00000000
0.24079597 0.11524652 0.00000000
0.32886967 0.08974541 0.00000000
0.42376714 0.06118184 0.00000000
0.52548837 0.02955581 0.00000000
0.63403337 0.00000000 0.00000000
0.74940213 0.00000000 0.00000000
0.87159465 0.00000000 0.00000000
1.00000000 0.00000000 0.00000000
1.00000000 0.00000000 0.00000000
0.16816037 0.00000000 0.00000000
0.09913113 0.00000000 0.00000000
0.03015163 0.00000000 0.00000000
0.00000000 0.00000000 0.00000000
0.00000000 0.02615007 0.00000000
0.00000000 0.06190481 0.00000000
0.00000000 0.09459708 0.00000000
0.00000000 0.12422690 0.00000000
0.00000000 0.15079427 0.00000000
0.00000000 0.17429918 0.00000000
0.00000000 0.19474163 0.00000000
0.00000000 0.21212162 0.00075134
0.00000000 0.22643916 0.00607198
0.00000000 0.23769424 0.01024670
0.00000000 0.24588687 0.01327550
0.00000000 0.25101704 0.01515839
0.00000000 0.25308475 0.01589537
0.00000000 0.25209001 0.01548642
0.00000000 0.24803281 0.01393156
0.00000000 0.24091316 0.01123079
0.00000000 0.23073104 0.00738409
0.01597795 0.21748648 0.00239148
0.08346960 0.20117945 0.00000000
0.15778501 0.18180997 0.00000000
0.23892419 0.15937803 0.00000000
0.32688712 0.13388364 0.00000000
0.42167383 0.10532679 0.00000000
0.52328429 0.07370748 0.00000000
0.63171852 0.03902572 0.00000000
0.74697651 0.00128150 0.00000000
0.86905827 0.00000000 0.00000000
0.99795800 0.00000000 0.00000000
1.00000000 0.00000000 0.00000000
0.16791622 0.00000000 0.00000000
0.09878424 0.00000000 0.00000000
0.02969398 0.00000000 0.00000000
0.00000000 0.03702548 0.00000000
0.00000000 0.07584939 0.00000000
0.00000000 0.11161084 0.00000000
0.00000000 0.14430984 0.00000000
0.00000000 0.17394638 0.00000000
0.00000000 0.20052046 0.00000000
0.00000000 0.22403209 0.00000000
0.00000000 0.24448126 0.00389681
0.00000000 0.26186798 0.01029145
0.00000000 0.27619224 0.01554018
0.00000000 0.28745404 0.01964298
0.00000000 0.29565339 0.02259987
0.00000000 0.30079028 0.02441085
0.00000000 0.30286471 0.02507590
0.00000000 0.30187669 0.02459505
0.00000000 0.29782621 0.02296827
0.00000000 0.29071327 0.02019558
0.00000000 0.28053788 0.01627697
0.01341573 0.26730003 0.01121245
0.08079661 0.25099973 0.00500201
0.15500126 0.23163696 0.00000000
0.23602967 0.20921175 0.00000000
0.32388184 0.18372407 0.00000000
0.41855777 0.15517394 0.00000000
0.52005747 0.12356136 0.00000000
0.62838093 0.08888631 0.00000000
0.74352816 0.05114881 0.00000000
0.86549915 0.01034886 0.00000000
0.99428812 0.00000000 0.00000000
1.00000000 0.00000000 0.00000000
0.16664934 0.00000000 0.00000000
0.09741462 0.00557390 0.00000000
0.02821359 0.05052720 0.00000000
0.00000000 0.09242028 0.00000000
0.00000000 0.13125091 0.00000000
0.00000000 0.16701909 0.00000000
0.00000000 0.19972480 0.00000000
0.00000000 0.22936806 0.00000000
0.00000000 0.25594887 0.00000000
0.00000000 0.27946721 0.00761242
0.00000000 0.29992311 0.01508106
0.00000000 0.31731654 0.02140379
0.00000000 0.33164752 0.02658060
0.00000000 0.34291604 0.03061149
0.00000000 0.35112211 0.03349646
0.00000000 0.35626572 0.03523552
0.00000000 0.35834687 0.03582866
0.00000000 0.35736557 0.03527589
0.00000000 0.35332181 0.03357720
0.00000000 0.34621559 0.03073259
0.00000000 0.33604692 0.02674207
0.00983077 0.32281579 0.02160563
0.07710089 0.30652221 0.01532327
0.15119477 0.28716616 0.00789500
0.23211241 0.26474767 0.00000000
0.31985381 0.23926671 0.00000000
0.41441898 0.21072330 0.00000000
0.51580791 0.17911744 0.00000000
0.62402061 0.14444911 0.00000000
0.73905707 0.10671833 0.00000000
