data/manual_verify/canoncgt_candidates/candidate_c.cube
TITLE "LocalColorService CanonCGT fitted transform"
LUT_3D_SIZE 33
DOMAIN_MIN 0.0 0.0 0.0
DOMAIN_MAX 1.0 1.0 1.0
0.00000000 0.00000000 0.00000000
0.00000000 0.04520709 0.00000000
0.00000000 0.10380828 0.00643495
0.00000000 0.15840764 0.02865926
0.00000000 0.20900226 0.04938507
0.00000000 0.25559212 0.06861236
0.00000000 0.29817723 0.08634116
0.00000000 0.33675759 0.10257144
0.00000000 0.37133321 0.11730323
0.00000000 0.40190407 0.13053650
0.00000000 0.42847018 0.14227127
0.00000000 0.45103154 0.15250753
0.00000000 0.46958815 0.16124529
0.00000000 0.48414001 0.16848454
0.00000000 0.49468711 0.17422528
0.00000000 0.50122947 0.17846752
0.00000000 0.50376708 0.18121126
0.00000000 0.50229993 0.18245648
0.00000000 0.49682804 0.18220320
0.00000000 0.48735139 0.18045142
0.00000000 0.47387000 0.17720113
0.00000000 0.45638385 0.17245233
0.00000000 0.43489295 0.16620502
0.00000000 0.40939731 0.15845921
0.00000000 0.37989691 0.14921490
0.00929590 0.34639176 0.13847208
0.12637399 0.30888186 0.12623075
0.25237546 0.26736721 0.11249091
0.38730031 0.22184781 0.09725257
0.53114855 0.17232366 0.08051573
0.68392016 0.11879476 0.06228037
0.84560748 0.06126398 0.04254751
1.00000000 0.00447351 0.02296178
0.00000000 0.00000000 0.00000000
0.00000000 0.00000000 0.00000000
0.00000000 0.02462162 0.00000000
0.00000000 0.07922913 0.00484399
0.00000000 0.12983190 0.02548256
0.00000000 0.17642991 0.04462263
0.00000000 0.21902318 0.06226419
0.00000000 0.25761169 0.07840725
0.00000000 0.29219545 0.09305180
0.00000000 0.32277446 0.10619784
0.00000000 0.34934872 0.11784538
0.00000000 0.37191824 0.12799441
0.00000000 0.39048300 0.13664494
0.00000000 0.40504301 0.14379696
0.00000000 0.41559826 0.14945047
0.00000000 0.42214877 0.15360548
0.00000000 0.42469453 0.15626198
0.00000000 0.42323554 0.15741998
0.00000000 0.41777179 0.15707947
0.00000000 0.40830330 0.15524045
0.00000000 0.39483006 0.15190293
0.00000000 0.37735206 0.14706690
0.00000000 0.35586931 0.14073236
0.00000000 0.33038182 0.13289932
0.00000000 0.30088957 0.12356778
0.02912405 0.26739257 0.11273772
0.14606778 0.22989082 0.10040917
0.27193489 0.18838432 0.08658210
0.40672539 0.14287307 0.07125653
0.55043927 0.09335707 0.05443245
0.70307653 0.03983632 0.03610987
0.86462950 0.00000000 0.01628978
1.00000000 0.00000000 0.00000000
0.02070329 0.00000000 0.00000000
0.00000000 0.00000000 0.00000000
0.00000000 0.00000000 0.00000000
0.00000000 0.00037956 0.00000000
0.00000000 0.05099111 0.00160996
0.00000000 0.09759791 0.02065599
0.00000000 0.14019997 0.03820352
0.00000000 0.17879727 0.05425253
0.00000000 0.21338982 0.06880305
0.00000000 0.24397761 0.08185505
0.00000000 0.27056066 0.09340855
0.00000000 0.29313896 0.10346354
0.00000000 0.31171251 0.11202003
0.00000000 0.32628131 0.11907801
0.00000000 0.33684535 0.12463749
0.00000000 0.34340465 0.12869846
0.00000000 0.34595919 0.13126092
0.00000000 0.34450899 0.13232488
0.00000000 0.33905403 0.13189033
0.00000000 0.32959432 0.12995727
0.00000000 0.31612986 0.12652571
0.00000000 0.29866066 0.12159564
0.00000000 0.27718670 0.11516707
0.00000000 0.25170799 0.10723999
0.00000000 0.22222453 0.09781441
0.04926673 0.18873632 0.08689031
0.16606562 0.15124336 0.07446772
0.29178789 0.10974564 0.06054661
0.42643355 0.06424318 0.04512700
0.57000258 0.01473597 0.02820889
0.72249500 0.00000000 0.00979227
0.88390313 0.00000000 0.00000000
1.00000000 0.00000000 0.00000000
0.04312027 0.00000000 0.00000000
0.00000000 0.00000000 0.00000000
0.00000000 0.00000000 0.00000000
0.00000000 0.00000000 0.00000000
0.00000000 0.00000000 0.00000000
0.00000000 0.02621832 0.00000000
0.00000000 0.06882916 0.01619759
0.00000000 0.10743525 0.03215256
0.00000000 0.14203659 0.04660903
0.00000000 0.17263317 0.05956699
0.00000000 0.19922501 0.07102645
0.00000000 0.22181210 0.08098740
0.00000000 0.24039443 0.08944984
0.00000000 0.25497201 0.09641378
0.00000000 0.26554485 0.10187921
0.00000000 0.27211293 0.10584614
0.00000000 0.27467626 0.10831456
0.00000000 0.27323485 0.10928447
0.00000000 0.26778868 0.10875588
0.00000000 0.25833776 0.10672878
0.00000000 0.24488209 0.10320318
0.00000000 0.22742167 0.09817907
0.00000000 0.20595649 0.09165645
0.00000000 0.18048657 0.08363533
0.00000000 0.15101190 0.07411570
0.06807300 0.11753248 0.06309757
0.18472704 0.08004830 0.05058093
0.31030446 0.03855938 0.03656578
0.44480526 0.00000000 0.02105213
0.58822945 0.00000000 0.00403997
0.74057702 0.00000000 0.00000000
0.90184031 0.00000000 0.00000000
1.00000000 0.00000000 0.00000000
0.06419983 0.00000000 0.00000000
0.00000000 0.00000000 0.00000000
0.00000000 0.00000000 0.00000000
0.00000000 0.00000000 0.00000000
0.00000000 0.00000000 0.00000000
0.00000000 0.00000000 0.00000000
0.00000000 0.00491509 0.00000000
0.00000000 0.04352996 0.01210857
0.00000000 0.07814009 0.02647099
0.00000000 0.10874546 0.03933491
0.00000000 0.13534609 0.05070033
0.00000000 0.15794196 0.06056724
0.00000000 0.17653308 0.06893564
0.00000000 0.19111945 0.07580553
0.00000000 0.20170107 0.08117692
0.00000000 0.20827795 0.08504980
0.00000000 0.21085007 0.08742418
0.00000000 0.20941743 0.08830005
0.00000000 0.20398005 0.08767742
0.00000000 0.19453792 0.08555628
0.00000000 0.18109104 0.08193663
0.00000000 0.16363941 0.07681848
0.00000000 0.14218302 0.07020182
0.00000000 0.11672189 0.06208665
0.00000000 0.08725600 0.05247298
0.08554183 0.05378537 0.04136080
0.20205102 0.01630998 0.02875012
0.32748359 0.00000000 0.01464093
0.46183955 0.00000000 0.00000000
0.60511889 0.00000000 0.00000000
0.75732161 0.00000000 0.00000000
0.91844006 0.00000000 0.00000000
1.00000000 0.00000000 0.00000000
0.08394196 0.00000000 0.00000000
0.00000000 0.00000000 0.00000000
0.00000000 0.00000000 0.00000000
0.00000000 0.00000000 0.00000000
0.00000000 0.00000000 0.00000000
0.00000000 0.00000000 0.00000000
0.00000000 0.00000000 0.00000000
0.00000000 0.00000000 0.00000000
0.00000000 0.02170032 0.00838894
0.00000000 0.05231448 0.02115882
0.00000000 0.07892389 0.03243019
0.00000000 0.10152855 0.04220305
0.00000000 0.12012846 0.05047741
0.00000000 0.13472362 0.05725326
0.00000000 0.14531403 0.06253061
0.00000000 0.15189969 0.06630945
0.00000000 0.15448060 0.06858978
0.00000000 0.15305675 0.06937161
0.00000000 0.14762816 0.06865494
0.00000000 0.13819482 0.06643975
0.00000000 0.12475672 0.06272606
0.00000000 0.10731387 0.05751387
0.00000000 0.08586628 0.05080316
0.00000000 0.06041393 0.04259396
0.00000000 0.03095683 0.03288624
0.10167324 0.00000000 0.02168002
0.21803758 0.00000000 0.00897529
0.34332530 0.00000000 0.00000000
0.47753641 0.00000000 0.00000000
0.62067090 0.00000000 0.00000000
0.77272877 0.00000000 0.00000000
0.93370238 0.00000000 0.00000000
1.00000000 0.00000000 0.00000000
0.10234667 0.00000000 0.00000000
0.00420892 0.00000000 0.00000000
0.00000000 0.00000000 0.00000000
0.00000000 0.00000000 0.00000000
0.00000000 0.00000000 0.00000000
0.00000000 0.00000000 0.00000000
0.00000000 0.00000000 0.00000000
0.00000000 0.00000000 0.00000000
0.00000000 0.00000000 0.00000000
0.00000000 0.00334023 0.00503870
0.00000000 0.02995843 0.01621603
0.00000000 0.05257188 0.02589485
0.00000000 0.07118057 0.03407517
0.00000000 0.08578452 0.04075698
0.00000000 0.09638372 0.04594028
0.00000000 0.10297816 0.04962508
0.00000000 0.10556786 0.05181137
0.00000000 0.10415280 0.05249915
0.00000000 0.09873300 0.05168843
0.00000000 0.08930844 0.04937921
0.00000000 0.07587913 0.04557147
0.00000000 0.05844507 0.04026523
0.00000000 0.03700627 0.03346049
0.00000000 0.01156271 0.02515724
0.00917111 0.00000000 0.01535548
0.11646722 0.00000000 0.00405522
0.23268671 0.00000000 0.00000000
0.35782959 0.00000000 0.00000000
0.49189585 0.00000000 0.00000000
0.63488549 0.00000000 0.00000000
0.78679851 0.00000000 0.00000000
0.94762727 0.00000000 0.00000000
1.00000000 0.00000000 0.00000000
0.11941395 0.00000000 0.00000000
0.02114184 0.00000000 0.00000000
0.00000000 0.00000000 0.00000000
0.00000000 0.00000000 0.00000000
0.00000000 0.00000000 0.00000000
0.00000000 0.00000000 0.00000000
0.00000000 0.00000000 0.00000000
0.00000000 0.00000000 0.00000000
0.00000000 0.00000000 0.00000000
0.00000000 0.00000000 0.00000000
0.00000000 0.00000000 0.00205785
0.00000000 0.01107193 0.01164263
0.00000000 0.02968942 0.01972890
0.00000000 0.04430215 0.02631667
0.00000000 0.05491013 0.03140593
0.00000000 0.06151337 0.03499669
0.00000000 0.06411185 0.03708893
0.00000000 0.06270558 0.03768268
0.00000000 0.05729456 0.03677791
0.00000000 0.04787879 0.03437464
0.00000000 0.03445827 0.03047287
0.00000000 0.01703300 0.02507259
0.00000000 0.00000000 0.01817380
0.00000000 0.00000000 0.00977650
0.02277252 0.00000000 0.00000000
0.12992378 0.00000000 0.00000000
0.24599842 0.00000000 0.00000000
0.37099645 0.00000000 0.00000000
0.50491785 0.00000000 0.00000000
0.64776265 0.00000000 0.00000000
0.79953082 0.00000000 0.00000000
0.96021474 0.00000000 0.00000000
1.00000000 0.00000000 0.00000000
0.13514380 0.00000000 0.00000000
0.03673734 0.00000000 0.00000000
0.00000000 0.00000000 0.00000000
0.00000000 0.00000000 0.00000000
0.00000000 0.00000000 0.00000000
0.00000000 0.00000000 0.00000000
0.00000000 0.00000000 0.00000000
0.00000000 0.00000000 0.00000000
0.00000000 0.00000000 0.00000000
0.00000000 0.00000000 0.00000000
0.00000000 0.00000000 0.00000000
0.00000000 0.00000000 0.00000000
0.00000000 0.00000000 0.00743862
0.00000000 0.01027651 0.01393235
0.00000000 0.02089328 0.01892756
0.00000000 0.02750530 0.02242428
0.00000000 0.03011257 0.02442248
0.00000000 0.02871509 0.02492218
0.00000000 0.02331286 0.02392337
0.00000000 0.01390588 0.02142606
0.00000000 0.00049414 0.01743024
0.00000000 0.00000000 0.01193592
0.00000000 0.00000000 0.00494309
0.00000000 0.00000000 0.00000000
0.03503649 0.00000000 0.00000000
0.14204290 0.00000000 0.00000000
0.25797270 0.00000000 0.00000000
0.38282588 0.00000000 0.00000000
0.51660244 0.00000000 0.00000000
0.65930238 0.00000000 0.00000000
0.81092570 0.00000000 0.00000000
0.97146478 0.00000000 0.00000000
1.00000000 0.00000000 0.00000000
0.14953623 0.00000000 0.00000000
0.05099541 0.00000000 0.00000000
0.00000000 0.00000000 0.00000000
0.00000000 0.00000000 0.00000000
0.00000000 0.00000000 0.00000000
0.00000000 0.00000000 0.00000000
0.00000000 0.00000000 0.00000000
0.00000000 0.00000000 0.00000000
0.00000000 0.00000000 0.00000000
0.00000000 0.00000000 0.00000000
0.00000000 0.00000000 0.00000000
0.00000000 0.00000000 0.00000000
0.00000000 0.00000000 0.00000000
0.00000000 0.00000000 0.00360400
0.00000000 0.00000000 0.00850518
0.00000000 0.00095396 0.01190785
0.00000000 0.00357002 0.01381201
0.00000000 0.00218133 0.01421766
0.00000000 0.00000000 0.01312482
0.00000000 0.00000000 0.01053346
0.00000000 0.00000000 0.00644360
0.00000000 0.00000000 0.00085523
0.00000000 0.00000000 0.00000000
0.00000000 0.00000000 0.00000000
0.04596304 0.00000000 0.00000000
0.15282461 0.00000000 0.00000000
0.26860955 0.00000000 0.00000000
0.39331788 0.00000000 0.00000000
0.52694959 0.00000000 0.00000000
0.66950468 0.00000000 0.00000000
0.82098316 0.00000000 0.00000000
0.98137740 0.00000000 0.00000000
1.00000000 0.00000000 0.00000000
0.16259122 0.00000000 0.00000000
0.06391605 0.00000000 0.00000000
0.00000000 0.00000000 0.00000000
0.00000000 0.00000000 0.00000000
0.00000000 0.00000000 0.00000000
0.00000000 0.00000000 0.00000000
0.00000000 0.00000000 0.00000000
0.00000000 0.00000000 0.00000000
0.00000000 0.00000000 0.00000000
0.00000000 0.00000000 0.00000000
0.00000000 0.00000000 0.00000000
0.00000000 0.00000000 0.00000000
0.00000000 0.00000000 0.00000000
0.00000000 0.00000000 0.00000000
0.00000000 0.00000000 0.00013877
0.00000000 0.00000000 0.00344740
0.00000000 0.00000000 0.00525752
0.00000000 0.00000000 0.00556913
0.00000000 0.00000000 0.00438224
0.00000000 0.00000000 0.00169684
0.00000000 0.00000000 0.00000000
0.00000000 0.00000000 0.00000000
0.00000000 0.00000000 0.00000000
0.00000000 0.00000000 0.00000000
0.05555217 0.00000000 0.00000000
0.16226888 0.00000000 0.00000000
0.27790898 0.00000000 0.00000000
0.40247246 0.00000000 0.00000000
0.53595932 0.00000000 0.00000000
0.67836956 0.00000000 0.00000000
0.82970319 0.00000000 0.00000000
0.98995258 0.00000000 0.00000000
1.00000000 0.00000000 0.00000000
0.17430880 0.00000000 0.00000000
0.07549927 0.00000000 0.00000000
0.00000000 0.00000000 0.00000000
0.00000000 0.00000000 0.00000000
0.00000000 0.00000000 0.00000000
0.00000000 0.00000000 0.00000000
0.00000000 0.00000000 0.00000000
0.00000000 0.00000000 0.00000000
0.00000000 0.00000000 0.00000000
0.00000000 0.00000000 0.00000000
0.00000000 0.00000000 0.00000000
0.00000000 0.00000000 0.00000000
0.00000000 0.00000000 0.00000000
0.00000000 0.00000000 0.00000000
0.00000000 0.00000000 0.00000000
0.00000000 0.00000000 0.00000000
0.00000000 0.00000000 0.00000000
0.00000000 0.00000000 0.00000000
0.00000000 0.00000000 0.00000000
0.00000000 0.00000000 0.00000000
0.00000000 0.00000000 0.00000000
0.00000000 0.00000000 0.00000000
0.00000000 0.00000000 0.00000000
0.00000000 0.00000000 0.00000000
0.06380387 0.00000000 0.00000000
0.17037573 0.00000000 0.00000000
0.28587098 0.00000000 0.00000000
0.41028961 0.00000000 0.00000000
0.54363162 0.00000000 0.00000000
0.68589702 0.00000000 0.00000000
0.83708580 0.00000000 0.00000000
0.99719035 0.00000000 0.00000000
1.00000000 0.00000000 0.00000000
0.18468894 0.00000000 0.00000000
0.08574506 0.00000000 0.00000000
0.00000000 0.00000000 0.00000000
0.00000000 0.00000000 0.00000000
0.00000000 0.00000000 0.00000000
0.00000000 0.00000000 0.00000000
0.00000000 0.00000000 0.00000000
0.00000000 0.00000000 0.00000000
0.00000000 0.00000000 0.00000000
0.00000000 0.00000000 0.00000000
0.00000000 0.00000000 0.00000000
0.00000000 0.00000000 0.00000000
0.00000000 0.00000000 0.00000000
0.00000000 0.00000000 0.00000000
0.00000000 0.00000000 0.00000000
0.00000000 0.00000000 0.00000000
0.00000000 0.00000000 0.00000000
0.00000000 0.00000000 0.00000000
0.00000000 0.00000000 0.00000000
0.00000000 0.00000000 0.00000000
0.00000000 0.00000000 0.00000000
0.00000000 0.00000000 0.00000000
0.00000000 0.00000000 0.00000000
0.00000000 0.00000000 0.00000000
0.07071814 0.00000000 0.00000000
0.17714515 0.00000000 0.00000000
0.29249555 0.00000000 0.00000000
0.41676933 0.00000000 0.00000000
0.54996650 0.00000000 0.00000000
0.69208704 0.00000000 0.00000000
0.84313097 0.00000000 0.00000000
1.00000000 0.00000000 0.00000000
1.00000000 0.00000000 0.00000000
0.19373166 0.00000000 0.00000000
0.09465342 0.00000000 0.00000000
0.00000000 0.00000000 0.00000000
0.00000000 0.00000000 0.00000000
0.00000000 0.00000000 0.00000000
0.00000000 0.00000000 0.00000000
0.00000000 0.00000000 0.00000000
0.00000000 0.00000000 0.00000000
0.00000000 0.00000000 0.00000000
0.00000000 0.00000000 0.00000000
0.00000000 0.00000000 0.00000000
0.00000000 0.00000000 0.00000000
0.00000000 0.00000000 0.00000000
0.00000000 0.00000000 0.00000000
0.00000000 0.00000000 0.00000000
0.00000000 0.00000000 0.00000000
0.00000000 0.00000000 0.00000000
0.00000000 0.00000000 0.00000000
0.00000000 0.00000000 0.00000000
0.00000000 0.00000000 0.00000000
0.00000000 0.00000000 0.00000000
0.00000000 0.00000000 0.00000000
0.00000000 0.00000000 0.00000000
0.00000000 0.00000000 0.00000000
0.07629498 0.00000000 0.00000000
0.18257715 0.00000000 0.00000000
0.29778270 0.00000000 0.00000000
0.42191163 0.00000000 0.00000000
0.55496395 0.00000000 0.00000000
0.69693964 0.00000000 0.00000000
0.84783872 0.00000000 0.00000000
1.00000000 0.00000000 0.00000000
1.00000000 0.00000000 0.00000000
0.20143695 0.00000000 0.00000000
0.10222435 0.00000000 0.00000000
0.00312921 0.00000000 0.00000000
0.00000000 0.00000000 0.00000000
0.00000000 0.00000000 0.00000000
0.00000000 0.00000000 0.00000000
0.00000000 0.00000000 0.00000000
0.00000000 0.00000000 0.00000000
0.00000000 0.00000000 0.00000000
0.00000000 0.00000000 0.00000000
0.00000000 0.00000000 0.00000000
0.00000000 0.00000000 0.00000000
0.00000000 0.00000000 0.00000000
0.00000000 0.00000000 0.00000000
0.00000000 0.00000000 0.00000000
0.00000000 0.00000000 0.00000000
0.00000000 0.00000000 0.00000000
0.00000000 0.00000000 0.00000000
0.00000000 0.00000000 0.00000000
0.00000000 0.00000000 0.00000000
0.00000000 0.00000000 0.00000000
0.00000000 0.00000000 0.00000000
0.00000000 0.00000000 0.00000000
0.00000000 0.00000000 0.00000000
0.08053440 0.00000000 0.00000000
0.18667172 0.00000000 0.00000000
0.30173242 0.00000000 0.00000000
0.42571650 0.00000000 0.00000000
0.55862397 0.00000000 0.00000000
0.70045482 0.00000000 0.00000000
0.85120905 0.00000000 0.00000000
1.00000000 0.00000000 0.00000000
1.00000000 0.00000000 0.00000000
0.20780482 0.00000000 0.00000000
0.10845786 0.00000000 0.00000000
0.00921788 0.00000000 0.00000000
0.00000000 0.00000000 0.00000000
0.00000000 0.00000000 0.00000000
0.00000000 0.00000000 0.00000000
0.00000000 0.00000000 0.00000000
0.00000000 0.00000000 0.00000000
0.00000000 0.00000000 0.00000000
0.00000000 0.00000000 0.00000000
0.00000000 0.00000000 0.00000000
0.00000000 0.00000000 0.00000000
0.00000000 0.00000000 0.00000000
0.00000000 0.00000000 0.00000000
0.00000000 0.00000000 0.00000000
0.00000000 0.00000000 0.00000000
0.00000000 0.00090606 0.00000000
0.00000000 0.00000000 0.00000000
0.00000000 0.00000000 0.00000000
0.00000000 0.00000000 0.00000000
0.00000000 0.00000000 0.00000000
0.00000000 0.00000000 0.00000000
0.00000000 0.00000000 0.00000000
0.00000000 0.00000000 0.00000000
0.08343639 0.00000000 0.00000000
0.18942886 0.00000000 0.00000000
0.30434471 0.00000000 0.00000000
0.42818395 0.00000000 0.00000000
0.56094656 0.00000000 0.00000000
0.70263256 0.00000000 0.00000000
0.85324195 0.00000000 0.00000000
1.00000000 0.00000000 0.00000000
1.00000000 0.00000000 0.00000000
0.21283526 0.00000000 0.00000000
0.11335395 0.00000000 0.00000000
0.01396912 0.00000000 0.00000000
0.00000000 0.00000000 0.00000000
0.00000000 0.00000000 0.00000000
0.00000000 0.00000000 0.00000000
0.00000000 0.00000000 0.00000000
0.00000000 0.00000000 0.00000000
0.00000000 0.00000000 0.00000000
0.00000000 0.00000000 0.00000000
0.00000000 0.00000000 0.00000000
0.00000000 0.00000000 0.00000000
0.00000000 0.00000000 0.00000000
0.00000000 0.00651365 0.00000000
0.00000000 0.01720073 0.00000000
0.00000000 0.02388305 0.00000000
0.00000000 0.02656062 0.00000000
0.00000000 0.02523344 0.00000000
0.00000000 0.01990151 0.00000000
0.00000000 0.01056482 0.00000000
0.00000000 0.00000000 0.00000000
0.00000000 0.00000000 0.00000000
0.00000000 0.00000000 0.00000000
0.00000000 0.00000000 0.00000000
0.08500095 0.00000000 0.00000000
0.19084857 0.00000000 0.00000000
0.30561958 0.00000000 0.00000000
0.42931396 0.00000000 0.00000000
0.56193173 0.00000000 0.00000000
0.70347288 0.00000000 0.00000000
0.85393742 0.00000000 0.00000000
1.00000000 0.00000000 0.00000000
1.00000000 0.00000000 0.00000000
0.21652827 0.00000000 0.00000000
0.11691260 0.00000000 0.00000000
0.01738293 0.00000000 0.00000000
0.00000000 0.00000000 0.00000000
0.00000000 0.00000000 0.00000000
0.00000000 0.00000000 0.00000000
0.00000000 0.00000000 0.00000000
0.00000000 0.00000000 0.00000000
0.00000000 0.00000000 0.00000000
0.00000000 0.00000000 0.00000000
0.00000000 0.00000000 0.00000000
0.00000000 0.00619261 0.00000000
0.00000000 0.02489797 0.00000000
0.00000000 0.03959858 0.00000000
0.00000000 0.05029444 0.00000000
0.00000000 0.05698555 0.00179173
0.00000000 0.05967191 0.00294355
0.00000000 0.05835351 0.00259686
0.00000000 0.05303037 0.00075167
0.00000000 0.04370248 0.00000000
0.00000000 0.03036983 0.00000000
0.00000000 0.01303244 0.00000000
0.00000000 0.00000000 0.00000000
0.00000000 0.00000000 0.00000000
0.08522809 0.00000000 0.00000000
0.19093086 0.00000000 0.00000000
0.30555702 0.00000000 0.00000000
0.42910656 0.00000000 0.00000000
0.56157948 0.00000000 0.00000000
0.70297578 0.00000000 0.00000000
0.85329546 0.00000000 0.00000000
1.00000000 0.00000000 0.00000000
1.00000000 0.00000000 0.00000000
0.21888386 0.00000000 0.00000000
0.11913383 0.00000000 0.00000000
0.01945932 0.00000000 0.00000000
0.00000000 0.00000000 0.00000000
0.00000000 0.00000000 0.00000000
0.00000000 0.00000000 0.00000000
0.00000000 0.00000000 0.00000000
0.00000000 0.00000000 0.00000000
0.00000000 0.00000000 0.00000000
0.00000000 0.00000000 0.00000000
0.00000000 0.02399780 0.00000000
0.00000000 0.04671669 0.00000000
0.00000000 0.06543084 0.00000000
0.00000000 0.08014024 0.00316806
0.00000000 0.09084489 0.00722285
0.00000000 0.09754478 0.00977913
0.00000000 0.10023993 0.01083691
0.00000000 0.09893032 0.01039618
0.00000000 0.09361597 0.00845694
0.00000000 0.08429686 0.00501920
0.00000000 0.07097300 0.00008295
0.00000000 0.05364440 0.00000000
0.00000000 0.03231104 0.00000000
0.00000000 0.00697293 0.00000000
0.08411780 0.00000000 0.00000000
0.18967573 0.00000000 0.00000000
0.30415703 0.00000000 0.00000000
0.42756172 0.00000000 0.00000000
0.55988979 0.00000000 0.00000000
0.70114124 0.00000000 0.00000000
0.85131608 0.00000000 0.00000000
1.00000000 0.00000000 0.00000000
1.00000000 0.00000000 0.00000000
0.21990202 0.00000000 0.00000000
0.12001764 0.00000000 0.00000000
0.02019828 0.00000000 0.00000000
0.00000000 0.00000000 0.00000000
0.00000000 0.00000000 0.00000000
0.00000000 0.00000000 0.00000000
0.00000000 0.00000000 0.00000000
0.00000000 0.00000000 0.00000000
0.00000000 0.01450020 0.00000000
0.00000000 0.04523738 0.00000000
0.00000000 0.07196982 0.00000000
0.00000000 0.09469751 0.00098252
0.00000000 0.11342044 0.00794028
0.00000000 0.12813863 0.01339953
0.00000000 0.13885206 0.01736027
0.00000000 0.14556074 0.01982251
0.00000000 0.14826468 0.02078625
0.00000000 0.14696386 0.02025148
0.00000000 0.14165829 0.01821820
0.00000000 0.13234797 0.01468641
0.00000000 0.11903290 0.00965612
0.00000000 0.10171308 0.00312732
0.00000000 0.08038851 0.00000000
0.00000000 0.05505919 0.00000000
0.08167009 0.02572512 0.00000000
0.18708316 0.00000000 0.00000000
0.30141962 0.00000000 0.00000000
0.42467946 0.00000000 0.00000000
0.55686268 0.00000000 0.00000000
0.69796928 0.00000000 0.00000000
0.84799927 0.00000000 0.00000000
1.00000000 0.00000000 0.00000000
1.00000000 0.00000000 0.00000000
0.21958275 0.00000000 0.00000000
0.11956401 0.00000000 0.00000000
0.01959982 0.00000000 0.00000000
0.00000000 0.00000000 0.00000000
0.00000000 0.00000000 0.00000000
0.00000000 0.00000000 0.00000000
0.00000000 0.00000000 0.00000000
0.00000000 0.03516065 0.00000000
0.00000000 0.06991138 0.00000000
0.00000000 0.10065735 0.00000000
0.00000000 0.12739858 0.00509583
0.00000000 0.15013505 0.01345805
0.00000000 0.16886677 0.02032177
0.00000000 0.18359374 0.02568698
0.00000000 0.19431597 0.02955368
0.00000000 0.20103344 0.03192188
0.00000000 0.20374616 0.03279157
0.00000000 0.20245413 0.03216275
0.00000000 0.19715735 0.03003543
0.00000000 0.18785582 0.02640960
0.00000000 0.17454953 0.02128527
0.00000000 0.15723850 0.01466243
0.00000000 0.13592272 0.00654108
0.00000000 0.11060218 0.00000000
0.07788495 0.08127690 0.00000000
0.18315317 0.04794686 0.00000000
0.29734478 0.01061208 0.00000000
0.42045977 0.00000000 0.00000000
0.55249814 0.00000000 0.00000000
0.69345990 0.00000000 0.00000000
0.84334504 0.00000000 0.00000000
1.00000000 0.00000000 0.00000000
1.00000000 0.00000000 0.00000000
0.21792606 0.00000000 0.00000000
0.11777296 0.00000000 0.00000000
0.01766392 0.00000000 0.00000000
0.00000000 0.00000000 0.00000000
0.00000000 0.00000000 0.00000000
0.00000000 0.01648650 0.00000000
0.00000000 0.05925551 0.00000000
0.00000000 0.09801977 0.00000000
0.00000000 0.13277929 0.00000000
0.00000000 0.16353405 0.00995471
0.00000000 0.19028406 0.01972139
0.00000000 0.21302932 0.02798957
0.00000000 0.23176983 0.03475924
0.00000000 0.24650559 0.04003041
0.00000000 0.25723660 0.04380307
0.00000000 0.26396286 0.04607722
0.00000000 0.26668437 0.04685287
0.00000000 0.26540113 0.04613001
0.00000000 0.26011313 0.04390865
0.00000000 0.25082039 0.04018878
0.00000000 0.23752289 0.03497040
0.00000000 0.22022065 0.02825352
0.00000000 0.19891365 0.02003813
0.00000000 0.17360191 0.01032423
0.07276238 0.14428541 0.00000000
0.17788575 0.11096416 0.00000000
0.29193251 0.07363816 0.00000000
0.41490265 0.03230742 0.00000000
0.54679618 0.00000000 0.00000000
0.68761309 0.00000000 0.00000000
