data/manual_verify/canoncgt_candidates/candidate_b.cube
TITLE "LocalColorService CanonCGT fitted transform"
LUT_3D_SIZE 5
DOMAIN_MIN 0.0 0.0 0.0
DOMAIN_MAX 1.0 1.0 1.0
0.00000000 0.00000000 0.00000000
0.00000000 0.28396069 0.08970247
0.00000000 0.38523365 0.13857331
0.10087268 0.29050940 0.11410551
1.00000000 0.00342092 0.01755900
0.10334526 0.00000000 0.00000000
0.00000000 0.00000000 0.00000000
0.00000000 0.08185079 0.01867601
0.20326320 0.00000000 0.00000000
1.00000000 0.00000000 0.00000000
0.16275637 0.00000000 0.00000000
0.00000000 0.03582891 0.00000000
0.00000000 0.13795812 0.00000000
0.24147132 0.04409012 0.00000000
1.00000000 0.00000000 0.00000000
0.15671226 0.16159478 0.00000000
0.00000000 0.45644730 0.04241544
0.00000000 0.55900658 0.07752027
0.21422420 0.46556866 0.03928645
1.00000000 0.17975484 0.00000000
0.08619433 0.93854737 0.12261711
0.00000000 1.00000000 0.22518472
0.00000000 1.00000000 0.25572869
0.12269538 1.00000000 0.21293400
0.99657260 0.95840441 0.09822666
0.58133951 0.31246427 0.29642782
0.18575881 0.60624970 0.41207762
0.22023584 0.70773213 0.45582338
0.69143372 0.61321735 0.42623049
1.00000000 0.32633644 0.32460533
0.70144349 0.00815862 0.17876815
0.30073126 0.30273969 0.29238988
0.33002983 0.40502504 0.33408902
0.79604926 0.31131318 0.30244951
1.00000000 0.02522792 0.19879627
0.75752703 0.06333471 0.16013730
0.35163634 0.35871871 0.27171241
0.37570911 0.46181432 0.31134622
0.83650274 0.36891272 0.27764138
1.00000000 0.08363038 0.17194153
0.74815534 0.48345194 0.24212859
0.33708619 0.77963886 0.35165707
0.35593317 0.88354473 0.38922555
0.81150099 0.79145340 0.35345538
1.00000000 0.50697398 0.24570891
0.67433999 1.00000000 0.42257463
0.25813930 1.00000000 0.53007505
0.27180782 1.00000000 0.56559691
0.72219718 1.00000000 0.52778012
1.00000000 1.00000000 0.41800557
0.78073206 0.41839638 0.56395897
0.38152888 0.71239128 0.67448368
0.41235031 0.81408509 0.71305749
0.87989259 0.71978169 0.67829265
1.00000000 0.43311025 0.57154240
0.89750847 0.11401574 0.43939394
0.49502014 0.40918303 0.55040483
0.52252639 0.51205995 0.58946927
0.98675348 0.41893966 0.55519505
1.00000000 0.13344061 0.44893098
0.95023401 0.16911616 0.41379460
0.54443050 0.46546656 0.52529612
0.56859125 0.56953741 0.56485566
1.00000000 0.47761105 0.53107655
1.00000000 0.19329512 0.42530310
0.93750431 0.58915772 0.48881740
0.52838562 0.88669123 0.60080953
0.54920089 0.99195601 0.64086418
1.00000000 0.90122358 0.60758019
1.00000000 0.61809076 0.50229736
0.86036138 1.00000000 0.66235810
0.44795755 1.00000000 0.77483641
0.46545763 1.00000000 0.81538168
0.91967856 1.00000000 0.78258830
1.00000000 1.00000000 0.67779165
0.57051609 0.30410162 0.76905240
0.16769043 0.59830598 0.87445202
0.19485626 0.70021117 0.90785389
0.65874293 0.60611916 0.86791710
1.00000000 0.31965718 0.75604177
0.68396492 0.00000000 0.63758202
0.27970051 0.29539949 0.74598208
0.30541443 0.39886798 0.78241181
0.76784919 0.30633927 0.74550288
1.00000000 0.02142643 0.63662798
0.73333246 0.05467074 0.60501420
0.32761614 0.35198754 0.71644211
0.35186487 0.45703363 0.75592739
0.81283446 0.36608251 0.72207401
1.00000000 0.08273298 0.61622697
0.71724477 0.47463662 0.67306850
0.31007653 0.77351673 0.78752428
0.33286009 0.88014041 0.83006510
0.79236449 0.79076689 0.79926727
1.00000000 0.50898066 0.69644810
0.63677426 1.00000000 0.83970384
0.22816727 1.00000000 0.95716005
0.24949892 1.00000000 1.00000000
0.70755141 1.00000000 0.97495877
1.00000000 1.00000000 0.87514002
0.00000000 0.00000000 0.91152665
0.00000000 0.26814522 1.00000000
0.00000000 0.37025988 1.00000000
0.03578729 0.27637733 0.99506252
0.92321232 0.00000000 0.87810853
0.06854648 0.00000000 0.77321348
0.00000000 0.00000000 0.87902635
0.00000000 0.06959246 0.91284525
0.14711857 0.00000000 0.87332549
1.00000000 0.00000000 0.76186341
0.11458644 0.00000000 0.73374030
0.00000000 0.02242757 0.84509529
0.00000000 0.12844006 0.88450697
0.19434920 0.03845534 0.85058000
1.00000000 0.00000000 0.74466003
0.09517117 0.14404401 0.79488926
0.00000000 0.44425851 0.91178636
0.00000000 0.55222879 0.95679083
0.17612459 0.46420186 0.92845664
1.00000000 0.18375002 0.82807879
0.01140323 0.92069801 0.95468181
0.00000000 1.00000000 1.00000000
0.00000000 1.00000000 1.00000000
0.09353653 1.00000000 1.00000000
0.98253234 0.96812906 1.00000000
