data/manual_verify/canoncgt_candidates/candidate_c.cube
TITLE "LocalColorService CanonCGT fitted transform"
LUT_3D_SIZE 9
DOMAIN_MIN 0.0 0.0 0.0
DOMAIN_MAX 1.0 1.0 1.0
0.00000000 0.00000000 0.00000000
0.00000000 0.20900226 0.04938507
0.00000000 0.37133321 0.11730323
0.00000000 0.46958815 0.16124529
0.00000000 0.50376708 0.18121126
0.00000000 0.47387000 0.17720113
0.00000000 0.37989691 0.14921490
0.38730031 0.22184781 0.09725257
1.00000000 0.00447351 0.02296178
0.06419983 0.00000000 0.00000000
0.00000000 0.00000000 0.00000000
0.00000000 0.07814009 0.02647099
0.00000000 0.17653308 0.06893564
0.00000000 0.21085007 0.08742418
0.00000000 0.18109104 0.08193663
0.00000000 0.08725600 0.05247298
0.46183955 0.00000000 0.00000000
1.00000000 0.00000000 0.00000000
0.13514380 0.00000000 0.00000000
0.00000000 0.00000000 0.00000000
0.00000000 0.00000000 0.00000000
0.00000000 0.00000000 0.00743862
0.00000000 0.03011257 0.02442248
0.00000000 0.00049414 0.01743024
0.03503649 0.00000000 0.00000000
0.51660244 0.00000000 0.00000000
1.00000000 0.00000000 0.00000000
0.18468894 0.00000000 0.00000000
0.00000000 0.00000000 0.00000000
0.00000000 0.00000000 0.00000000
0.00000000 0.00000000 0.00000000
0.00000000 0.00000000 0.00000000
0.00000000 0.00000000 0.00000000
0.07071814 0.00000000 0.00000000
0.54996650 0.00000000 0.00000000
1.00000000 0.00000000 0.00000000
0.21283526 0.00000000 0.00000000
0.00000000 0.00000000 0.00000000
0.00000000 0.00000000 0.00000000
0.00000000 0.00000000 0.00000000
0.00000000 0.02656062 0.00000000
0.00000000 0.00000000 0.00000000
0.08500095 0.00000000 0.00000000
0.56193173 0.00000000 0.00000000
1.00000000 0.00000000 0.00000000
0.21958275 0.00000000 0.00000000
0.00000000 0.00000000 0.00000000
0.00000000 0.06991138 0.00000000
0.00000000 0.16886677 0.02032177
0.00000000 0.20374616 0.03279157
0.00000000 0.17454953 0.02128527
0.07788495 0.08127690 0.00000000
0.55249814 0.00000000 0.00000000
1.00000000 0.00000000 0.00000000
0.20493142 0.00000000 0.00000000
0.00000000 0.20295139 0.00000000
0.00000000 0.36612340 0.05546634
0.00000000 0.46521939 0.09040755
0.00000000 0.50023938 0.10137266
0.00000000 0.47118335 0.08836168
0.04937011 0.37805132 0.05137459
0.52166573 0.22084328 0.00000000
1.00000000 0.00429480 0.00000000
0.16888126 0.39578806 0.02289755
0.00000000 0.61833049 0.10253988
0.00000000 0.78164309 0.15995250
0.00000000 0.88087969 0.19338903
0.00000000 0.91604028 0.20284945
0.00000000 0.88712485 0.18833378
0.00000000 0.79413342 0.14984201
0.46943449 0.63706598 0.08737415
1.00000000 0.42065555 0.00276817
0.11271567 0.91963886 0.16034545
0.00000000 1.00000000 0.23853713
0.00000000 1.00000000 0.29447233
0.00000000 1.00000000 0.32643143
0.00000000 1.00000000 0.33441444
0.00000000 1.00000000 0.31842134
0.00000000 1.00000000 0.27845215
0.39738102 1.00000000 0.21450687
0.99551801 0.94560577 0.12845024
0.42897543 0.23134795 0.14363214
0.06600801 0.45299313 0.23195954
0.00000000 0.61539193 0.29821751
0.00000000 0.71371473 0.34049939
0.00000000 0.74796151 0.35880516
0.00711296 0.71813229 0.35313484
0.34932450 0.62422705 0.32348842
0.83431017 0.46624581 0.26986591
1.00000000 0.24893813 0.19394500
0.51834416 0.00000000 0.05353164
0.15343334 0.15969748 0.14080458
0.00000000 0.32229480 0.20598863
0.00000000 0.42081610 0.24719659
0.00000000 0.45526140 0.26442844
0.08662122 0.42563069 0.25768420
0.42685350 0.33192397 0.22696387
0.90985990 0.17414124 0.17226743
1.00000000 0.00000000 0.09529207
0.58821021 0.00000000 0.00000000
0.22132012 0.00000000 0.08048356
0.00000000 0.14137385 0.14457388
0.00000000 0.24009734 0.18468809
0.00000000 0.27474482 0.20082621
0.14644483 0.24531628 0.19298824
0.48466131 0.15181174 0.16117416
0.96565192 0.00000000 0.10538399
1.00000000 0.00000000 0.02733471
0.63667744 0.00000000 0.00000000
0.26780808 0.00000000 0.05305824
0.03291228 0.07976058 0.11605482
0.00000000 0.17868625 0.15507530
0.00000000 0.21353591 0.17011968
0.18486962 0.18430955 0.16118797
0.52107031 0.09100719 0.12828016
1.00000000 0.00000000 0.07139625
1.00000000 0.00000000 0.00000000
0.66374584 0.00000000 0.00000000
0.29289722 0.00000000 0.05852862
0.05598562 0.13745499 0.12043146
0.00000000 0.23658284 0.15835821
0.01048480 0.27163468 0.17230885
0.20189558 0.24261050 0.16228340
0.53608047 0.14951032 0.12828185
1.00000000 0.00000000 0.07030421
1.00000000 0.00000000 0.00000000
0.66941542 0.00000000 0.01391743
0.29658753 0.15105105 0.09689470
0.05766014 0.31445708 0.15770380
0.00000000 0.41378711 0.19453681
0.00812773 0.44904112 0.20739372
0.19752271 0.42021913 0.19627453
0.52969182 0.32732112 0.16117924
1.00000000 0.17034711 0.10210786
1.00000000 0.00000000 0.02083682
0.65368617 0.22432596 0.08625313
0.27887901 0.44715864 0.16815648
0.03793583 0.61076685 0.22787184
0.00000000 0.71029906 0.26361111
0.00000000 0.74575525 0.27537428
0.17175102 0.71713543 0.26316135
0.50190433 0.62443961 0.22697233
0.97483177 0.46766777 0.16680721
1.00000000 0.25154759 0.08446226
0.61655809 0.63954272 0.19148452
0.23977167 0.86257391 0.27231395
0.00000000 1.00000000 0.33093558
0.00000000 1.00000000 0.36558111
0.00000000 1.00000000 0.37625054
0.12458051 1.00000000 0.36294388
0.45271802 1.00000000 0.32566112
0.92362966 0.88429611 0.26440226
1.00000000 0.66837445 0.18098339
0.55933412 1.00000000 0.32673607
0.18060430 1.00000000 0.40651105
0.00000000 1.00000000 0.46405876
0.00000000 1.00000000 0.49763037
0.00000000 1.00000000 0.50722588
0.05749607 1.00000000 0.49284530
0.38365432 1.00000000 0.45448862
0.85258669 1.00000000 0.39215585
1.00000000 1.00000000 0.30768251
0.76021320 0.40860712 0.31071331
0.39607233 0.63032016 0.39738052
0.16599229 0.79278807 0.46194766
0.07868636 0.89117997 0.50253870
0.13415456 0.92549586 0.51915365
0.33239688 0.89573574 0.51179250
0.67341332 0.80189961 0.48045526
1.00000000 0.64398747 0.42514191
1.00000000 0.42674765 0.34756082
0.84850401 0.11509226 0.21837592
0.48271607 0.33706068 0.30439218
0.25095854 0.49978868 0.36829635
0.16197514 0.59844067 0.40822442
0.21576586 0.63301666 0.42417640
0.41233070 0.60351663 0.41615228
0.75166967 0.50994059 0.38415207
1.00000000 0.35228855 0.32817576
1.00000000 0.13530411 0.24994370
0.91727226 0.00000000 0.15685066
0.54980683 0.15597439 0.24220395
0.31634087 0.31896729 0.30543292
0.22564903 0.41788417 0.34468579
0.27773132 0.45272505 0.35996256
0.47258773 0.42348992 0.35126324
0.81021826 0.33017878 0.31858782
1.00000000 0.17279162 0.26193630
1.00000000 0.00000000 0.18304128
0.96464168 0.00000000 0.12822110
0.59549877 0.09419578 0.21291142
0.36032438 0.25745357 0.27546518
0.26792411 0.35663536 0.31404285
0.31829795 0.39174113 0.32864442
0.51144593 0.36277089 0.31926989
0.84736802 0.26972464 0.28591927
1.00000000 0.11260238 0.22859255
1.00000000 0.00000000 0.14903456
0.99061227 0.00000000 0.13248724
0.61979189 0.15172486 0.21651459
0.38290906 0.31524754 0.27839315
0.28880035 0.41469421 0.31629561
0.33746576 0.45006488 0.33022198
0.52890530 0.42135953 0.32017225
0.86311896 0.32857818 0.28614642
1.00000000 0.17172081 0.22814449
1.00000000 0.00000000 0.14792353
0.99518404 0.10555282 0.16964908
0.62268618 0.32856161 0.25301346
0.38409491 0.49234918 0.31421681
0.28827777 0.59206075 0.35144407
0.33523475 0.62769631 0.36469523
0.52496585 0.59925586 0.35397030
0.85747108 0.50673939 0.31926926
1.00000000 0.35014692 0.26059214
1.00000000 0.13420286 0.17970821
0.97835698 0.40143715 0.23970661
0.60418165 0.62470604 0.32240802
0.36388194 0.78875851 0.38293617
0.26635637 0.88873497 0.41948823
0.31160491 0.92463542 0.43206419
0.49962758 0.89645986 0.42066405
0.83042437 0.80420829 0.38528781
1.00000000 0.64788071 0.32593548
1.00000000 0.43219674 0.24438858
0.94013110 0.81662917 0.34265985
0.56427829 1.00000000 0.42469829
0.32227015 1.00000000 0.48455124
0.22303613 1.00000000 0.52042809
0.26657624 1.00000000 0.53232884
0.45289047 1.00000000 0.52025349
0.78197883 1.00000000 0.48420205
1.00000000 1.00000000 0.42417452
1.00000000 0.84949830 0.34196465
0.88182921 1.00000000 0.47567452
0.50432932 1.00000000 0.55706201
0.26064370 1.00000000 0.61625198
0.15973221 1.00000000 0.65146586
0.20159484 1.00000000 0.66270365
0.38623159 1.00000000 0.64996534
0.71364247 1.00000000 0.61325093
1.00000000 1.00000000 0.55256042
1.00000000 1.00000000 0.46969960
0.95754049 0.51386905 0.45738214
0.59222618 0.73564994 0.54238916
0.36095103 0.89818696 0.60526548
0.27245001 0.99664796 0.64416569
0.32672310 1.00000000 0.65908981
0.52377033 1.00000000 0.65003783
0.86359167 0.90757492 0.61700976
1.00000000 0.74973188 0.56000558
1.00000000 0.53255992 0.48076430
1.00000000 0.22032990 0.36280788
0.67808832 0.44242663 0.44756745
0.44543748 0.60528532 0.51019174
0.35556077 0.70406799 0.54883993
0.40845818 0.73877466 0.56351203
0.60412971 0.70940532 0.55420804
0.94257536 0.61595996 0.52092794
1.00000000 0.45843860 0.46367175
1.00000000 0.24158248 0.38418301
1.00000000 0.03895878 0.29900446
0.74438307 0.26137718 0.38351201
0.51033115 0.42456348 0.44587963
0.41905336 0.52367376 0.48427115
0.47054969 0.55870804 0.49868658
0.66482015 0.52966630 0.48912591
1.00000000 0.43654856 0.45558915
1.00000000 0.27935481 0.39807628
1.00000000 0.06282036 0.31833552
1.00000000 0.00000000 0.26809674
0.78927899 0.19963542 0.35235227
0.55382600 0.36314932 0.41446322
0.46114713 0.46258721 0.45259807
0.51124238 0.49794910 0.46675683
0.70411176 0.46923497 0.45693949
1.00000000 0.37644483 0.42314605
1.00000000 0.21957869 0.36537652
1.00000000 0.00336591 0.28538374
1.00000000 0.03413958 0.27008472
0.81277609 0.25720133 0.35408823
0.57592202 0.42104284 0.41594251
0.48184207 0.52080834 0.45382069
0.53053625 0.55649783 0.46772278
0.72200455 0.52811131 0.45764876
1.00000000 0.43564879 0.42359866
1.00000000 0.27911025 0.36557245
1.00000000 0.06321914 0.28532765
1.00000000 0.21069150 0.30496840
0.81487436 0.43407492 0.38871988
0.57661921 0.59824404 0.45031749
0.48113819 0.69833715 0.48793901
0.52843129 0.73435425 0.50158442
0.71849851 0.70629534 0.49125374
1.00000000 0.61416042 0.45694696
1.00000000 0.45794949 0.39866408
1.00000000 0.24238005 0.31816726
1.00000000 0.50655109 0.37274777
0.79557380 0.73025618 0.45624724
0.55591758 0.89475291 0.51758818
0.45903548 0.99517363 0.55495302
0.50492750 1.00000000 0.56834176
0.69359365 1.00000000 0.55775441
1.00000000 0.91197973 0.52319096
1.00000000 0.75609640 0.46465141
1.00000000 0.54084864 0.38390257
1.00000000 0.92171837 0.47342285
0.75487442 1.00000000 0.55667029
0.51381712 1.00000000 0.61775456
0.41553395 1.00000000 0.65486273
0.46002489 1.00000000 0.66799480
0.64728996 1.00000000 0.65715078
0.97732916 1.00000000 0.62233066
1.00000000 1.00000000 0.56353444
1.00000000 0.95862491 0.48253358
1.00000000 1.00000000 0.60420064
0.69414386 1.00000000 0.68720064
0.45171087 1.00000000 0.74803288
0.35205200 1.00000000 0.78488903
0.39516726 1.00000000 0.79776909
0.58105664 1.00000000 0.78667304
0.90972015 1.00000000 0.75160090
1.00000000 1.00000000 0.69255266
1.00000000 1.00000000 0.61130435
1.00000000 0.54713373 0.58363865
0.65446955 0.76898247 0.66698548
0.42199930 0.93158859 0.72817096
0.33230317 1.00000000 0.76538035
0.38538117 1.00000000 0.77861364
0.58123329 1.00000000 0.76787083
0.91985953 0.94125298 0.73315193
1.00000000 0.78347905 0.67445693
1.00000000 0.56637494 0.59355545
1.00000000 0.25357029 0.48682751
0.73955009 0.47579533 0.57033039
0.50600594 0.63878471 0.63167480
0.41523592 0.73769807 0.66904312
0.46724001 0.77253542 0.68243534
0.66201823 0.74329676 0.67185146
0.99957058 0.64998209 0.63729148
1.00000000 0.49259141 0.57875541
1.00000000 0.27586361 0.49800998
1.00000000 0.07217443 0.42074593
0.80504882 0.29478273 0.50440774
0.57041095 0.45816242 0.56591401
0.47854721 0.55746611 0.60344419
0.52945759 0.59269378 0.61699827
0.72314209 0.56384544 0.60657626
1.00000000 0.47092110 0.57217815
1.00000000 0.31392074 0.51380394
1.00000000 0.09757619 0.43321744
1.00000000 0.01008625 0.38756005
0.84914872 0.23307780 0.47138079
0.61341714 0.39684782 0.53304893
0.52045967 0.49654182 0.57074097
0.57027633 0.53215982 0.58445691
0.76286712 0.50370181 0.57419676
1.00000000 0.41116778 0.53996051
1.00000000 0.25455775 0.48174816
1.00000000 0.03859645 0.40132059
1.00000000 0.06730575 0.38726987
0.87184980 0.29068055 0.47124954
0.63502450 0.45484089 0.53307954
0.54097331 0.55492522 0.57093344
0.58969625 0.59093354 0.58481125
0.78119332 0.56286585 0.57471295
1.00000000 0.47072215 0.54063857
1.00000000 0.31450244 0.48258808
1.00000000 0.09892438 0.40231944
1.00000000 0.24383293 0.41987539
0.87315205 0.46759098 0.50401398
0.63523303 0.63214164 0.56600585
0.54008813 0.73261629 0.60402161
0.58771735 0.76901494 0.61806128
0.77812070 0.74133757 0.60812485
1.00000000 0.64958419 0.57421232
1.00000000 0.49375480 0.51632370
1.00000000 0.27856000 0.43621399
1.00000000 0.53966779 0.48537660
0.85305548 0.76380909 0.56967413
0.61404274 0.92875007 0.63182785
0.51780412 1.00000000 0.67000548
0.56433962 1.00000000 0.68420701
0.75364925 1.00000000 0.67443244
1.00000000 0.94775391 0.64068178
1.00000000 0.79231485 0.58295502
1.00000000 0.57750330 0.50300424
1.00000000 0.95481032 0.58377352
0.81156008 1.00000000 0.66822997
0.57145362 1.00000000 0.73054556
0.47412128 1.00000000 0.76888505
0.51956307 1.00000000 0.78324844
0.70777897 1.00000000 0.77363574
1.00000000 1.00000000 0.74004694
1.00000000 1.00000000 0.68248204
1.00000000 0.99575427 0.60269019
1.00000000 1.00000000 0.71231443
0.75004792 1.00000000 0.79692694
0.50886756 1.00000000 0.85940145
0.41046132 1.00000000 0.89789987
0.45482921 1.00000000 0.91242219
0.64197121 1.00000000 0.90296842
0.97188734 1.00000000 0.86953855
1.00000000 1.00000000 0.81213258
1.00000000 1.00000000 0.73249678
0.95046364 0.50840116 0.68948283
0.58280244 0.73031776 0.77116947
0.34913709 0.89299299 0.83066412
0.25824586 0.99159220 0.86618268
0.31012876 1.00000000 0.87772514
0.50478578 0.99656260 0.86529151
0.84221692 0.90293379 0.82888177
1.00000000 0.74522897 0.76849594
1.00000000 0.52819271 0.68593428
1.00000000 0.21481343 0.59043480
0.66710139 0.43716679 0.67268100
0.43266393 0.60028685 0.73274553
0.34100059 0.69933089 0.76883397
0.39211137 0.73429893 0.78094631
0.58599628 0.70519095 0.76908255
0.92265531 0.61200697 0.73324270
1.00000000 0.45474697 0.67342675
1.00000000 0.23814748 0.59142463
1.00000000 0.03339283 0.52207507
0.73180410 0.25619102 0.60489114
0.49658028 0.41976412 0.66553607
0.40413058 0.51926120 0.70220490
0.45445500 0.55468227 0.71489764
0.64755355 0.52602733 0.70361427
0.98342622 0.43329639 0.66835482
1.00000000 0.27648943 0.60911926
1.00000000 0.06033477 0.52768702
1.00000000 0.00000000 0.48661103
0.77510798 0.19452293 0.56999698
0.53909780 0.35854906 0.63122230
0.44586174 0.45849918 0.66847153
0.49539981 0.49437330 0.68174466
0.68771199 0.46617140 0.67104170
1.00000000 0.37389349 0.63636263
1.00000000 0.21753957 0.57770747
1.00000000 0.00182973 0.49684511
1.00000000 0.02847468 0.48404269
0.79701304 0.25216252 0.56799852
0.56021650 0.41664169 0.62980424
0.46619408 0.51704485 0.66763386
0.51494578 0.55337200 0.68148739
0.70647161 0.52562314 0.67136481
1.00000000 0.43379826 0.63726615
1.00000000 0.27789738 0.57919138
1.00000000 0.06263238 0.49889890
1.00000000 0.20497711 0.51437005
0.79751927 0.42910979 0.59889575
0.55993637 0.59404200 0.66128187
0.46512759 0.69489819 0.69969189
0.51309293 0.73167838 0.71412581
0.70383240 0.70438255 0.70458363
1.00000000 0.61301072 0.67106536
1.00000000 0.45756288 0.61357099
1.00000000 0.24274270 0.53384839
1.00000000 0.50078723 0.57759310
0.77662668 0.72536474 0.66268869
0.53825742 0.89074998 0.72565520
0.44266228 0.99205921 0.76464561
0.48984126 1.00000000 0.77965993
0.67979437 1.00000000 0.77069815
1.00000000 0.91153085 0.73776027
1.00000000 0.75653605 0.68084630
1.00000000 0.54216070 0.60169358
1.00000000 0.91590503 0.67371186
0.73433527 1.00000000 0.75937732
0.49517964 1.00000000 0.82292423
0.39879814 1.00000000 0.86249504
0.44519076 1.00000000 0.87808975
0.63435751 1.00000000 0.86970837
0.96629837 1.00000000 0.83735088
1.00000000 1.00000000 0.78101731
1.00000000 0.96088638 0.70243446
1.00000000 1.00000000 0.80001589
0.67204151 1.00000000 0.88624091
0.43211378 1.00000000 0.95035770
0.33496016 1.00000000 0.99049838
0.38058067 1.00000000 1.00000000
0.56897531 1.00000000 0.99885147
0.90014406 1.00000000 0.96706387
1.00000000 1.00000000 0.91130017
1.00000000 1.00000000 0.83327687
0.74605950 0.39767135 0.77491467
0.37722485 0.61965580 0.85494112
0.14236440 0.78240013 0.91274495
0.05027808 0.88106845 0.94657268
0.10096587 0.91566076 0.95642431
0.29442779 0.88617706 0.94229985
0.63066383 0.79261736 0.90419929
1.00000000 0.63498164 0.84212263
1.00000000 0.41801324 0.75790077
0.83003865 0.10405932 0.67362977
0.46074221 0.32654100 0.75461928
0.22541143 0.48979174 0.81340393
0.13285478 0.58896647 0.84821249
0.18307226 0.62406519 0.85904495
0.37606385 0.59508790 0.84590132
0.71182957 0.50203460 0.80878158
1.00000000 0.34490528 0.74768575
1.00000000 0.12843411 0.66442695
0.89441567 0.00000000 0.60299188
0.52464890 0.14560207 0.68496221
0.28883912 0.30936856 0.74474579
0.19580347 0.40905904 0.78055328
0.24554194 0.44467352 0.79238467
0.43805454 0.41621198 0.78023996
0.77334125 0.32367443 0.74411916
1.00000000 0.16706087 0.68402225
1.00000000 0.00000000 0.60174428
0.93739385 0.00000000 0.56524968
0.56715676 0.08397082 0.64820084
0.33086799 0.24825307 0.70898335
0.23735333 0.34845930 0.74578977
0.28661280 0.38458952 0.75862008
0.47864639 0.35664374 0.74747430
0.81345411 0.26462194 0.71235243
1.00000000 0.10852413 0.65325446
1.00000000 0.00000000 0.57195731
0.95897322 0.00000000 0.56040318
0.58826580 0.14164725 0.64433517
0.35149802 0.30644525 0.70611661
0.25750437 0.40716723 0.74392195
0.30628483 0.44381321 0.75775120
0.49783942 0.41638317 0.74760435
0.83216813 0.32487713 0.71348140
1.00000000 0.16929508 0.65538235
1.00000000 0.00000000 0.57506604
0.95915375 0.09412405 0.58845238
0.58797602 0.31863136 0.67336519
0.35072924 0.48394511 0.73614556
0.25625658 0.58518284 0.77494983
0.30455804 0.62234457 0.78977801
0.49563363 0.59543029 0.78063009
0.82948334 0.50444000 0.74750607
1.00000000 0.34937370 0.69040595
1.00000000 0.13492815 0.61107046
0.93793547 0.38990943 0.64939727
0.56628741 0.61492314 0.73529092
0.32856162 0.78075264 0.79907022
0.23360996 0.88250613 0.83887342
0.28143242 0.92018362 0.85470052
0.47202901 0.89378509 0.84655153
0.80539972 0.80331055 0.81442644
1.00000000 0.64876000 0.75832525
1.00000000 0.43482086 0.67997059
0.89531835 0.80500249 0.74323787
0.52319997 1.00000000 0.83011234
0.28499518 1.00000000 0.89489057
0.18956452 1.00000000 0.93569270
0.23690798 1.00000000 0.95251873
0.42702556 1.00000000 0.94536866
0.75991727 1.00000000 0.91424250
1.00000000 1.00000000 0.85914024
1.00000000 0.85402124 0.78176641
0.83270480 1.00000000 0.86730503
0.46012462 1.00000000 0.95514255
0.22144951 1.00000000 1.00000000
0.12554853 1.00000000 1.00000000
0.17242166 1.00000000 1.00000000
0.36206892 1.00000000 1.00000000
0.69449031 1.00000000 1.00000000
1.00000000 1.00000000 0.99005542
1.00000000 1.00000000 0.91364464
0.40774488 0.21494428 0.83993419
0.03773679 0.43699659 0.91830045
0.00000000 0.59981002 0.97441345
0.00000000 0.69854745 1.00000000
0.00000000 0.73320887 1.00000000
0.00000000 0.70379428 0.99889586
0.28520027 0.61030368 0.95910447
0.76301533 0.45273706 0.89533699
1.00000000 0.23583651 0.80945494
0.49064612 0.00000000 0.73641242
0.12047255 0.14391796 0.81614523
0.00000000 0.30729939 0.87365001
0.00000000 0.40660480 0.90717869
0.00000000 0.44183420 0.91673127
0.03222095 0.41298759 0.90230775
0.36709336 0.32006498 0.86390814
0.84473989 0.16306635 0.80153243
1.00000000 0.00000000 0.71701694
0.55392532 0.00000000 0.66349636
0.18358322 0.00000000 0.74462095
0.00000000 0.12697576 0.80354319
0.00000000 0.22685964 0.83848933
0.00000000 0.26266751 0.84945937
0.09464504 0.23439937 0.83645332
0.42934581 0.14205522 0.79947117
0.90682069 0.00000000 0.73851292
1.00000000 0.00000000 0.65538921
0.59580570 0.00000000 0.62347600
0.22529507 0.00000000 0.70599237
0.00000000 0.06595982 0.76633207
0.00000000 0.16642217 0.80269567
0.00000000 0.20280850 0.81508318
0.13567031 0.17511883 0.80349459
0.47019943 0.08335315 0.76792990
0.94750268 0.00000000 0.70838911
1.00000000 0.00000000 0.62665717
0.61628726 0.00000000 0.61635134
0.24560809 0.00000000 0.70025949
0.00886907 0.12425155 0.76201665
0.00000000 0.22529237 0.79979771
0.00000000 0.26225717 0.81360268
0.15529676 0.23514597 0.80343155
0.48965423 0.14395875 0.76928432
0.96678583 0.00000000 0.71116100
1.00000000 0.00000000 0.63082084
0.61536999 0.00000000 0.64212238
0.24452228 0.13615568 0.72742231
0.00761162 0.30185097 0.79059693
0.00000000 0.40347025 0.82979545
0.00000000 0.44101352 0.84501788
0.15352438 0.41448078 0.83626421
0.48771021 0.32387203 0.80353445
0.96467016 0.16918727 0.74682859
1.00000000 0.00000000 0.66788020
0.59305389 0.20703438 0.70078912
0.22203765 0.43248430 0.78748082
0.00000000 0.59875806 0.85207290
0.00000000 0.70095581 0.89268889
0.00000000 0.73907755 0.90932878
0.13035317 0.71312327 0.90199257
0.46436736 0.62309299 0.87068027
0.94115567 0.46898670 0.81539187
1.00000000 0.25548377 0.73783527
0.54933897 0.62210270 0.79235155
0.17815420 0.84812060 0.88043503
0.00000000 1.00000000 0.94644458
0.00000000 1.00000000 0.98847803
0.00000000 1.00000000 1.00000000
0.08578314 1.00000000 1.00000000
0.41962568 1.00000000 0.97072179
0.89624235 0.88809381 0.91685085
1.00000000 0.67515886 0.84068603
0.48564750 1.00000000 0.91418183
0.11429725 1.00000000 1.00000000
0.00000000 1.00000000 1.00000000
0.00000000 1.00000000 1.00000000
0.00000000 1.00000000 1.00000000
0.02125206 1.00000000 1.00000000
0.35492607 1.00000000 1.00000000
0.83137420 1.00000000 1.00000000
1.00000000 1.00000000 0.97360008
0.00000000 0.00000000 0.88430407
0.00000000 0.18777015 0.96104023
0.00000000 0.35065144 1.00000000
0.00000000 0.44945672 1.00000000
0.00000000 0.48418599 1.00000000
0.00000000 0.45483926 1.00000000
0.00000000 0.36141651 0.99354330
0.29267115 0.20391775 0.92811562
0.89958534 0.00000000 0.84060346
0.02743641 0.00000000 0.77858595
0.00000000 0.00000000 0.85708485
0.00000000 0.05823678 0.91333294
0.00000000 0.15767051 0.94560493
0.00000000 0.19302823 0.95390082
0.00000000 0.16430994 0.93822062
0.00000000 0.07151564 0.89856432
0.37540620 0.00000000 0.83493192
0.98244585 0.00000000 0.74918252
0.08963770 0.00000000 0.70343301
0.00000000 0.00000000 0.78372720
0.00000000 0.00000000 0.84180369
0.00000000 0.00000000 0.87590410
0.00000000 0.01408245 0.88602840
0.00000000 0.00000000 0.87217661
0.00000000 0.00000000 0.83434872
0.43851614 0.00000000 0.77254473
1.00000000 0.00000000 0.68859061
0.13044016 0.00000000 0.66117578
0.00000000 0.00000000 0.74326524
0.00000000 0.00000000 0.80317015
0.00000000 0.00000000 0.83909896
0.00000000 0.00000000 0.85105168
0.00000000 0.00000000 0.83902830
0.00319757 0.00000000 0.80302882
0.48022726 0.00000000 0.74305324
1.00000000 0.00000000 0.66089440
0.14984380 0.00000000 0.65181424
0.00000000 0.00000000 0.73569898
0.00000000 0.00000000 0.79743230
0.00000000 0.00000000 0.83518952
0.00000000 0.01411392 0.84897065
0.00000000 0.00000000 0.83877568
0.02337972 0.00000000 0.80460461
0.50053956 0.00000000 0.74645745
1.00000000 0.00000000 0.66609388
0.14784862 0.00000000 0.67534840
0.00000000 0.00000000 0.76102842
0.00000000 0.05317936 0.82459015
0.00000000 0.15517327 0.86417579
0.00000000 0.19309117 0.87978532
0.00000000 0.16693306 0.87141877
0.02216304 0.07669894 0.83907611
0.49945303 0.00000000 0.78275736
1.00000000 0.00000000 0.70418907
0.12445461 0.00000000 0.73177826
0.00000000 0.18347424 0.81925356
0.00000000 0.35018421 0.88464370
0.00000000 0.45281816 0.92605775
0.00000000 0.49137611 0.94349570
0.00000000 0.46585804 0.93695755
0.00000000 0.37626397 0.90644330
0.47696767 0.22259388 0.85195296
1.00000000 0.00951925 0.77517995
0.07966177 0.37264004 0.82110381
0.00000000 0.59914672 0.91037439
0.00000000 0.76649673 0.97759295
0.00000000 0.86977073 1.00000000
0.00000000 0.90896872 1.00000000
0.00000000 0.88409070 1.00000000
0.00000000 0.79513667 1.00000000
0.43308349 0.64210663 0.95404426
1.00000000 0.42966045 0.87906654
0.01491192 0.89629740 0.94073775
0.00000000 1.00000000 1.00000000
0.00000000 1.00000000 1.00000000
0.00000000 1.00000000 1.00000000
0.00000000 1.00000000 1.00000000
0.00000000 1.00000000 1.00000000
0.00000000 1.00000000 1.00000000
0.36922583 1.00000000 1.00000000
0.97715768 0.95832261 1.00000000
