data/manual_verify/canoncgt_candidates/candidate_b.cube
TITLE "LocalColorService CanonCGT fitted transform"
LUT_3D_SIZE 9
DOMAIN_MIN 0.0 0.0 0.0
DOMAIN_MAX 1.0 1.0 1.0
0.00000000 0.00000000 0.00000000
0.00000000 0.15982525 0.03776505
0.00000000 0.28396069 0.08970247
0.00000000 0.35909682 0.12330522
0.00000000 0.38523365 0.13857331
0.00000000 0.36237117 0.13550674
0.10087268 0.29050940 0.11410551
0.50205318 0.16964833 0.07436961
1.00000000 0.00342092 0.01755900
0.04909399 0.00000000 0.00000000
0.00000000 0.00000000 0.00000000
0.00000000 0.08916595 0.02024253
0.00000000 0.16440765 0.05271549
0.00000000 0.19065005 0.06685379
0.00000000 0.16789315 0.06265742
0.15961343 0.09613694 0.04012640
0.55905377 0.00000000 0.00000000
1.00000000 0.00000000 0.00000000
0.10334526 0.00000000 0.00000000
0.00000000 0.00000000 0.00000000
0.00000000 0.00000000 0.00000000
0.00000000 0.05550087 0.00568836
0.00000000 0.08185079 0.01867601
0.00000000 0.05920140 0.01332901
0.20326320 0.00000000 0.00000000
0.60093127 0.00000000 0.00000000
1.00000000 0.00000000 0.00000000
0.14123272 0.00000000 0.00000000
0.00000000 0.00000000 0.00000000
0.00000000 0.00000000 0.00000000
0.00000000 0.03782938 0.00000000
0.00000000 0.06428681 0.00000000
0.00000000 0.04174495 0.00000000
0.23054916 0.00000000 0.00000000
0.62644497 0.00000000 0.00000000
1.00000000 0.00000000 0.00000000
0.16275637 0.00000000 0.00000000
0.00000000 0.00000000 0.00000000
0.00000000 0.03582891 0.00000000
0.00000000 0.11139317 0.00000000
0.00000000 0.13795812 0.00000000
0.00000000 0.11552377 0.00000000
0.24147132 0.04409012 0.00000000
0.63559485 0.00000000 0.00000000
1.00000000 0.00000000 0.00000000
0.16791622 0.00000000 0.00000000
0.00000000 0.07584939 0.00000000
0.00000000 0.20052046 0.00000000
0.00000000 0.27619224 0.01554018
0.00000000 0.30286471 0.02507590
0.00000000 0.28053788 0.01627697
0.23602967 0.20921175 0.00000000
0.62838093 0.08888631 0.00000000
1.00000000 0.00000000 0.00000000
0.15671226 0.16159478 0.00000000
0.00000000 0.33166871 0.00000000
0.00000000 0.45644730 0.04241544
0.00000000 0.53222659 0.06913518
0.00000000 0.55900658 0.07752027
0.00000000 0.53678727 0.06757069
0.21422420 0.46556866 0.03928645
0.60480320 0.34535074 0.00000000
1.00000000 0.17975484 0.00000000
0.12914449 0.50854381 0.01750989
0.00000000 0.67872331 0.07841285
0.00000000 0.80360942 0.12231662
0.00000000 0.87949623 0.14788573
0.00000000 0.90638374 0.15512017
0.00000000 0.88427195 0.14401995
0.17605494 0.81316085 0.11458507
0.56486167 0.69305045 0.06681552
1.00000000 0.52756013 0.00211684
0.08619433 0.93854737 0.12261711
0.00000000 1.00000000 0.18241075
0.00000000 1.00000000 0.22518472
0.00000000 1.00000000 0.24962404
0.00000000 1.00000000 0.25572869
0.00000000 1.00000000 0.24349867
0.12269538 1.00000000 0.21293400
0.50976196 1.00000000 0.16403466
0.99657260 0.95840441 0.09822666
0.32804003 0.17691314 0.13924811
0.07988848 0.34640651 0.20679259
0.00000000 0.47059383 0.25746045
0.00000000 0.54578185 0.28979365
0.00000000 0.57197057 0.30379218
0.15249814 0.54915998 0.29945606
0.44360109 0.47735010 0.27678527
0.84388425 0.35654091 0.23577981
1.00000000 0.19036446 0.17772265
0.39638083 0.00000000 0.07034772
0.14674314 0.15153336 0.13708586
0.00000000 0.27587249 0.18693248
0.00000000 0.35121232 0.21844445
0.03288940 0.37755284 0.23162175
0.21329858 0.35489406 0.22646439
0.50288797 0.28323598 0.20297237
0.90165757 0.16257860 0.16114568
1.00000000 0.00000000 0.10228217
0.44980781 0.00000000 0.02504112
0.19865656 0.04243921 0.09095802
0.04998362 0.16693294 0.13996826
0.01049088 0.24242738 0.17064384
0.08017836 0.26892251 0.18298475
0.25904605 0.24641834 0.17699100
0.54709395 0.17491486 0.15266260
0.94432206 0.05441209 0.10999952
1.00000000 0.00000000 0.05031478
0.48687098 0.00000000 0.00489005
0.23420618 0.02458034 0.06998572
0.08399175 0.14922868 0.11815957
0.04295752 0.22487772 0.14799876
0.11110351 0.25152746 0.15950329
0.28842971 0.22917789 0.15267315
0.57493612 0.15782903 0.12750836
0.97062274 0.03748086 0.08400890
1.00000000 0.00000000 0.02350292
0.50757035 0.00000000 0.00989451
0.25339199 0.09795675 0.07416895
0.10163606 0.22275970 0.12150641
0.05906035 0.29856335 0.15050922
0.12566485 0.32536769 0.16117736
0.30144956 0.30317274 0.15351083
0.58641448 0.23197848 0.12750965
0.98055961 0.11178492 0.08317380
1.00000000 0.00000000 0.02184659
0.51190591 0.09231880 0.04005451
0.25621399 0.26256845 0.10350771
0.10291658 0.38752601 0.15000879
0.05879937 0.46348426 0.17817521
0.12386238 0.49044321 0.18800696
0.29810560 0.46840286 0.17950405
0.58152904 0.39736321 0.15266648
0.97413268 0.27732426 0.10749425
1.00000000 0.11190408 0.04534580
0.49987766 0.34801397 0.09537004
0.24267219 0.51841543 0.15800201
0.08783328 0.64352759 0.20366670
0.04217459 0.71964045 0.23099673
0.10569611 0.74675401 0.23999210
0.27839784 0.72486827 0.23065280
0.56027978 0.65398323 0.20297884
0.95134194 0.53409888 0.15697022
1.00000000 0.36883051 0.09400055
0.47148560 0.69494443 0.17584110
0.21276657 0.86549769 0.23765185
0.05638618 0.99076446 0.28248015
0.00918600 1.00000000 0.30897379
0.07116603 1.00000000 0.31713277
0.24232627 1.00000000 0.30695709
0.52266672 1.00000000 0.27844674
0.91218739 0.88210879 0.23160173
1.00000000 0.71699223 0.16781083
0.42772609 1.00000000 0.27926876
0.16752093 1.00000000 0.34027315
0.00962698 1.00000000 0.38428022
0.00000000 1.00000000 0.40995263
0.02137972 1.00000000 0.41729038
0.19102640 1.00000000 0.40629346
0.46985330 1.00000000 0.37696189
0.85786041 1.00000000 0.32929565
1.00000000 1.00000000 0.26469839
0.58133951 0.31246427 0.29642782
0.33229061 0.48200953 0.36270275
0.18575881 0.60624970 0.41207762
0.14840722 0.68149056 0.44311783
0.22023584 0.70773213 0.45582338
0.40124467 0.68497439 0.45019427
0.69143372 0.61321735 0.42623049
1.00000000 0.49246100 0.38393205
1.00000000 0.32633644 0.32460533
0.64885601 0.11742349 0.22581688
0.39854758 0.28716405 0.29159402
0.25073300 0.41160311 0.34046191
0.21209864 0.48704287 0.37099515
0.28264448 0.51348333 0.38319372
0.46237054 0.49092448 0.37705763
0.75127680 0.41936634 0.35258688
1.00000000 0.29880889 0.30978146
1.00000000 0.13287961 0.24995695
0.70144349 0.00815862 0.17876815
0.44985228 0.17809806 0.24403831
0.30073126 0.30273969 0.29238988
0.26079044 0.37838202 0.32240678
0.33002983 0.40502504 0.33408902
0.50844944 0.38266876 0.32743659
0.79604926 0.31131318 0.30244951
1.00000000 0.19095830 0.25912776
1.00000000 0.02522792 0.19879627
0.73766717 0.00000000 0.15687496
0.48479318 0.16026736 0.22163815
0.33436570 0.28511156 0.26947338
0.29311843 0.36095645 0.29897394
0.36105138 0.38780204 0.31013985
0.53816453 0.36564832 0.30297110
0.82445790 0.29449531 0.27746768
1.00000000 0.17434299 0.23362960
1.00000000 0.00881151 0.17279113
0.75752703 0.06333471 0.16013730
0.50337027 0.23367195 0.22439351
0.35163634 0.35871871 0.27171241
0.30908262 0.43476616 0.30069664
0.37570911 0.46181432 0.31134622
0.55151582 0.43986317 0.30366113
0.83650274 0.36891272 0.27764138
1.00000000 0.24896297 0.23328697
1.00000000 0.08363038 0.17194153
0.76102309 0.22777568 0.18855518
0.50558355 0.39831182 0.25230441
0.35254317 0.52356114 0.29910697
0.30868300 0.59981116 0.32757488
0.37400304 0.62706188 0.33770812
0.54850330 0.60531330 0.32950670
0.83218376 0.53456542 0.30297061
1.00000000 0.41481823 0.25809987
1.00000000 0.24968454 0.19624745
0.74815534 0.48345194 0.24212859
0.49143302 0.65418697 0.30537084
0.33708619 0.77963886 0.35165707
0.29191957 0.85609145 0.37960865
0.35593317 0.88354473 0.38922555
0.52912697 0.86199872 0.38050780
0.81150099 0.79145340 0.35345538
1.00000000 0.67190878 0.30806831
1.00000000 0.50697398 0.24570891
0.71892378 0.83036348 0.32085753
0.46091869 1.00000000 0.38359281
0.30526541 1.00000000 0.42936271
0.25879234 1.00000000 0.45679795
0.32149948 1.00000000 0.46589852
0.49338683 1.00000000 0.45666444
0.77445440 1.00000000 0.42909569
1.00000000 1.00000000 0.38319228
1.00000000 0.85549870 0.32032591
0.67433999 1.00000000 0.42257463
0.41507536 1.00000000 0.48481212
0.25813930 1.00000000 0.53007505
0.21038345 1.00000000 0.55700331
0.27180782 1.00000000 0.56559691
0.44241239 1.00000000 0.55585584
0.72219718 1.00000000 0.52778012
1.00000000 1.00000000 0.48136973
1.00000000 1.00000000 0.41800557
0.73223685 0.39295869 0.43799811
0.48229061 0.56255584 0.50300348
0.33484491 0.68684885 0.55108536
0.29657942 0.76214256 0.58083259
0.36749414 0.78843697 0.59224515
0.54758907 0.76573207 0.58532305
0.83686422 0.69402788 0.56006628
1.00000000 0.57332438 0.51647486
1.00000000 0.40725170 0.45587858
0.79892906 0.19789933 0.36567661
0.54794989 0.36773801 0.43049275
0.39945219 0.49227701 0.47838192
0.36013470 0.56781670 0.50793642
0.42999743 0.59435709 0.51915626
0.60904036 0.57189818 0.51204144
0.89726351 0.50043997 0.48659195
1.00000000 0.37998246 0.44280781
1.00000000 0.21415131 0.38202230
0.85067704 0.08861554 0.31688576
0.59864587 0.25870020 0.38150918
0.44907676 0.38348972 0.42920207
0.40868786 0.45927994 0.45856029
0.47747918 0.48607085 0.46958386
0.65545070 0.46386247 0.46227276
0.94260244 0.39265478 0.43662699
1.00000000 0.27244779 0.39264657
1.00000000 0.10686263 0.33166834
0.88606122 0.07056702 0.29325045
0.63297805 0.24089767 0.35768115
0.48233753 0.36593771 0.40517776
0.44087722 0.44197846 0.43433970
0.50859712 0.46901990 0.44516699
0.68549723 0.44706204 0.43765961
0.97157755 0.37610487 0.41181757
1.00000000 0.25614841 0.36764087
1.00000000 0.09080923 0.30646992
0.90508158 0.14375380 0.29477067
0.65094642 0.31433043 0.35900864
0.49923448 0.43962099 0.40630898
0.45670276 0.51591226 0.43527465
0.52335125 0.54320422 0.44590565
0.69917995 0.52149689 0.43820200
0.98418886 0.45079025 0.41216368
1.00000000 0.33108431 0.36779070
1.00000000 0.16599111 0.30642703
0.90773814 0.30817585 0.32144642
0.65255098 0.47899847 0.38549168
0.49976763 0.60453956 0.43259573
0.45616450 0.68108135 0.46136512
0.52174157 0.70862384 0.47179985
0.69649886 0.68716702 0.46389992
0.98043636 0.61671091 0.43766532
1.00000000 0.49725549 0.39309606
1.00000000 0.33240828 0.33153967
0.89403089 0.56383319 0.37327771
0.63779173 0.73490179 0.43713024
0.48393697 0.86069340 0.48403802
0.43926243 0.93748572 0.51261113
0.50376809 0.96527873 0.52284958
0.67745397 0.94407244 0.51475337
0.96032006 0.87386685 0.48832250
1.00000000 0.75466196 0.44355696
1.00000000 0.59006073 0.38180785
0.86395984 0.91072581 0.45026453
0.60666868 1.00000000 0.51392434
0.45174251 1.00000000 0.56063584
0.40599655 1.00000000 0.58901268
0.46943080 1.00000000 0.59905485
0.64204527 1.00000000 0.59076236
0.92383994 1.00000000 0.56413521
1.00000000 1.00000000 0.51917340
1.00000000 0.93894846 0.45723156
0.81855175 1.00000000 0.55027108
0.56022766 1.00000000 0.61374166
0.40424949 1.00000000 0.66026044
0.35745153 1.00000000 0.68844455
0.41983379 1.00000000 0.69829401
0.59139626 1.00000000 0.68980880
0.87213893 1.00000000 0.66298892
1.00000000 1.00000000 0.61783439
1.00000000 1.00000000 0.55570333
0.78073206 0.41839638 0.56395897
0.52988848 0.58804542 0.62769478
0.38152888 0.71239128 0.67448368
0.34234949 0.78773783 0.70293791
0.41235031 0.81408509 0.71305749
0.59153134 0.79143304 0.70484240
0.87989259 0.71978169 0.67829265
1.00000000 0.59913104 0.63340824
1.00000000 0.43311025 0.57154240
0.84659999 0.22331845 0.48992692
0.59495007 0.39325526 0.55378206
0.44576925 0.51789419 0.60069249
0.40576864 0.59353382 0.62926827
0.47494825 0.62017414 0.63950937
0.65330806 0.59781517 0.63141582
0.94084809 0.52645689 0.60498760
1.00000000 0.40609931 0.56022473
1.00000000 0.24036629 0.49847822
0.89750847 0.11401574 0.43939394
0.64503733 0.28424562 0.50337062
0.49502014 0.40918303 0.55040483
0.45418316 0.48512114 0.57910438
0.52252639 0.51205995 0.58946927
0.70004983 0.48999946 0.58149949
0.98675348 0.41893966 0.55519505
1.00000000 0.29888057 0.51055595
1.00000000 0.13344061 0.44893098
0.93205314 0.09594831 0.41401651
0.67876079 0.26647126 0.47811472
0.52790722 0.39170715 0.52527271
0.48623387 0.46794375 0.55409603
0.55374073 0.49518104 0.56458470
0.73042779 0.47341903 0.55673870
1.00000000 0.40265772 0.53055803
1.00000000 0.28289710 0.48604271
1.00000000 0.11775022 0.42453928
0.95023401 0.16911616 0.41379460
0.69612044 0.33993218 0.47801435
0.54443050 0.46546656 0.52529612
0.50192077 0.54200164 0.55424322
0.56859125 0.56953741 0.56485566
0.74444195 0.54807388 0.55713344
1.00000000 0.47761105 0.53107655
1.00000000 0.35814892 0.48668500
1.00000000 0.19329512 0.42530310
0.95205106 0.33351930 0.43872824
0.69711628 0.50462839 0.50306952
0.54458996 0.63046125 0.55047506
0.50124386 0.70729481 0.57954594
0.56707797 0.73512907 0.59028215
0.74209230 0.71396402 0.58268371
1.00000000 0.64379968 0.55675060
1.00000000 0.52463603 0.51248283
1.00000000 0.36007529 0.45122246
0.93750431 0.58915772 0.48881740
0.68174831 0.76055989 0.55328022
0.52838562 0.88669123 0.60080953
0.48420315 0.96382327 0.63000419
0.54920089 0.99195601 0.64086418
0.72337884 0.97108945 0.63338952
1.00000000 0.90122358 0.60758019
1.00000000 0.78235841 0.56343619
1.00000000 0.61809076 0.50229736
0.90659376 0.93603142 0.56406210
0.65001653 1.00000000 0.62864645
0.49581748 1.00000000 0.67629954
0.45079863 1.00000000 0.70561798
0.51495999 1.00000000 0.71660175
0.68830157 1.00000000 0.70925086
0.97082336 1.00000000 0.68356530
1.00000000 1.00000000 0.63954509
1.00000000 0.96734150 0.57852779
0.86036138 1.00000000 0.66235810
0.60297782 1.00000000 0.72706178
0.44795755 1.00000000 0.77483641
0.40211748 1.00000000 0.80427637
0.46545763 1.00000000 0.81538168
0.63797799 1.00000000 0.80815232
0.91967856 1.00000000 0.78258830
1.00000000 1.00000000 0.73868962
1.00000000 1.00000000 0.67779165
0.72682514 0.38877736 0.67431040
0.47508422 0.55847829 0.73677665
0.32581072 0.68287699 0.78227256
0.28571743 0.75827639 0.80943381
0.35480435 0.78467649 0.81826040
0.53307148 0.76207729 0.80875233
0.82051882 0.69047878 0.78090959
1.00000000 0.56988098 0.73473219
1.00000000 0.40391207 0.67159680
0.79186878 0.19368086 0.59856779
0.53954812 0.36371578 0.66146194
0.38968418 0.48845465 0.70739364
0.34900045 0.56419421 0.73499068
0.41749693 0.59093447 0.74425306
0.59517363 0.56867543 0.73518077
0.88203053 0.49741709 0.70777383
1.00000000 0.37715945 0.66203222
1.00000000 0.21152454 0.59932472
0.84193776 0.08435922 0.54629270
0.58902666 0.25473431 0.60962264
0.43856139 0.37981962 0.65599817
0.39727632 0.45590562 0.68403904
0.46517147 0.48299233 0.69374525
0.64224683 0.46107973 0.68511680
0.92850240 0.39016783 0.65815368
1.00000000 0.27025662 0.61285590
1.00000000 0.10496188 0.55058419
0.87564293 0.06627288 0.51917314
0.62214140 0.23698813 0.58293887
0.47107479 0.36241987 0.62975823
0.42918839 0.43885232 0.65824294
0.49648220 0.46628546 0.66839298
0.67295623 0.44471930 0.66020836
0.95861047 0.37415384 0.63368907
1.00000000 0.25458908 0.58883513
1.00000000 0.08963450 0.52699921
0.89298430 0.13942181 0.51720911
0.63889233 0.31047722 0.58141063
0.48722438 0.43625541 0.62867383
0.44473665 0.51303430 0.65760236
0.51142913 0.54081388 0.66819624
0.68730182 0.51959416 0.66045545
0.97235472 0.44937514 0.63437999
1.00000000 0.33015682 0.58996988
1.00000000 0.16554241 0.52856975
0.89396186 0.30380603 0.54040062
0.63927945 0.47520161 0.60503793
0.48701017 0.60132623 0.65274496
0.44392110 0.67845156 0.68211733
0.51001224 0.70657758 0.69315503
0.68528360 0.68570431 0.68585807
0.96973517 0.61583173 0.66022645
1.00000000 0.49695985 0.61626017
1.00000000 0.33268559 0.55529583
0.87857561 0.55942553 0.58874767
0.62330276 0.73116127 0.65382076
0.47043214 0.85763234 0.70197162
0.42674174 0.93510410 0.73178782
0.49223155 0.96357657 0.74326936
0.66690157 0.94304973 0.73641623
0.95075181 0.87352359 0.71122844
1.00000000 0.75499815 0.66770599
1.00000000 0.59106406 0.60717744
0.84682555 0.90628032 0.66225024
0.59096226 1.00000000 0.72775913
0.43749031 1.00000000 0.77635382
0.39319858 1.00000000 0.80661385
0.45808705 1.00000000 0.81853922
0.63215574 1.00000000 0.81212993
0.91540464 1.00000000 0.78738597
1.00000000 1.00000000 0.74430735
1.00000000 0.94067782 0.68421459
0.79976889 1.00000000 0.75883568
0.54332586 1.00000000 0.82477246
0.38926348 1.00000000 0.87380294
0.34438130 1.00000000 0.90449876
0.40867934 1.00000000 0.91685992
0.58215759 1.00000000 0.91088642
0.86481605 1.00000000 0.88657825
1.00000000 1.00000000 0.84393542
1.00000000 1.00000000 0.78427055
0.57051609 0.30410162 0.76905240
0.31787783 0.47385443 0.83024910
0.16769043 0.59830598 0.87445202
0.12668324 0.67375823 0.90032029
0.19485626 0.70021117 0.90785389
0.37220949 0.67766481 0.89705283
0.65874293 0.60611916 0.86791710
1.00000000 0.48557420 0.82044672
1.00000000 0.31965718 0.75604177
0.63473544 0.10898654 0.69159924
0.38174404 0.27911959 0.75353239
0.23119698 0.40395839 0.79848536
0.18983013 0.47979789 0.82510367
0.25764349 0.50663808 0.83338732
0.43463707 0.48447898 0.82333630
0.72081085 0.41332057 0.79495062
1.00000000 0.29316286 0.74823028
1.00000000 0.12762608 0.68456179
0.68396492 0.00000000 0.63758202
0.43061386 0.17016629 0.70026522
0.27970051 0.29539949 0.74598208
0.23796736 0.37163339 0.77336427
0.30541443 0.39886798 0.78241181
0.48204170 0.37710328 0.77312468
0.76784919 0.30633927 0.74550288
1.00000000 0.18657596 0.69954643
1.00000000 0.02142643 0.63662798
0.71683059 0.00000000 0.60872034
0.46311988 0.15244828 0.67215358
0.31184022 0.27807587 0.71863433
0.26974078 0.35470417 0.74678041
0.33682155 0.38233316 0.75659183
0.51308253 0.36096286 0.74806859
0.79852373 0.29059325 0.72121068
1.00000000 0.17122434 0.67601811
1.00000000 0.00646206 0.61384971
0.73333246 0.05467074 0.60501420
0.47926208 0.22596555 0.66919748
0.32761614 0.35198754 0.71644211
0.28515040 0.42901024 0.74535208
0.35186487 0.45703363 0.75592739
0.52775956 0.43605772 0.74816803
0.81283446 0.36608251 0.72207401
1.00000000 0.24710800 0.67764533
1.00000000 0.08273298 0.61622697
0.73347052 0.21903604 0.62646358
0.47904048 0.39071810 0.69139691
0.32702824 0.51713449 0.73940543
0.28419621 0.59455159 0.76907928
0.35054438 0.62296938 0.78041848
0.52607277 0.60238787 0.77342301
0.81078138 0.53280706 0.74809288
1.00000000 0.41422695 0.70442808
1.00000000 0.25023917 0.64375976
0.71724477 0.47463662 0.67306850
0.46245508 0.64670593 0.73875188
0.31007653 0.77351673 0.78752428
0.26687821 0.85132822 0.81796202
0.33286009 0.88014041 0.83006510
0.50802218 0.85995330 0.82383352
0.79236449 0.79076689 0.79926727
1.00000000 0.67258117 0.75636637
1.00000000 0.50898066 0.69644810
0.68465521 0.82147249 0.74482896
0.42950586 0.99392905 0.81126238
0.27676102 1.00000000 0.86079867
0.23319640 1.00000000 0.89200030
0.29881198 1.00000000 0.90486726
0.47360778 1.00000000 0.89939957
0.75758379 1.00000000 0.87559721
1.00000000 1.00000000 0.83346019
1.00000000 0.85895742 0.77429196
0.63677426 1.00000000 0.83970384
0.38127177 1.00000000 0.90687372
0.22816727 1.00000000 0.95716005
0.18424299 1.00000000 0.98911173
0.24949892 1.00000000 1.00000000
0.42393506 1.00000000 0.99801109
0.70755141 1.00000000 0.97495877
1.00000000 1.00000000 0.93357180
1.00000000 1.00000000 0.87514002
0.31180491 0.16436916 0.84818497
0.05826931 0.33417386 0.90811211
0.00000000 0.45867825 0.95102205
0.00000000 0.53418335 0.97559733
0.00000000 0.56068914 0.98183794
0.10894537 0.53819562 0.96974390
0.39456491 0.46670281 0.93931519
0.78936466 0.34621070 0.89055181
1.00000000 0.18034557 0.82487731
0.37519997 0.00000000 0.76902126
0.12153783 0.13946668 0.82999341
0.00000000 0.26440541 0.87396765
0.00000000 0.34034485 0.89960723
0.00000000 0.36728498 0.90691215
0.17169837 0.34522581 0.89588240
0.45718904 0.27416733 0.86651799
0.85185991 0.15410956 0.81881892
1.00000000 0.00000000 0.75418942
0.42358995 0.00000000 0.71326192
0.16979893 0.03054155 0.77529838
0.01843749 0.15592264 0.82035656
0.00000000 0.23230443 0.84708008
0.04325525 0.25968692 0.85546893
0.21943444 0.23807011 0.84552313
0.50479385 0.16745399 0.81724266
0.89933347 0.04783858 0.77062753
1.00000000 0.00000000 0.70706234
0.45561613 0.00000000 0.68265812
0.20169623 0.01285171 0.74575887
0.05020353 0.13867516 0.79190100
0.00789104 0.21549930 0.81970846
0.07475877 0.24332415 0.82918125
0.25080671 0.22214969 0.82031939
0.53603486 0.15197594 0.79312286
0.93044322 0.03280288 0.74759167
1.00000000 0.00000000 0.68509078
0.47127849 0.00000000 0.67720985
0.21722971 0.08639715 0.74137490
0.06560576 0.21266295 0.78860097
0.02316202 0.28992946 0.81749237
0.08989849 0.31819666 0.82804911
0.26581517 0.29746456 0.82027119
0.55091206 0.22773316 0.79415860
0.94518917 0.10900246 0.74971135
1.00000000 0.00000000 0.68827476
0.47057705 0.07920933 0.69691711
0.21639939 0.25117787 0.76214647
0.06464418 0.37788603 0.81045647
0.02206918 0.45559490 0.84043182
0.08867439 0.48430446 0.85207250
0.26445982 0.46401471 0.84537852
0.54942545 0.39472567 0.82034987
0.94357130 0.27643733 0.77698657
1.00000000 0.11273604 0.71661427
0.45351180 0.33479100 0.74177991
0.19920526 0.50719388 0.80807357
0.04731879 0.63434440 0.85746751
0.00461254 0.71249562 0.88852680
0.07108649 0.74164753 0.90125142
0.24674066 0.72180015 0.89564138
0.53157504 0.65295346 0.87169668
0.92558963 0.53510748 0.82941731
1.00000000 0.37184053 0.77010932
0.42008274 0.68160795 0.81179825
0.16564733 0.85444517 0.87915620
0.01362960 0.98203805 0.92963409
0.00000000 1.00000000 0.96177731
0.03713479 1.00000000 0.97558588
0.21265769 1.00000000 0.97105978
0.49736082 1.00000000 0.94819902
0.89124415 0.88501291 0.90700359
1.00000000 0.72218030 0.84875990
0.37137750 1.00000000 0.90496258
0.11681555 1.00000000 0.97336555
0.00000000 1.00000000 1.00000000
0.00000000 1.00000000 1.00000000
0.00000000 1.00000000 1.00000000
0.16331040 1.00000000 1.00000000
0.44788464 1.00000000 1.00000000
0.84163910 1.00000000 1.00000000
1.00000000 1.00000000 0.95040006
0.00000000 0.00000000 0.91152665
0.00000000 0.14358894 0.97020723
0.00000000 0.26814522 1.00000000
0.00000000 0.34370220 1.00000000
0.00000000 0.37025988 1.00000000
0.00000000 0.34781825 1.00000000
0.03578729 0.27637733 0.99506252
0.42968970 0.15593710 0.94502959
0.92321232 0.00000000 0.87810853
0.02098078 0.00000000 0.83068337
0.00000000 0.00000000 0.89071195
0.00000000 0.07394577 0.93372519
0.00000000 0.14998333 0.95840377
0.00000000 0.17702159 0.96474769
0.00000000 0.15506054 0.95275694
0.09895755 0.08410019 0.92243154
0.49295768 0.00000000 0.87377147
0.98657624 0.00000000 0.80819840
0.06854648 0.00000000 0.77321348
0.00000000 0.00000000 0.83461491
0.00000000 0.00000000 0.87902635
0.00000000 0.04206476 0.90510313
0.00000000 0.06959246 0.91284525
0.00000000 0.04812086 0.90225270
0.14711857 0.00000000 0.87332549
0.54121823 0.00000000 0.82606362
1.00000000 0.00000000 0.76186341
0.09974836 0.00000000 0.74089912
0.00000000 0.00000000 0.80367342
0.00000000 0.00000000 0.84948305
0.00000000 0.02538147 0.87695803
0.00000000 0.05339862 0.88609834
0.00000000 0.03241646 0.87690399
0.17891579 0.00000000 0.84937498
0.57311497 0.00000000 0.80351130
1.00000000 0.00000000 0.74068395
0.11458644 0.00000000 0.73374030
0.00000000 0.00000000 0.79788746
0.00000000 0.02242757 0.84509529
0.00000000 0.09993346 0.87396846
0.00000000 0.12844006 0.88450697
0.00000000 0.10794735 0.87671082
0.19434920 0.03845534 0.85058000
0.58864790 0.00000000 0.80611452
1.00000000 0.00000000 0.74466003
0.11306071 0.00000000 0.75173701
0.00000000 0.06073075 0.81725703
0.00000000 0.18772540 0.86586306
0.00000000 0.26572074 0.89613442
0.00000000 0.29471678 0.90807113
0.00000000 0.27471352 0.90167317
0.19341880 0.20571096 0.87694055
0.58781702 0.08770909 0.83387327
1.00000000 0.00000000 0.77379164
0.09517117 0.14404401 0.79488926
0.00000000 0.31677442 0.86178213
0.00000000 0.44425851 0.91178636
0.00000000 0.52274330 0.94345592
0.00000000 0.55222879 0.95679083
0.00000000 0.53271497 0.95179107
0.17612459 0.46420186 0.92845664
0.57062234 0.34668944 0.88678756
1.00000000 0.18375002 0.82807879
0.06091782 0.49084239 0.86319703
0.00000000 0.66405337 0.93146277
0.00000000 0.79202691 0.98286520
0.00000000 0.87100114 1.00000000
0.00000000 0.90097608 1.00000000
0.00000000 0.88195171 1.00000000
0.14246658 0.81392804 1.00000000
0.53706384 0.69690507 0.96485738
1.00000000 0.53444622 0.90752147
0.01140323 0.92069801 0.95468181
0.00000000 1.00000000 1.00000000
0.00000000 1.00000000 1.00000000
0.00000000 1.00000000 1.00000000
0.00000000 1.00000000 1.00000000
0.00000000 1.00000000 1.00000000
0.09353653 1.00000000 1.00000000
0.48823152 1.00000000 1.00000000
0.98253234 0.96812906 1.00000000
