data/manual_verify/canoncgt_candidates/candidate_c.cube
TITLE "LocalColorService CanonCGT fitted transform"
LUT_3D_SIZE 5
DOMAIN_MIN 0.0 0.0 0.0
DOMAIN_MAX 1.0 1.0 1.0
0.00000000 0.00000000 0.00000000
0.00000000 0.37133321 0.11730323
0.00000000 0.50376708 0.18121126
0.00000000 0.37989691 0.14921490
1.00000000 0.00447351 0.02296178
0.13514380 0.00000000 0.00000000
0.00000000 0.00000000 0.00000000
0.00000000 0.03011257 0.02442248
0.03503649 0.00000000 0.00000000
1.00000000 0.00000000 0.00000000
0.21283526 0.00000000 0.00000000
0.00000000 0.00000000 0.00000000
0.00000000 0.02656062 0.00000000
0.08500095 0.00000000 0.00000000
1.00000000 0.00000000 0.00000000
0.20493142 0.00000000 0.00000000
0.00000000 0.36612340 0.05546634
0.00000000 0.50023938 0.10137266
0.04937011 0.37805132 0.05137459
1.00000000 0.00429480 0.00000000
0.11271567 0.91963886 0.16034545
0.00000000 1.00000000 0.29447233
0.00000000 1.00000000 0.33441444
0.00000000 1.00000000 0.27845215
0.99551801 0.94560577 0.12845024
0.76021320 0.40860712 0.31071331
0.16599229 0.79278807 0.46194766
0.13415456 0.92549586 0.51915365
0.67341332 0.80189961 0.48045526
1.00000000 0.42674765 0.34756082
0.91727226 0.00000000 0.15685066
0.31634087 0.31896729 0.30543292
0.27773132 0.45272505 0.35996256
0.81021826 0.33017878 0.31858782
1.00000000 0.00000000 0.18304128
0.99061227 0.00000000 0.13248724
0.38290906 0.31524754 0.27839315
0.33746576 0.45006488 0.33022198
0.86311896 0.32857818 0.28614642
1.00000000 0.00000000 0.14792353
0.97835698 0.40143715 0.23970661
0.36388194 0.78875851 0.38293617
0.31160491 0.92463542 0.43206419
0.83042437 0.80420829 0.38528781
1.00000000 0.43219674 0.24438858
0.88182921 1.00000000 0.47567452
0.26064370 1.00000000 0.61625198
0.20159484 1.00000000 0.66270365
0.71364247 1.00000000 0.61325093
1.00000000 1.00000000 0.46969960
1.00000000 0.54713373 0.58363865
0.42199930 0.93158859 0.72817096
0.38538117 1.00000000 0.77861364
0.91985953 0.94125298 0.73315193
1.00000000 0.56637494 0.59355545
1.00000000 0.07217443 0.42074593
0.57041095 0.45816242 0.56591401
0.52945759 0.59269378 0.61699827
1.00000000 0.47092110 0.57217815
1.00000000 0.09757619 0.43321744
1.00000000 0.06730575 0.38726987
0.63502450 0.45484089 0.53307954
0.58969625 0.59093354 0.58481125
1.00000000 0.47072215 0.54063857
1.00000000 0.09892438 0.40231944
1.00000000 0.53966779 0.48537660
0.61404274 0.92875007 0.63182785
0.56433962 1.00000000 0.68420701
1.00000000 0.94775391 0.64068178
1.00000000 0.57750330 0.50300424
1.00000000 1.00000000 0.71231443
0.50886756 1.00000000 0.85940145
0.45482921 1.00000000 0.91242219
0.97188734 1.00000000 0.86953855
1.00000000 1.00000000 0.73249678
0.74605950 0.39767135 0.77491467
0.14236440 0.78240013 0.91274495
0.10096587 0.91566076 0.95642431
0.63066383 0.79261736 0.90419929
1.00000000 0.41801324 0.75790077
0.89441567 0.00000000 0.60299188
0.28883912 0.30936856 0.74474579
0.24554194 0.44467352 0.79238467
0.77334125 0.32367443 0.74411916
1.00000000 0.00000000 0.60174428
0.95897322 0.00000000 0.56040318
0.35149802 0.30644525 0.70611661
0.30628483 0.44381321 0.75775120
0.83216813 0.32487713 0.71348140
1.00000000 0.00000000 0.57506604
0.93793547 0.38990943 0.64939727
0.32856162 0.78075264 0.79907022
0.28143242 0.92018362 0.85470052
0.80539972 0.80331055 0.81442644
1.00000000 0.43482086 0.67997059
0.83270480 1.00000000 0.86730503
0.22144951 1.00000000 1.00000000
0.17242166 1.00000000 1.00000000
0.69449031 1.00000000 1.00000000
1.00000000 1.00000000 0.91364464
0.00000000 0.00000000 0.88430407
0.00000000 0.35065144 1.00000000
0.00000000 0.48418599 1.00000000
0.00000000 0.36141651 0.99354330
0.89958534 0.00000000 0.84060346
0.08963770 0.00000000 0.70343301
0.00000000 0.00000000 0.84180369
0.00000000 0.01408245 0.88602840
0.00000000 0.00000000 0.83434872
1.00000000 0.00000000 0.68859061
0.14984380 0.00000000 0.65181424
0.00000000 0.00000000 0.79743230
0.00000000 0.01411392 0.84897065
0.02337972 0.00000000 0.80460461
1.00000000 0.00000000 0.66609388
0.12445461 0.00000000 0.73177826
0.00000000 0.35018421 0.88464370
0.00000000 0.49137611 0.94349570
0.00000000 0.37626397 0.90644330
1.00000000 0.00951925 0.77517995
0.01491192 0.89629740 0.94073775
0.00000000 1.00000000 1.00000000
0.00000000 1.00000000 1.00000000
0.00000000 1.00000000 1.00000000
0.97715768 0.95832261 1.00000000
