data/manual_verify/v02_three_shot_luts/scene_0002.cube
# Generated by Local Color Service V0.1.3 using OpenColorIO Baker
# Recipe Hash: fe984356931506789587f3c8674f1194b3c7638d2465be14100624ec5b3f350b
# OCIO Config: studio-config-v4.0.0_aces-v2.0_ocio-v2.5
LUT_3D_SIZE 5
-0.003435 -0.003435 -0.003435
0.232834 -0.002993 -0.003354
0.487395 -0.002711 -0.002892
0.759316 -0.007738 -0.002570
1.038559 -0.015887 -0.005359
-0.001420 0.230879 -0.002678
0.231145 0.231223 -0.002494
0.490522 0.228858 -0.001983
0.761526 0.218173 -0.003182
1.040112 0.193798 -0.005970
-0.009464 0.494186 -0.004245
0.217213 0.494445 -0.004370
0.494041 0.494883 -0.004999
0.766591 0.494072 -0.006494
1.044683 0.490581 -0.009115
-0.025927 0.769347 -0.011874
0.159168 0.769500 -0.011998
0.488467 0.769977 -0.012578
0.769133 0.770335 -0.013913
1.049297 0.769897 -0.016284
-0.052220 1.051499 -0.024194
-0.011907 1.051601 -0.024318
0.469444 1.051974 -0.024875
0.765726 1.052474 -0.026111
1.051224 1.052772 -0.028280
-0.002988 -0.003379 0.231510
0.232187 -0.002884 0.231253
0.487814 -0.002779 0.230489
0.759731 -0.007772 0.228501
1.038860 -0.015911 0.223063
-0.001649 0.230938 0.231176
0.231238 0.231238 0.231238
0.491001 0.228849 0.230697
0.761912 0.218152 0.228108
1.040401 0.193764 0.222191
-0.009344 0.494264 0.226867
0.217892 0.494517 0.226682
0.494458 0.494938 0.225520
0.766912 0.494111 0.222179
1.044935 0.490608 0.215397
-0.025734 0.769395 0.207964
0.160378 0.769547 0.207628
0.488831 0.770018 0.205986
0.769397 0.770370 0.201915
1.049508 0.769925 0.194015
-0.052001 1.051531 0.162241
-0.011672 1.051633 0.161689
0.469794 1.052004 0.159142
0.765953 1.052501 0.153150
1.051405 1.052796 0.141497
-0.001995 -0.003223 0.492793
0.227270 -0.002540 0.492892
0.488400 -0.003195 0.493297
0.760620 -0.008096 0.493748
1.039677 -0.016165 0.493589
-0.003431 0.230695 0.493552
0.228294 0.230818 0.493697
0.491507 0.228234 0.494064
0.762752 0.217471 0.494267
1.041192 0.193031 0.493890
-0.009957 0.494424 0.494891
0.216822 0.494651 0.494937
0.495011 0.495011 0.495011
0.767669 0.494133 0.494819
1.045658 0.490595 0.494009
-0.025669 0.769538 0.493389
0.161440 0.769684 0.493371
0.489545 0.770136 0.493235
0.770102 0.770463 0.492745
1.050159 0.769996 0.491592
-0.051567 1.051643 0.486972
-0.011169 1.051743 0.486914
0.470698 1.052106 0.486631
0.766635 1.052592 0.485920
1.051997 1.052874 0.484510
-0.008512 -0.002765 0.766899
0.210813 -0.002365 0.766995
0.486997 -0.004290 0.767460
0.761032 -0.009022 0.768063
1.040482 -0.016941 0.768567
-0.008456 0.229045 0.767609
0.215573 0.228926 0.767720
0.490048 0.226020 0.768088
0.763111 0.215096 0.768564
1.041967 0.190427 0.768949
-0.013054 0.494418 0.769291
0.207581 0.494603 0.769355
0.493892 0.494855 0.769566
0.768000 0.493886 0.769817
1.046375 0.490294 0.769942
-0.027219 0.769686 0.770348
0.154312 0.769821 0.770375
0.489061 0.770236 0.770460
0.770519 0.770519 0.770519
1.050847 0.770013 0.770409
-0.052065 1.051798 0.769572
-0.011529 1.051894 0.769573
0.470880 1.052243 0.769562
0.767196 1.052706 0.769466
1.052684 1.052965 0.769165
-0.018436 -0.003990 1.048254
0.178918 -0.004345 1.048356
0.482131 -0.006248 1.048715
0.760174 -0.010764 1.049255
1.040781 -0.018468 1.049844
-0.017341 0.225064 1.048818
0.186117 0.224707 1.048902
0.485159 0.221376 1.049207
0.762196 0.210122 1.049674
1.042232 0.184845 1.050192
-0.019799 0.493997 1.050329
0.183047 0.494127 1.050387
0.489589 0.494235 1.050599
0.767110 0.493138 1.050925
1.046593 0.489466 1.051274
-0.031727 0.769727 1.051913
0.127636 0.769846 1.051948
0.485837 0.770210 1.052080
0.769862 0.770428 1.052277
1.051087 0.769865 1.052465
-0.054811 1.051936 1.052789
-0.014061 1.052026 1.052807
0.468797 1.052352 1.052874
0.766884 1.052784 1.052962
1.053009 1.053009 1.053009
