data/manual_verify/v02_three_shot_luts/scene_0003.cube
# Generated by Local Color Service V0.1.3 using OpenColorIO Baker
# Recipe Hash: b85ba405fe9a87a7be7453cd5d8d30fa3c2ecd99428c75e72f1f2c2cdebd5538
# OCIO Config: studio-config-v4.0.0_aces-v2.0_ocio-v2.5
LUT_3D_SIZE 33
0.083837 0.083837 0.083837
0.087554 0.083784 0.083784
0.101417 0.083560 0.083560
0.123476 0.083101 0.083101
0.150260 0.082359 0.082359
0.184899 0.080016 0.081057
0.232087 0.072603 0.078695
0.279938 0.060172 0.075727
0.328185 0.034025 0.071945
0.376789 -0.000809 0.067042
0.425631 -0.002167 0.060540
0.474586 -0.003770 0.051445
0.523411 -0.005407 0.035851
0.571928 -0.006864 -0.000236
0.620494 -0.008326 -0.000894
0.669328 -0.009959 -0.001620
0.718404 -0.011771 -0.002417
0.767703 -0.013765 -0.003292
0.817205 -0.015946 -0.004249
0.866891 -0.018320 -0.005288
0.916744 -0.020890 -0.006340
0.966747 -0.023661 -0.007346
1.016894 -0.026639 -0.008297
1.067202 -0.029828 -0.009306
1.117666 -0.033233 -0.010384
1.168278 -0.036860 -0.011535
1.219031 -0.040711 -0.012758
1.269919 -0.044791 -0.014055
1.320937 -0.049104 -0.015429
1.372077 -0.053654 -0.016879
1.423335 -0.058443 -0.018407
1.474709 -0.063476 -0.020015
1.526192 -0.068756 -0.021703
0.083625 0.087404 0.083625
0.087354 0.087354 0.083572
0.101255 0.087142 0.083347
0.123353 0.086710 0.082886
0.150166 0.086012 0.082142
0.185135 0.083740 0.080821
0.232311 0.076824 0.078453
0.280074 0.065576 0.075480
0.328243 0.044535 0.071689
0.376776 -0.000534 0.066771
0.425552 -0.001888 0.060244
0.474431 -0.003464 0.051029
0.523166 -0.005036 0.034899
0.571623 -0.006428 -0.000262
0.620216 -0.007881 -0.000919
0.669072 -0.009507 -0.001643
0.718168 -0.011311 -0.002440
0.767483 -0.013298 -0.003314
0.816999 -0.015473 -0.004271
0.866698 -0.017841 -0.005309
0.916562 -0.020405 -0.006357
0.966575 -0.023170 -0.007358
1.016732 -0.026142 -0.008307
1.067049 -0.029326 -0.009316
1.117521 -0.032727 -0.010395
1.168140 -0.036349 -0.011545
1.218901 -0.040195 -0.012769
1.269795 -0.044271 -0.014066
1.320817 -0.048580 -0.015439
1.371964 -0.053125 -0.016890
1.423226 -0.057910 -0.018418
1.474605 -0.062939 -0.020026
1.526093 -0.068216 -0.021714
0.082709 0.100770 0.082709
0.086494 0.100730 0.082656
0.100556 0.100556 0.082427
0.122824 0.100202 0.081959
0.149769 0.099633 0.081202
0.186249 0.097529 0.079795
0.233248 0.092039 0.077405
0.280635 0.083741 0.074410
0.328473 0.070749 0.070579
0.376704 0.046769 0.065596
0.425182 -0.000669 0.058894
0.473681 -0.002037 0.048818
0.522031 -0.003305 0.029435
0.570426 -0.004555 -0.000374
0.619106 -0.005975 -0.001024
0.668040 -0.007569 -0.001744
0.717205 -0.009342 -0.002537
0.766582 -0.011300 -0.003409
0.816152 -0.013447 -0.004364
0.865900 -0.015788 -0.005396
0.915807 -0.018327 -0.006428
0.965860 -0.021068 -0.007409
1.016055 -0.024017 -0.008353
1.066408 -0.027180 -0.009362
1.116913 -0.030560 -0.010441
1.167562 -0.034161 -0.011592
1.218351 -0.037989 -0.012816
1.269269 -0.042045 -0.014113
1.320315 -0.046336 -0.015487
1.371484 -0.050864 -0.016937
1.422768 -0.055632 -0.018466
1.474164 -0.060644 -0.020074
1.525670 -0.065904 -0.021762
0.080804 0.122173 0.080804
0.084707 0.122142 0.080749
0.099116 0.122009 0.080512
0.121740 0.121740 0.080028
0.149372 0.121263 0.079232
0.188859 0.119261 0.077638
0.235030 0.115250 0.075228
0.281675 0.109491 0.072179
0.328803 0.101793 0.068153
0.376286 0.092101 0.062601
0.423962 0.080432 0.054521
0.471763 0.066257 0.041489
0.519915 0.040840 -0.000026
0.568405 -0.000720 -0.000598
0.617182 -0.002076 -0.001238
0.666211 -0.003609 -0.001950
0.715467 -0.005324 -0.002738
0.764930 -0.007225 -0.003606
0.814580 -0.009318 -0.004558
0.864402 -0.011606 -0.005572
0.914378 -0.014095 -0.006569
0.964493 -0.016789 -0.007509
1.014755 -0.019694 -0.008450
1.065171 -0.022813 -0.009459
1.115734 -0.026151 -0.010539
1.166437 -0.029713 -0.011689
1.217275 -0.033501 -0.012913
1.268241 -0.037520 -0.014211
1.319330 -0.041774 -0.015585
1.370538 -0.046266 -0.017036
1.421862 -0.051000 -0.018565
1.473293 -0.055979 -0.020173
1.524830 -0.061206 -0.021862
0.075601 0.149741 0.077208
0.079825 0.149746 0.077141
0.095121 0.149771 0.076853
0.118574 0.149839 0.076258
0.149025 0.149791 0.075180
0.191505 0.148779 0.073088
0.236273 0.147300 0.070159
0.281619 0.145567 0.066192
0.327664 0.143226 0.060904
0.374353 0.140046 0.053666
0.421590 0.135853 0.042926
0.469306 0.130423 0.021000
0.517440 0.123445 -0.000397
0.565943 0.114444 -0.000955
0.614755 0.102608 -0.001584
0.663834 0.086212 -0.002286
0.713151 0.059788 -0.003067
0.762680 -0.000660 -0.003929
0.812401 -0.002673 -0.004875
0.862291 -0.004883 -0.005843
0.912335 -0.007298 -0.006783
0.962521 -0.009921 -0.007674
1.012861 -0.012757 -0.008614
1.063354 -0.015810 -0.009623
1.113989 -0.019084 -0.010702
1.164761 -0.022583 -0.011853
1.215664 -0.026311 -0.013077
1.266691 -0.030271 -0.014375
1.317839 -0.034468 -0.015749
1.369103 -0.038905 -0.017200
1.420477 -0.043584 -0.018729
1.471958 -0.048511 -0.020337
1.523543 -0.053687 -0.022026
0.024936 0.191267 0.066970
0.039302 0.191292 0.066884
0.068868 0.191398 0.066514
0.102591 0.191557 0.065713
0.144493 0.191405 0.064079
0.189639 0.190887 0.061492
0.234556 0.190161 0.057960
0.279880 0.189140 0.053098
0.325799 0.187731 0.046153
0.372315 0.185844 0.035137
0.419383 0.183384 -0.000030
0.466954 0.180253 -0.000444
0.514977 0.176341 -0.000921
0.563401 0.171516 -0.001466
0.612164 0.165626 -0.002084
0.661220 0.158464 -0.002777
0.710534 0.149736 -0.003550
0.760078 0.138990 -0.004407
0.809824 0.125458 -0.005311
0.859751 0.107612 -0.006204
0.909837 0.081366 -0.007055
0.960085 -0.000104 -0.007926
1.010495 -0.002850 -0.008865
1.061056 -0.005814 -0.009872
1.111762 -0.009002 -0.010950
1.162602 -0.012416 -0.012099
1.213572 -0.016062 -0.013322
1.264666 -0.019942 -0.014620
1.315877 -0.024060 -0.015993
1.367203 -0.028420 -0.017443
1.418636 -0.033025 -0.018971
1.470174 -0.037878 -0.020579
1.521814 -0.042983 -0.022268
-0.002584 0.235017 0.049053
-0.002254 0.235016 0.048917
-0.000749 0.234987 0.048298
0.086067 0.234815 0.046813
0.139441 0.234497 0.044227
0.186584 0.234080 0.040235
0.232356 0.233534 0.033950
0.278016 0.232810 0.022215
0.324004 0.231849 -0.000128
0.370448 0.230590 -0.000414
0.417386 0.228970 -0.000755
0.464808 0.226925 -0.001156
0.512685 0.224387 -0.001622
0.560978 0.221290 -0.002157
0.609631 0.217563 -0.002766
0.658599 0.213126 -0.003450
0.707849 0.207882 -0.004216
0.757348 0.201711 -0.005027
0.807066 0.194461 -0.005838
0.856978 0.185929 -0.006622
0.907079 0.175835 -0.007422
0.957361 0.163757 -0.008288
1.007812 0.148999 -0.009223
1.058421 0.130265 -0.010227
1.109178 0.104525 -0.011301
1.160074 0.058876 -0.012448
1.211100 -0.002427 -0.013668
1.262253 -0.006206 -0.014963
1.313522 -0.010226 -0.016334
1.364906 -0.014489 -0.017783
1.416399 -0.018999 -0.019310
1.467994 -0.023759 -0.020916
1.519690 -0.028775 -0.022603
-0.004540 0.278870 -0.000280
-0.004114 0.278845 -0.000285
-0.002277 0.278743 -0.000308
0.066743 0.278552 -0.000353
0.131663 0.278274 -0.000426
0.182061 0.277914 -0.000530
0.229314 0.277462 -0.000669
0.275702 0.276891 -0.000849
0.322014 0.276166 -0.001075
0.368559 0.275246 -0.001351
0.415473 0.274084 -0.001682
0.462805 0.272634 -0.002074
0.510560 0.270849 -0.002531
0.558720 0.268679 -0.003057
0.607241 0.266083 -0.003656
0.656088 0.263010 -0.004324
0.705230 0.259409 -0.005018
0.754635 0.255221 -0.005718
0.804278 0.250382 -0.006403
0.854149 0.244821 -0.007130
0.904231 0.238449 -0.007922
0.954509 0.231154 -0.008782
1.004967 0.222791 -0.009710
1.055593 0.213168 -0.010708
1.106374 0.202019 -0.011777
1.157302 0.188952 -0.012918
1.208366 0.173354 -0.014134
1.259559 0.154143 -0.015425
1.310874 0.129055 -0.016792
1.362303 0.091234 -0.018237
1.413844 -0.001204 -0.019761
1.465491 -0.005855 -0.021364
1.517239 -0.010764 -0.023048
-0.006382 0.323151 -0.001500
-0.005941 0.323130 -0.001505
-0.004047 0.323042 -0.001525
-0.000157 0.322874 -0.001566
0.120066 0.322627 -0.001633
0.175628 0.322305 -0.001730
0.225116 0.321907 -0.001862
0.272668 0.321420 -0.002034
0.319594 0.320826 -0.002252
0.366446 0.320097 -0.002519
0.413483 0.319199 -0.002843
0.460825 0.318098 -0.003226
0.508523 0.316758 -0.003675
0.556583 0.315143 -0.004178
0.604983 0.313219 -0.004714
0.653701 0.310952 -0.005272
0.702717 0.308307 -0.005834
0.752013 0.305247 -0.006424
0.801575 0.301739 -0.007077
0.851381 0.297740 -0.007794
0.901412 0.293204 -0.008577
0.951652 0.288080 -0.009427
1.002084 0.282308 -0.010346
1.052696 0.275815 -0.011335
1.103472 0.268515 -0.012397
1.154404 0.260301 -0.013531
1.205480 0.251036 -0.014740
1.256691 0.240539 -0.016024
1.308031 0.228562 -0.017385
1.359492 0.214749 -0.018824
1.411066 0.198563 -0.020342
1.462749 0.179103 -0.021941
1.514536 0.154650 -0.023620
-0.008627 0.367912 -0.002967
-0.008173 0.367893 -0.002971
-0.006226 0.367817 -0.002990
-0.002237 0.367668 -0.003028
0.102551 0.367445 -0.003091
0.166790 0.367152 -0.003183
0.219486 0.366790 -0.003310
0.268686 0.366357 -0.003476
0.316544 0.365842 -0.003687
0.363929 0.365227 -0.003940
0.411253 0.364489 -0.004234
0.458726 0.363603 -0.004566
0.506450 0.362541 -0.004931
0.554468 0.361276 -0.005321
0.602784 0.359781 -0.005730
0.651405 0.358033 -0.006190
0.700325 0.356006 -0.006708
0.749529 0.353671 -0.007286
0.799002 0.351003 -0.007927
0.848727 0.347972 -0.008632
0.898687 0.344550 -0.009403
0.948865 0.340704 -0.010242
0.999246 0.336400 -0.011150
1.049817 0.331600 -0.012129
1.100563 0.326261 -0.013180
1.151473 0.320333 -0.014305
1.202536 0.313758 -0.015504
1.253745 0.306466 -0.016779
1.305088 0.298374 -0.018132
1.356558 0.289379 -0.019563
1.408148 0.279350 -0.021073
1.459851 0.268120 -0.022664
1.511662 0.255458 -0.024336
-0.011301 0.413080 -0.004637
-0.010836 0.413064 -0.004640
-0.008840 0.412996 -0.004655
-0.004759 0.412862 -0.004685
0.072453 0.412659 -0.004734
0.154743 0.412390 -0.004805
0.212056 0.412056 -0.004901
0.263501 0.411660 -0.005023
0.312646 0.411196 -0.005172
0.360808 0.410653 -0.005349
0.408602 0.410016 -0.005552
0.456346 0.409269 -0.005797
0.504213 0.408391 -0.006088
0.552283 0.407363 -0.006428
0.600598 0.406163 -0.006821
0.649181 0.404771 -0.007269
0.698038 0.403164 -0.007774
0.747166 0.401321 -0.008340
0.796557 0.399220 -0.008967
0.846199 0.396841 -0.009659
0.896080 0.394160 -0.010417
0.946184 0.391155 -0.011243
0.996499 0.387803 -0.012138
1.047011 0.384077 -0.013105
1.097708 0.379951 -0.014143
1.148577 0.375395 -0.015256
1.199608 0.370378 -0.016443
1.250792 0.364861 -0.017707
1.302117 0.358805 -0.019049
1.353577 0.352162 -0.020469
1.405163 0.344876 -0.021969
1.456868 0.336881 -0.023550
1.508687 0.328097 -0.025213
-0.014454 0.458596 -0.006117
-0.013978 0.458582 -0.006120
-0.011937 0.458521 -0.006130
-0.007771 0.458400 -0.006150
-0.001052 0.458215 -0.006184
0.137911 0.457967 -0.006235
0.202306 0.457660 -0.006307
0.256832 0.457295 -0.006404
0.307710 0.456871 -0.006530
0.356946 0.456383 -0.006688
0.405429 0.455822 -0.006884
0.453615 0.455175 -0.007122
0.501754 0.454428 -0.007404
0.549976 0.453565 -0.007734
0.598363 0.452570 -0.008116
0.646963 0.451424 -0.008552
0.695799 0.450111 -0.009045
0.744882 0.448612 -0.009597
0.794211 0.446909 -0.010211
0.843783 0.444986 -0.010889
0.893589 0.442824 -0.011632
0.943619 0.440405 -0.012444
0.993863 0.437711 -0.013325
1.044307 0.434724 -0.014276
1.094942 0.431424 -0.015301
1.145757 0.427791 -0.016399
1.196740 0.423804 -0.017573
1.247883 0.419438 -0.018824
1.299174 0.414670 -0.020152
1.350607 0.409470 -0.021560
1.402172 0.403810 -0.023047
1.453864 0.397651 -0.024617
1.505674 0.390957 -0.026268
-0.018089 0.504457 -0.007676
-0.017604 0.504444 -0.007678
-0.015522 0.504389 -0.007688
-0.011278 0.504280 -0.007709
-0.004443 0.504112 -0.007743
0.113242 0.503885 -0.007794
0.189739 0.503601 -0.007865
0.248501 0.503263 -0.007960
0.301641 0.502872 -0.008083
0.352267 0.502425 -0.008237
0.401658 0.501917 -0.008428
0.450450 0.501340 -0.008659
0.498984 0.500683 -0.008933
0.547460 0.499936 -0.009254
0.596001 0.499083 -0.009625
0.644684 0.498112 -0.010049
0.693551 0.497008 -0.010529
0.742627 0.495755 -0.011068
0.791925 0.494340 -0.011668
0.841448 0.492747 -0.012331
0.891194 0.490961 -0.013060
0.941159 0.488968 -0.013856
0.991333 0.486753 -0.014721
1.041711 0.484300 -0.015657
1.092280 0.481596 -0.016666
1.143032 0.478624 -0.017749
1.193958 0.475367 -0.018907
1.245049 0.471811 -0.020143
1.296294 0.467936 -0.021456
1.347687 0.463725 -0.022849
1.399218 0.459157 -0.024323
1.450881 0.454209 -0.025878
1.502666 0.448860 -0.027516
-0.022218 0.550625 -0.009451
-0.021723 0.550613 -0.009453
-0.019604 0.550563 -0.009463
-0.015285 0.550464 -0.009484
-0.008340 0.550310 -0.009518
0.068587 0.550101 -0.009569
0.173443 0.549838 -0.009639
0.238211 0.549524 -0.009733
0.294279 0.549160 -0.009853
0.346659 0.548745 -0.010004
0.397195 0.548277 -0.010190
0.446760 0.547751 -0.010415
0.495822 0.547160 -0.010681
0.544658 0.546495 -0.010993
0.593440 0.545747 -0.011354
0.642275 0.544903 -0.011767
0.691231 0.543951 -0.012235
0.740348 0.542880 -0.012761
0.789651 0.541677 -0.013347
0.839154 0.540329 -0.013995
0.888863 0.538824 -0.014709
0.938778 0.537148 -0.015489
0.988896 0.535290 -0.016338
1.039210 0.533237 -0.017258
1.089716 0.530977 -0.018250
1.140407 0.528496 -0.019317
1.191272 0.525783 -0.020458
1.242305 0.522823 -0.021677
1.293496 0.519605 -0.022974
1.344840 0.516112 -0.024351
1.396325 0.512332 -0.025808
1.447949 0.508248 -0.027348
1.499701 0.503844 -0.028971
-0.026857 0.597072 -0.011450
-0.026354 0.597062 -0.011452
-0.024199 0.597016 -0.011463
-0.019811 0.596925 -0.011484
-0.012759 0.596784 -0.011518
-0.002670 0.596590 -0.011569
0.151619 0.596346 -0.011639
0.225511 0.596052 -0.011731
0.285418 0.595710 -0.011849
0.339990 0.595322 -0.011997
0.391937 0.594886 -0.012179
0.442458 0.594400 -0.012398
0.492188 0.593859 -0.012657
0.541496 0.593256 -0.012961
0.590610 0.592585 -0.013313
0.639673 0.591835 -0.013715
0.688779 0.590998 -0.014172
0.737989 0.590062 -0.014684
0.787340 0.589019 -0.015257
0.836859 0.587856 -0.015891
0.886558 0.586563 -0.016589
0.936445 0.585129 -0.017353
0.986521 0.583544 -0.018186
1.036788 0.581796 -0.019089
1.087239 0.579875 -0.020064
1.137871 0.577771 -0.021113
1.188677 0.575471 -0.022237
1.239651 0.572968 -0.023438
1.290787 0.570247 -0.024717
1.342076 0.567299 -0.026077
1.393512 0.564112 -0.027517
1.445089 0.560674 -0.029040
1.496799 0.556974 -0.030647
-0.032021 0.643776 -0.013681
-0.031510 0.643767 -0.013684
-0.029322 0.643725 -0.013694
-0.024868 0.643641 -0.013715
-0.017716 0.643511 -0.013750
-0.007493 0.643331 -0.013801
0.119851 0.643103 -0.013870
0.209720 0.642827 -0.013961
0.274794 0.642506 -0.014078
0.332113 0.642140 -0.014224
0.385776 0.641731 -0.014401
0.437458 0.641277 -0.014615
0.488007 0.640774 -0.014869
0.537906 0.640220 -0.015165
0.587447 0.639607 -0.015508
0.636817 0.638929 -0.015901
0.686140 0.638178 -0.016346
0.735496 0.637346 -0.016846
0.784943 0.636424 -0.017405
0.834516 0.635403 -0.018025
0.884238 0.634274 -0.018708
0.934124 0.633027 -0.019456
0.984182 0.631653 -0.020272
1.034416 0.630142 -0.021158
1.084826 0.628486 -0.022116
1.135410 0.626674 -0.023147
1.186163 0.624698 -0.024253
1.237083 0.622549 -0.025436
1.288163 0.620216 -0.026697
1.339398 0.617692 -0.028038
1.390782 0.614965 -0.029461
1.442307 0.612028 -0.030966
1.493970 0.608869 -0.032555
-0.037727 0.690718 -0.016152
-0.037208 0.690709 -0.016155
-0.034989 0.690670 -0.016165
-0.030471 0.690593 -0.016186
-0.023223 0.690472 -0.016221
-0.012871 0.690304 -0.016272
0.054492 0.690091 -0.016341
0.189690 0.689831 -0.016432
0.262053 0.689529 -0.016547
0.322843 0.689184 -0.016690
0.378595 0.688797 -0.016865
0.431674 0.688369 -0.017074
0.483210 0.687899 -0.017322
0.533824 0.687382 -0.017612
0.583892 0.686815 -0.017946
0.633651 0.686192 -0.018330
0.683260 0.685508 -0.018764
0.732823 0.684757 -0.019253
0.782414 0.683929 -0.019799
0.832083 0.683019 -0.020405
0.881865 0.682017 -0.021073
0.931780 0.680916 -0.021806
0.981844 0.679708 -0.022606
1.032067 0.678383 -0.023475
1.082452 0.676935 -0.024415
1.133001 0.675355 -0.025428
1.183713 0.673636 -0.026516
1.234587 0.671767 -0.027680
1.285617 0.669743 -0.028923
1.336801 0.667554 -0.030246
1.388131 0.665193 -0.031649
1.439606 0.662651 -0.033136
1.491219 0.659920 -0.034706
-0.043987 0.737880 -0.018870
-0.043462 0.737872 -0.018872
-0.041212 0.737836 -0.018883
-0.036635 0.737764 -0.018904
-0.029294 0.737651 -0.018939
-0.018818 0.737495 -0.018990
-0.004867 0.737294 -0.019059
0.163131 0.737050 -0.019149
0.246663 0.736764 -0.019263
0.311954 0.736437 -0.019404
0.370267 0.736071 -0.019576
0.425018 0.735666 -0.019781
0.477723 0.735222 -0.020024
0.529190 0.734736 -0.020307
0.579891 0.734206 -0.020635
0.630126 0.733627 -0.021009
0.680091 0.732997 -0.021434
0.729921 0.732308 -0.021912
0.779710 0.731554 -0.022445
0.829520 0.730731 -0.023038
0.879398 0.729829 -0.023692
0.929375 0.728844 -0.024410
0.979474 0.727767 -0.025194
1.029709 0.726592 -0.026046
1.080090 0.725310 -0.026969
1.130620 0.723916 -0.027964
1.181304 0.722401 -0.029034
1.232142 0.720759 -0.030180
1.283132 0.718982 -0.031405
1.334270 0.717063 -0.032708
1.385554 0.714996 -0.034093
1.436981 0.712772 -0.035560
1.488543 0.710385 -0.037111
-0.050816 0.785248 -0.021840
-0.050284 0.785241 -0.021843
-0.048006 0.785207 -0.021853
-0.043372 0.785140 -0.021875
-0.035945 0.785035 -0.021910
-0.025352 0.784888 -0.021960
-0.011256 0.784699 -0.022029
0.123940 0.784469 -0.022119
0.227815 0.784198 -0.022231
0.299156 0.783888 -0.022371
0.360642 0.783540 -0.022540
0.417393 0.783156 -0.022742
0.471478 0.782734 -0.022980
0.523943 0.782274 -0.023258
0.575391 0.781774 -0.023579
0.626191 0.781232 -0.023945
0.676589 0.780643 -0.024360
0.726750 0.780005 -0.024828
0.776787 0.779311 -0.025351
0.826785 0.778557 -0.025931
0.876801 0.777736 -0.026571
0.926877 0.776843 -0.027275
0.977041 0.775871 -0.028044
1.027314 0.774816 -0.028881
1.077713 0.773668 -0.029787
1.128245 0.772423 -0.030765
1.178917 0.771075 -0.031817
1.229733 0.769616 -0.032945
1.280690 0.768040 -0.034150
1.331793 0.766341 -0.035434
1.383037 0.764512 -0.036799
1.434419 0.762549 -0.038246
1.485938 0.760443 -0.039777
-0.058236 0.832809 -0.025070
-0.057698 0.832802 -0.025072
-0.055394 0.832771 -0.025083
-0.050708 0.832708 -0.025104
-0.043199 0.832610 -0.025139
-0.032494 0.832472 -0.025190
-0.018259 0.832294 -0.025259
-0.000175 0.832076 -0.025348
0.204119 0.831820 -0.025460
0.284046 0.831526 -0.025598
0.349530 0.831194 -0.025765
0.408687 0.830827 -0.025964
0.464394 0.830425 -0.026198
0.518026 0.829988 -0.026471
0.570341 0.829514 -0.026786
0.621804 0.829001 -0.027145
0.672712 0.828448 -0.027553
0.723267 0.827850 -0.028011
0.773612 0.827205 -0.028523
0.823846 0.826506 -0.029092
0.874041 0.825750 -0.029720
0.924251 0.824932 -0.030410
0.974511 0.824046 -0.031164
1.024852 0.823087 -0.031985
1.075292 0.822049 -0.032875
1.125848 0.820926 -0.033836
1.176525 0.819714 -0.034870
1.227334 0.818404 -0.035979
1.278275 0.816993 -0.037165
1.329352 0.815475 -0.038430
1.380565 0.813844 -0.039776
1.431911 0.812094 -0.041203
1.483391 0.810218 -0.042713
-0.066267 0.880552 -0.028567
-0.065723 0.880545 -0.028569
-0.063393 0.880516 -0.028580
-0.058658 0.880457 -0.028602
-0.051070 0.880364 -0.028637
-0.040259 0.880235 -0.028688
-0.025889 0.880067 -0.028756
-0.007645 0.879861 -0.028845
0.172708 0.879617 -0.028957
0.266035 0.879337 -0.029093
0.336694 0.879021 -0.029259
0.398769 0.878671 -0.029455
0.456388 0.878287 -0.029686
0.511373 0.877869 -0.029955
0.564691 0.877417 -0.030264
0.616918 0.876930 -0.030617
0.668419 0.876406 -0.031017
0.719438 0.875842 -0.031466
0.770147 0.875236 -0.031968
0.820667 0.874583 -0.032526
0.871085 0.873881 -0.033142
0.921466 0.873124 -0.033819
0.971856 0.872308 -0.034559
1.022293 0.871428 -0.035366
1.072802 0.870480 -0.036240
1.123403 0.869457 -0.037184
1.174107 0.868356 -0.038201
1.224926 0.867171 -0.039292
1.275866 0.865896 -0.040459
1.326931 0.864528 -0.041705
1.378122 0.863060 -0.043030
1.429442 0.861488 -0.044437
1.480889 0.859805 -0.045927
-0.074923 0.928466 -0.032339
-0.074373 0.928460 -0.032341
-0.072020 0.928432 -0.032352
-0.067237 0.928377 -0.032374
-0.059575 0.928290 -0.032409
-0.048661 0.928167 -0.032460
-0.034160 0.928009 -0.032528
-0.015761 0.927813 -0.032617
0.125268 0.927582 -0.032728
0.244195 0.927314 -0.032864
0.321813 0.927013 -0.033028
0.387481 0.926677 -0.033222
0.447362 0.926310 -0.033450
0.503917 0.925909 -0.033715
0.558388 0.925477 -0.034019
0.611490 0.925012 -0.034366
0.663671 0.924513 -0.034759
0.715226 0.923977 -0.035200
0.766359 0.923404 -0.035693
0.817216 0.922790 -0.036241
0.867901 0.922131 -0.036846
0.918493 0.921425 -0.037510
0.969049 0.920667 -0.038237
1.019613 0.919852 -0.039029
1.070217 0.918979 -0.039888
1.120886 0.918040 -0.040816
1.171637 0.917031 -0.041815
1.222487 0.915948 -0.042889
1.273440 0.914788 -0.044038
1.324507 0.913544 -0.045264
1.375691 0.912213 -0.046570
1.426995 0.910788 -0.047956
1.478420 0.909268 -0.049425
-0.084219 0.976542 -0.036391
-0.083664 0.976536 -0.036394
-0.081288 0.976510 -0.036404
-0.076460 0.976459 -0.036427
-0.068725 0.976375 -0.036462
-0.057712 0.976260 -0.036513
-0.043086 0.976110 -0.036582
-0.024536 0.975924 -0.036670
-0.001764 0.975704 -0.036780
0.216864 0.975448 -0.036916
0.304441 0.975160 -0.037078
0.374622 0.974838 -0.037270
0.437202 0.974485 -0.037496
0.495582 0.974102 -0.037757
0.551376 0.973687 -0.038057
0.605477 0.973241 -0.038398
0.658432 0.972763 -0.038784
0.710598 0.972253 -0.039219
0.762216 0.971708 -0.039703
0.813463 0.971126 -0.040241
0.864463 0.970504 -0.040835
0.915305 0.969840 -0.041488
0.966062 0.969130 -0.042202
1.016784 0.968370 -0.042980
1.067512 0.967557 -0.043824
1.118275 0.966688 -0.044736
1.169097 0.965757 -0.045720
1.219993 0.964762 -0.046776
1.270980 0.963696 -0.047906
1.322065 0.962557 -0.049114
1.373255 0.961340 -0.050400
1.424554 0.960042 -0.051766
1.475967 0.958657 -0.053215
-0.094169 1.024772 -0.040730
-0.093608 1.024766 -0.040733
-0.091211 1.024742 -0.040744
-0.086338 1.024692 -0.040766
-0.078536 1.024615 -0.040802
-0.067427 1.024505 -0.040853
-0.052679 1.024361 -0.040921
-0.033982 1.024185 -0.041009
-0.011041 1.023974 -0.041120
0.180513 1.023731 -0.041254
0.283914 1.023454 -0.041415
0.359934 1.023147 -0.041606
0.425772 1.022808 -0.041829
0.486285 1.022438 -0.042087
0.543593 1.022040 -0.042383
0.598828 1.021612 -0.042720
0.652659 1.021153 -0.043100
0.705516 1.020664 -0.043527
0.757688 1.020144 -0.044004
0.809380 1.019589 -0.044532
0.860741 1.018999 -0.045116
0.911877 1.018370 -0.045758
0.962869 1.017700 -0.046460
1.013782 1.016986 -0.047224
1.064663 1.016226 -0.048054
1.115546 1.015414 -0.048952
1.166460 1.014549 -0.049919
1.217427 1.013626 -0.050958
1.268464 1.012641 -0.052071
1.319583 1.011590 -0.053260
1.370793 1.010470 -0.054527
1.422103 1.009277 -0.055873
1.473513 1.008008 -0.057301
-0.104786 1.073147 -0.045362
-0.104221 1.073142 -0.045365
-0.101803 1.073119 -0.045376
-0.096887 1.073072 -0.045398
-0.089018 1.072997 -0.045434
-0.077820 1.072894 -0.045485
-0.062953 1.072757 -0.045553
-0.044114 1.072590 -0.045642
-0.021008 1.072389 -0.045752
0.123818 1.072155 -0.045885
0.259152 1.071890 -0.046046
0.343067 1.071594 -0.046235
0.412903 1.071269 -0.046456
0.475921 1.070914 -0.046711
0.534975 1.070529 -0.047003
0.591497 1.070117 -0.047335
0.646316 1.069676 -0.047710
0.699950 1.069206 -0.048131
0.752746 1.068707 -0.048600
0.804941 1.068175 -0.049120
0.856712 1.067612 -0.049695
0.908183 1.067014 -0.050326
0.959451 1.066379 -0.051016
1.010587 1.065705 -0.051768
1.061649 1.064988 -0.052584
1.112679 1.064226 -0.053467
1.163709 1.063415 -0.054419
1.214769 1.062554 -0.055442
1.265876 1.061636 -0.056537
1.317047 1.060661 -0.057708
1.368292 1.059624 -0.058956
1.419624 1.058522 -0.060283
1.471048 1.057351 -0.061691
-0.116084 1.121661 -0.050292
-0.115515 1.121657 -0.050295
-0.113076 1.121634 -0.050306
-0.108121 1.121590 -0.050328
-0.100188 1.121519 -0.050364
-0.088900 1.121420 -0.050415
-0.073921 1.121291 -0.050484
-0.054943 1.121131 -0.050572
-0.031674 1.120938 -0.050681
-0.003838 1.120715 -0.050815
0.228225 1.120461 -0.050974
0.323520 1.120176 -0.051162
0.398382 1.119862 -0.051381
0.464377 1.119520 -0.051633
0.525442 1.119150 -0.051922
0.583426 1.118752 -0.052250
0.639359 1.118327 -0.052620
0.693863 1.117874 -0.053035
