data/manual_verify/v02_three_shot_luts/scene_0002.cube
# Generated by Local Color Service V0.1.3 using OpenColorIO Baker
# Recipe Hash: fe984356931506789587f3c8674f1194b3c7638d2465be14100624ec5b3f350b
# OCIO Config: studio-config-v4.0.0_aces-v2.0_ocio-v2.5
LUT_3D_SIZE 33
-0.003435 -0.003435 -0.003435
-0.003167 -0.003435 -0.003435
-0.002018 -0.003435 -0.003435
0.034771 -0.003435 -0.003435
0.100676 -0.003435 -0.003435
0.142698 -0.003435 -0.003435
0.175660 -0.003361 -0.003422
0.203675 -0.003185 -0.003389
0.232834 -0.002993 -0.003354
0.262849 -0.002789 -0.003316
0.293535 -0.002576 -0.003277
0.324769 -0.002358 -0.003237
0.356461 -0.002141 -0.003197
0.388533 -0.001931 -0.003157
0.421100 -0.001953 -0.003092
0.454127 -0.002286 -0.002995
0.487395 -0.002711 -0.002892
0.520853 -0.003179 -0.002789
0.554488 -0.003691 -0.002687
0.588287 -0.004249 -0.002587
0.622230 -0.004853 -0.002490
0.656310 -0.005504 -0.002396
0.690521 -0.006201 -0.002332
0.724858 -0.006946 -0.002388
0.759316 -0.007738 -0.002570
0.793886 -0.008578 -0.002850
0.828561 -0.009468 -0.003152
0.863335 -0.010408 -0.003473
0.898204 -0.011399 -0.003812
0.933164 -0.012441 -0.004170
0.968212 -0.013536 -0.004547
1.003345 -0.014684 -0.004943
1.038559 -0.015887 -0.005359
-0.003435 -0.003167 -0.003435
-0.003167 -0.003167 -0.003435
-0.002018 -0.003167 -0.003435
0.034771 -0.003167 -0.003435
0.100676 -0.003167 -0.003435
0.142698 -0.003167 -0.003435
0.175466 -0.003089 -0.003421
0.203534 -0.002914 -0.003389
0.232729 -0.002722 -0.003353
0.262770 -0.002518 -0.003316
0.293475 -0.002305 -0.003277
0.324723 -0.002088 -0.003237
0.356425 -0.001871 -0.003196
0.388516 -0.001674 -0.003155
0.421121 -0.001739 -0.003086
0.454160 -0.002089 -0.002987
0.487426 -0.002511 -0.002884
0.520881 -0.002976 -0.002781
0.554514 -0.003486 -0.002680
0.588311 -0.004041 -0.002580
0.622253 -0.004643 -0.002483
0.656332 -0.005291 -0.002389
0.690540 -0.005986 -0.002328
0.724877 -0.006728 -0.002387
0.759334 -0.007518 -0.002572
0.793903 -0.008356 -0.002853
0.828577 -0.009244 -0.003156
0.863350 -0.010182 -0.003476
0.898218 -0.011170 -0.003816
0.933178 -0.012210 -0.004174
0.968225 -0.013304 -0.004551
1.003357 -0.014450 -0.004947
1.038571 -0.015651 -0.005363
-0.003435 -0.002018 -0.003435
-0.003167 -0.002018 -0.003435
-0.002018 -0.002018 -0.003435
0.034771 -0.002018 -0.003435
0.100676 -0.002018 -0.003435
0.142698 -0.002018 -0.003435
0.174635 -0.001927 -0.003419
0.202930 -0.001753 -0.003387
0.232282 -0.001563 -0.003351
0.262433 -0.001359 -0.003314
0.293219 -0.001148 -0.003275
0.324526 -0.000932 -0.003235
0.356273 -0.000715 -0.003195
0.388510 -0.000651 -0.003139
0.421252 -0.000878 -0.003052
0.454301 -0.001244 -0.002951
0.487555 -0.001653 -0.002850
0.521001 -0.002106 -0.002749
0.554625 -0.002604 -0.002649
0.588414 -0.003149 -0.002551
0.622348 -0.003739 -0.002455
0.656421 -0.004377 -0.002363
0.690625 -0.005062 -0.002314
0.724957 -0.005794 -0.002388
0.759409 -0.006574 -0.002586
0.793974 -0.007403 -0.002869
0.828644 -0.008282 -0.003172
0.863414 -0.009211 -0.003492
0.898278 -0.010192 -0.003832
0.933235 -0.011224 -0.004190
0.968279 -0.012309 -0.004567
1.003409 -0.013448 -0.004963
1.038620 -0.014642 -0.005379
-0.003435 0.034771 -0.003435
-0.003167 0.034771 -0.003435
-0.002018 0.034771 -0.003435
0.034771 0.034771 -0.003435
0.100676 0.034771 -0.003435
0.142537 0.034860 -0.003435
0.172953 0.039666 -0.003414
0.201710 0.045582 -0.003382
0.231378 0.051032 -0.003347
0.261753 0.056070 -0.003310
0.292700 0.060727 -0.003272
0.324171 0.064255 -0.003228
0.356225 0.063950 -0.003162
0.388746 0.059328 -0.003074
0.421547 0.052198 -0.002978
0.454573 0.041901 -0.002881
0.487807 0.022198 -0.002783
0.521234 -0.000323 -0.002685
0.554842 -0.000800 -0.002588
0.588616 -0.001323 -0.002492
0.622538 -0.001893 -0.002399
0.656598 -0.002510 -0.002310
0.690792 -0.003176 -0.002291
0.725116 -0.003889 -0.002394
0.759560 -0.004650 -0.002617
0.794117 -0.005461 -0.002902
0.828779 -0.006322 -0.003205
0.863541 -0.007234 -0.003526
0.898399 -0.008198 -0.003865
0.933349 -0.009215 -0.004223
0.968389 -0.010285 -0.004601
1.003513 -0.011409 -0.004997
1.038719 -0.012588 -0.005413
-0.003435 0.100676 -0.003435
-0.003167 0.100676 -0.003435
-0.002018 0.100676 -0.003435
0.034771 0.100676 -0.003435
0.100676 0.100676 -0.003435
0.140918 0.100895 -0.003431
0.170277 0.102305 -0.003406
0.199783 0.103933 -0.003375
0.230061 0.105147 -0.003334
0.260998 0.105591 -0.003280
0.292497 0.104984 -0.003212
0.324433 0.103472 -0.003132
0.356685 0.101547 -0.003047
0.389208 0.099165 -0.002959
0.421977 0.096256 -0.002868
0.454975 0.092733 -0.002775
0.488182 0.088473 -0.002681
0.521586 0.083300 -0.002587
0.555172 0.076939 -0.002494
0.588925 0.068918 -0.002403
0.622828 0.058275 -0.002313
0.656871 0.042174 -0.002242
0.691052 -0.000135 -0.002273
0.725362 -0.000819 -0.002419
0.759794 -0.001552 -0.002670
0.794338 -0.002336 -0.002955
0.828988 -0.003171 -0.003258
0.863739 -0.004057 -0.003580
0.898588 -0.004996 -0.003919
0.933530 -0.005988 -0.004278
0.968560 -0.007035 -0.004655
1.003677 -0.008136 -0.005052
1.038876 -0.009293 -0.005468
-0.003151 0.139320 -0.003376
-0.002879 0.139282 -0.003376
-0.001717 0.139122 -0.003373
0.046796 0.138795 -0.003367
0.104317 0.138279 -0.003358
0.139084 0.138039 -0.003332
0.169082 0.138007 -0.003290
0.199494 0.137876 -0.003239
0.230321 0.137615 -0.003182
0.261541 0.137191 -0.003117
0.293127 0.136575 -0.003047
0.325052 0.135740 -0.002971
0.357281 0.134659 -0.002892
0.389777 0.133308 -0.002809
0.422519 0.131660 -0.002723
0.455488 0.129684 -0.002635
0.488668 0.127346 -0.002546
0.522045 0.124603 -0.002457
0.555606 0.121406 -0.002369
0.589336 0.117696 -0.002282
0.623215 0.113399 -0.002199
0.657241 0.108417 -0.002187
0.691405 0.102606 -0.002280
0.725699 0.095752 -0.002481
0.760113 0.087506 -0.002749
0.794641 0.077234 -0.003034
0.829276 0.063565 -0.003337
0.864013 0.041758 -0.003659
0.898849 -0.000417 -0.003999
0.933778 -0.001377 -0.004357
0.968798 -0.002392 -0.004735
1.003904 -0.003463 -0.005131
1.039093 -0.004589 -0.005547
-0.002159 0.168967 -0.003171
-0.001887 0.168942 -0.003170
-0.000727 0.168834 -0.003168
0.068622 0.168623 -0.003162
0.108031 0.168502 -0.003146
0.138651 0.168558 -0.003115
0.169136 0.168588 -0.003076
0.199827 0.168563 -0.003029
0.230815 0.168459 -0.002976
0.262125 0.168253 -0.002915
0.293758 0.167922 -0.002850
0.325702 0.167445 -0.002779
0.357929 0.166805 -0.002705
0.390413 0.165984 -0.002627
0.423136 0.164966 -0.002546
0.456083 0.163732 -0.002464
0.489239 0.162264 -0.002381
0.522593 0.160543 -0.002298
0.556130 0.158547 -0.002215
0.589834 0.156257 -0.002135
0.623693 0.153651 -0.002108
0.657700 0.150704 -0.002177
0.691845 0.147382 -0.002344
0.726119 0.143642 -0.002590
0.760514 0.139429 -0.002857
0.795022 0.134677 -0.003143
0.829640 0.129292 -0.003446
0.864361 0.123157 -0.003767
0.899181 0.116102 -0.004107
0.934096 0.107875 -0.004465
0.969102 0.098067 -0.004842
1.004196 0.085928 -0.005239
1.039373 0.069763 -0.005655
-0.001178 0.199456 -0.002941
-0.000942 0.199449 -0.002940
0.011821 0.199434 -0.002935
0.071836 0.199458 -0.002923
0.105829 0.199522 -0.002902
0.137587 0.199590 -0.002873
0.168761 0.199647 -0.002837
0.199868 0.199674 -0.002794
0.231114 0.199655 -0.002744
0.262586 0.199569 -0.002688
0.294319 0.199400 -0.002627
0.326321 0.199132 -0.002562
0.358575 0.198749 -0.002492
0.391068 0.198240 -0.002420
0.423789 0.197590 -0.002345
0.456726 0.196787 -0.002268
0.489868 0.195818 -0.002191
0.523203 0.194670 -0.002114
0.556721 0.193331 -0.002042
0.590407 0.191792 -0.002030
0.624249 0.190043 -0.002100
0.658236 0.188070 -0.002255
0.692362 0.185857 -0.002484
0.726615 0.183385 -0.002733
0.760988 0.180633 -0.003000
0.795477 0.177577 -0.003285
0.830075 0.174192 -0.003587
0.864778 0.170447 -0.003908
0.899581 0.166304 -0.004247
0.934480 0.161717 -0.004605
0.969471 0.156630 -0.004982
1.004550 0.150970 -0.005379
1.039714 0.144641 -0.005794
-0.001420 0.230879 -0.002678
-0.001221 0.230884 -0.002676
-0.000366 0.230906 -0.002670
0.064344 0.230948 -0.002658
0.102367 0.231007 -0.002639
0.135778 0.231076 -0.002613
0.167866 0.231143 -0.002579
0.199536 0.231197 -0.002540
0.231145 0.231223 -0.002494
0.262857 0.231207 -0.002442
0.294749 0.231135 -0.002386
0.326854 0.230993 -0.002325
0.359169 0.230771 -0.002261
0.391699 0.230458 -0.002193
0.424439 0.230041 -0.002124
0.457383 0.229511 -0.002054
0.490522 0.228858 -0.001983
0.523852 0.228073 -0.001943
0.557363 0.227148 -0.001966
0.591038 0.226076 -0.002058
0.624865 0.224848 -0.002223
0.658836 0.223454 -0.002437
0.692941 0.221884 -0.002668
0.727173 0.220127 -0.002917
0.761526 0.218173 -0.003182
0.795995 0.216012 -0.003466
0.830574 0.213630 -0.003767
0.865259 0.211014 -0.004087
0.900044 0.208148 -0.004426
0.934926 0.205015 -0.004783
0.969900 0.201596 -0.005159
1.004964 0.197865 -0.005555
1.040112 0.193798 -0.005970
-0.002028 0.262785 -0.002399
-0.001823 0.262789 -0.002398
-0.000945 0.262809 -0.002393
0.052501 0.262846 -0.002381
0.097463 0.262899 -0.002364
0.133109 0.262965 -0.002340
0.166372 0.263036 -0.002310
0.198763 0.263102 -0.002274
0.230846 0.263153 -0.002231
0.262881 0.263178 -0.002184
0.294997 0.263165 -0.002132
0.327249 0.263104 -0.002076
0.359666 0.262986 -0.002017
0.392263 0.262800 -0.001955
0.425047 0.262538 -0.001896
0.458022 0.262191 -0.001870
0.491182 0.261751 -0.001888
0.524524 0.261209 -0.001956
0.558038 0.260559 -0.002082
0.591708 0.259794 -0.002259
0.625524 0.258908 -0.002455
0.659479 0.257893 -0.002667
0.693566 0.256742 -0.002897
0.727781 0.255449 -0.003143
0.762116 0.254006 -0.003408
0.796566 0.252408 -0.003690
0.831127 0.250645 -0.003990
0.865794 0.248710 -0.004308
0.900562 0.246595 -0.004646
0.935426 0.244291 -0.005002
0.970384 0.241786 -0.005377
1.005432 0.239072 -0.005772
1.040565 0.236133 -0.006186
-0.002754 0.295053 -0.002117
-0.002544 0.295057 -0.002116
-0.001644 0.295074 -0.002111
0.028253 0.295106 -0.002101
0.090699 0.295155 -0.002085
0.129441 0.295216 -0.002063
0.164202 0.295286 -0.002036
0.197492 0.295357 -0.002003
0.230168 0.295420 -0.001964
0.262612 0.295468 -0.001921
0.295015 0.295491 -0.001875
0.327469 0.295481 -0.001841
0.360033 0.295430 -0.001824
0.392739 0.295329 -0.001831
0.425604 0.295171 -0.001868
0.458634 0.294948 -0.001941
0.491834 0.294653 -0.002056
0.525199 0.294278 -0.002202
0.558722 0.293818 -0.002364
0.592392 0.293266 -0.002542
0.626202 0.292618 -0.002736
0.660147 0.291868 -0.002946
0.694223 0.291010 -0.003173
0.728424 0.290039 -0.003418
0.762744 0.288951 -0.003680
0.797179 0.287739 -0.003960
0.831724 0.286398 -0.004259
0.866374 0.284923 -0.004576
0.901125 0.283308 -0.004911
0.935974 0.281548 -0.005266
0.970915 0.279636 -0.005639
1.005947 0.277564 -0.006032
1.041065 0.275328 -0.006445
-0.003597 0.327628 -0.001867
-0.003383 0.327632 -0.001866
-0.002462 0.327646 -0.001864
-0.000586 0.327675 -0.001859
0.081446 0.327719 -0.001853
0.124670 0.327776 -0.001845
0.161330 0.327843 -0.001838
0.195719 0.327914 -0.001834
0.229115 0.327983 -0.001835
0.262061 0.328044 -0.001845
0.294816 0.328090 -0.001867
0.327528 0.328113 -0.001906
0.360281 0.328106 -0.001967
0.393127 0.328063 -0.002053
0.426093 0.327977 -0.002155
0.459197 0.327839 -0.002270
0.492446 0.327645 -0.002399
0.525845 0.327388 -0.002543
0.559387 0.327063 -0.002703
0.593066 0.326665 -0.002878
0.626880 0.326190 -0.003069
0.660824 0.325632 -0.003277
0.694895 0.324987 -0.003502
0.729087 0.324251 -0.003744
0.763397 0.323419 -0.004004
0.797820 0.322486 -0.004282
0.832352 0.321450 -0.004578
0.866989 0.320305 -0.004893
0.901726 0.319047 -0.005226
0.936559 0.317673 -0.005579
0.971486 0.316177 -0.005950
1.006503 0.314555 -0.006342
1.041607 0.312802 -0.006753
-0.004535 0.360481 -0.002012
-0.004315 0.360484 -0.002012
-0.003375 0.360497 -0.002015
-0.001461 0.360523 -0.002021
0.068691 0.360563 -0.002031
0.118799 0.360615 -0.002047
0.157821 0.360678 -0.002069
0.193503 0.360747 -0.002097
0.227727 0.360818 -0.002133
0.261236 0.360886 -0.002178
0.294393 0.360945 -0.002232
0.327399 0.360989 -0.002296
0.360372 0.361011 -0.002371
0.393382 0.361007 -0.002458
0.426471 0.360969 -0.002558
0.459667 0.360892 -0.002671
0.492985 0.360770 -0.002798
0.526434 0.360599 -0.002940
0.560010 0.360373 -0.003097
0.593713 0.360088 -0.003270
0.627541 0.359741 -0.003458
0.661493 0.359326 -0.003664
0.695566 0.358840 -0.003886
0.729757 0.358279 -0.004125
0.764062 0.357639 -0.004382
0.798478 0.356916 -0.004658
0.833001 0.356107 -0.004951
0.867627 0.355209 -0.005263
0.902352 0.354217 -0.005594
0.937174 0.353129 -0.005944
0.972088 0.351941 -0.006313
1.007092 0.350649 -0.006702
1.042181 0.349251 -0.007111
-0.005575 0.393584 -0.002476
-0.005352 0.393586 -0.002477
-0.004394 0.393598 -0.002481
-0.002443 0.393621 -0.002487
0.048144 0.393658 -0.002498
0.111459 0.393706 -0.002515
0.153516 0.393764 -0.002536
0.190730 0.393830 -0.002565
0.225899 0.393900 -0.002601
0.260051 0.393971 -0.002645
0.293672 0.394037 -0.002698
0.327023 0.394093 -0.002761
0.360257 0.394135 -0.002835
0.393465 0.394157 -0.002921
0.426708 0.394153 -0.003019
0.460023 0.394119 -0.003130
0.493432 0.394051 -0.003255
0.526949 0.393942 -0.003395
0.560574 0.393790 -0.003549
0.594313 0.393591 -0.003720
0.628167 0.393340 -0.003906
0.662137 0.393034 -0.004108
0.696221 0.392669 -0.004327
0.730419 0.392241 -0.004564
0.764725 0.391748 -0.004818
0.799140 0.391185 -0.005091
0.833658 0.390551 -0.005381
0.868278 0.389841 -0.005690
0.902996 0.389054 -0.006018
0.937808 0.388185 -0.006366
0.972712 0.387232 -0.006732
1.007705 0.386191 -0.007118
1.042783 0.385060 -0.007524
-0.006741 0.426913 -0.003003
-0.006513 0.426916 -0.003004
-0.005538 0.426926 -0.003008
-0.003554 0.426947 -0.003014
-0.000369 0.426980 -0.003026
0.102027 0.427024 -0.003042
0.148213 0.427078 -0.003064
0.187286 0.427141 -0.003092
0.223565 0.427210 -0.003128
0.258465 0.427281 -0.003172
0.292624 0.427350 -0.003224
0.326375 0.427414 -0.003287
0.359914 0.427468 -0.003360
0.393359 0.427508 -0.003444
0.426786 0.427529 -0.003541
0.460245 0.427527 -0.003650
0.493768 0.427496 -0.003773
0.527370 0.427435 -0.003911
0.561061 0.427339 -0.004063
0.594851 0.427204 -0.004230
0.628743 0.427027 -0.004414
0.662742 0.426804 -0.004613
0.696847 0.426532 -0.004830
0.731059 0.426208 -0.005063
0.765374 0.425829 -0.005314
0.799794 0.425391 -0.005584
0.834314 0.424892 -0.005871
0.868932 0.424329 -0.006177
0.903647 0.423699 -0.006502
0.938453 0.422999 -0.006845
0.973351 0.422228 -0.007209
1.008336 0.421382 -0.007591
1.043406 0.420459 -0.007994
-0.008034 0.460453 -0.003592
-0.007803 0.460455 -0.003593
-0.006812 0.460464 -0.003597
-0.004796 0.460484 -0.003604
-0.001563 0.460514 -0.003615
0.089490 0.460554 -0.003631
0.141703 0.460605 -0.003653
0.183090 0.460664 -0.003681
0.220683 0.460730 -0.003717
0.256450 0.460800 -0.003760
0.291225 0.460871 -0.003813
0.325435 0.460940 -0.003874
0.359325 0.461002 -0.003946
0.393043 0.461054 -0.004030
0.426686 0.461092 -0.004125
0.460317 0.461112 -0.004233
0.493975 0.461110 -0.004354
0.527681 0.461084 -0.004489
0.561456 0.461030 -0.004639
0.595311 0.460944 -0.004804
0.629256 0.460823 -0.004984
0.663295 0.460664 -0.005181
0.697432 0.460463 -0.005394
0.731666 0.460219 -0.005625
0.766000 0.459927 -0.005873
0.800431 0.459586 -0.006138
0.834959 0.459193 -0.006422
0.869581 0.458745 -0.006724
0.904297 0.458240 -0.007045
0.939103 0.457674 -0.007386
0.973997 0.457047 -0.007745
1.008977 0.456356 -0.008124
1.044041 0.455599 -0.008524
-0.009464 0.494186 -0.004245
-0.009229 0.494188 -0.004246
-0.008223 0.494197 -0.004249
-0.006177 0.494214 -0.004256
-0.002898 0.494242 -0.004268
0.071456 0.494279 -0.004284
0.133721 0.494326 -0.004306
0.178057 0.494382 -0.004334
0.217213 0.494445 -0.004370
0.253979 0.494513 -0.004413
0.289457 0.494583 -0.004465
0.324189 0.494653 -0.004526
0.358477 0.494720 -0.004597
0.392508 0.494779 -0.004679
0.426399 0.494828 -0.004773
0.460228 0.494864 -0.004879
0.494041 0.494883 -0.004999
0.527873 0.494882 -0.005132
0.561748 0.494859 -0.005279
0.595685 0.494809 -0.005441
0.629695 0.494731 -0.005619
0.663787 0.494621 -0.005813
0.697965 0.494476 -0.006023
0.732233 0.494294 -0.006250
0.766591 0.494072 -0.006494
0.801042 0.493808 -0.006756
0.835584 0.493499 -0.007036
0.870217 0.493143 -0.007335
0.904938 0.492738 -0.007652
0.939748 0.492281 -0.007989
0.974643 0.491770 -0.008344
1.009622 0.491204 -0.008720
1.044683 0.490581 -0.009115
-0.011029 0.528089 -0.004962
-0.010791 0.528091 -0.004963
-0.009771 0.528099 -0.004966
-0.007697 0.528115 -0.004973
-0.004374 0.528141 -0.004985
0.036802 0.528175 -0.005001
0.123888 0.528219 -0.005023
0.172093 0.528271 -0.005051
0.213119 0.528331 -0.005087
0.251039 0.528396 -0.005129
0.287313 0.528465 -0.005181
0.322630 0.528535 -0.005241
0.357366 0.528603 -0.005312
0.391748 0.528667 -0.005393
0.425918 0.528724 -0.005486
0.459968 0.528770 -0.005590
0.493959 0.528804 -0.005708
0.527935 0.528823 -0.005839
0.561929 0.528822 -0.005984
0.595962 0.528801 -0.006144
0.630051 0.528756 -0.006318
0.664207 0.528684 -0.006509
0.698438 0.528584 -0.006716
0.732747 0.528451 -0.006940
0.767140 0.528285 -0.007181
0.801617 0.528083 -0.007439
0.836181 0.527842 -0.007715
0.870829 0.527560 -0.008010
0.905563 0.527236 -0.008323
0.940380 0.526867 -0.008656
0.975280 0.526451 -0.009007
1.010263 0.525987 -0.009379
1.045325 0.525472 -0.009770
-0.012731 0.562151 -0.005744
-0.012490 0.562152 -0.005745
-0.011457 0.562160 -0.005748
-0.009356 0.562174 -0.005756
-0.005991 0.562198 -0.005767
-0.001198 0.562230 -0.005783
0.111512 0.562270 -0.005805
0.165054 0.562320 -0.005834
0.208345 0.562376 -0.005869
0.247599 0.562438 -0.005912
0.284774 0.562505 -0.005963
0.320745 0.562574 -0.006023
0.355979 0.562643 -0.006092
0.390750 0.562709 -0.006173
0.425230 0.562771 -0.006264
0.459526 0.562825 -0.006367
0.493717 0.562870 -0.006483
0.527858 0.562902 -0.006612
0.561987 0.562920 -0.006755
0.596132 0.562921 -0.006912
0.630314 0.562901 -0.007084
0.664546 0.562860 -0.007272
0.698840 0.562794 -0.007476
0.733202 0.562701 -0.007696
0.767637 0.562580 -0.007934
0.802150 0.562427 -0.008188
0.836740 0.562241 -0.008461
0.871411 0.562020 -0.008752
0.906162 0.561762 -0.009061
0.940994 0.561465 -0.009389
0.975904 0.561128 -0.009737
1.010893 0.560747 -0.010103
1.045959 0.560323 -0.010490
-0.014573 0.596360 -0.006593
-0.014329 0.596361 -0.006594
-0.013283 0.596368 -0.006597
-0.011156 0.596382 -0.006605
-0.007752 0.596403 -0.006616
-0.002903 0.596433 -0.006633
0.095193 0.596471 -0.006655
0.156730 0.596517 -0.006683
0.202820 0.596570 -0.006718
0.243626 0.596630 -0.006760
0.281819 0.596694 -0.006811
0.318521 0.596761 -0.006871
0.354307 0.596829 -0.006940
0.389507 0.596897 -0.007019
0.424324 0.596962 -0.007109
0.458893 0.597021 -0.007211
0.493307 0.597074 -0.007326
0.527632 0.597117 -0.007453
0.561914 0.597148 -0.007593
0.596187 0.597166 -0.007748
0.630475 0.597167 -0.007918
0.664796 0.597149 -0.008103
0.699164 0.597111 -0.008303
0.733588 0.597050 -0.008520
0.768075 0.596965 -0.008754
0.802630 0.596853 -0.009005
0.837256 0.596712 -0.009274
0.871956 0.596540 -0.009561
0.906730 0.596337 -0.009866
0.941580 0.596099 -0.010190
0.976505 0.595825 -0.010533
1.011506 0.595514 -0.010895
1.046580 0.595165 -0.011278
-0.016556 0.630708 -0.007510
-0.016309 0.630710 -0.007511
-0.015251 0.630716 -0.007514
-0.013100 0.630729 -0.007521
-0.009657 0.630748 -0.007533
-0.004754 0.630776 -0.007549
0.071071 0.630812 -0.007572
0.146812 0.630855 -0.007600
0.196450 0.630905 -0.007635
0.239078 0.630961 -0.007677
0.278427 0.631023 -0.007727
0.315943 0.631088 -0.007787
0.352335 0.631155 -0.007855
0.388002 0.631223 -0.007934
0.423189 0.631290 -0.008023
0.458059 0.631353 -0.008123
0.492721 0.631411 -0.008236
0.527251 0.631462 -0.008361
0.561703 0.631503 -0.008500
0.596119 0.631534 -0.008653
0.630527 0.631550 -0.008820
0.664950 0.631552 -0.009002
0.699402 0.631536 -0.009200
0.733898 0.631501 -0.009413
0.768445 0.631444 -0.009644
0.803052 0.631365 -0.009891
0.837720 0.631261 -0.010156
0.872455 0.631130 -0.010439
0.907260 0.630972 -0.010740
0.942134 0.630783 -0.011060
0.977079 0.630563 -0.011398
1.012095 0.630310 -0.011756
1.047182 0.630023 -0.012134
-0.018681 0.665188 -0.008496
-0.018431 0.665189 -0.008496
-0.017362 0.665195 -0.008500
-0.015187 0.665207 -0.008507
-0.011707 0.665225 -0.008519
-0.006754 0.665251 -0.008535
-0.000179 0.665284 -0.008557
0.134810 0.665325 -0.008585
0.189113 0.665372 -0.008620
0.233904 0.665426 -0.008662
0.274571 0.665485 -0.008713
0.312991 0.665548 -0.008771
0.350047 0.665613 -0.008839
0.386225 0.665681 -0.008917
0.421819 0.665748 -0.009005
0.457018 0.665814 -0.009105
0.491950 0.665876 -0.009216
0.526705 0.665932 -0.009339
0.561346 0.665981 -0.009476
0.595920 0.666021 -0.009626
0.630462 0.666050 -0.009791
0.664998 0.666066 -0.009971
0.699548 0.666068 -0.010165
0.734125 0.666054 -0.010376
0.768742 0.666021 -0.010603
0.803407 0.665969 -0.010847
0.838127 0.665895 -0.011108
0.872905 0.665798 -0.011387
0.907744 0.665677 -0.011684
0.942648 0.665529 -0.012000
0.977619 0.665354 -0.012334
1.012656 0.665149 -0.012688
1.047761 0.664915 -0.013062
-0.020951 0.699792 -0.009551
-0.020698 0.699793 -0.009552
-0.019617 0.699798 -0.009555
-0.017421 0.699809 -0.009562
-0.013905 0.699827 -0.009574
-0.008901 0.699851 -0.009590
-0.002262 0.699882 -0.009612
0.119852 0.699920 -0.009641
0.180645 0.699964 -0.009675
0.228041 0.700016 -0.009717
0.270212 0.700072 -0.009767
0.309638 0.700133 -0.009826
0.347427 0.700197 -0.009893
0.384167 0.700263 -0.009970
0.420204 0.700331 -0.010057
0.455762 0.700397 -0.010155
0.490989 0.700461 -0.010265
0.525989 0.700522 -0.010387
0.560836 0.700576 -0.010522
0.595584 0.700624 -0.010670
0.630274 0.700663 -0.010833
0.664936 0.700691 -0.011010
0.699593 0.700707 -0.011202
0.734263 0.700709 -0.011409
0.768959 0.700696 -0.011633
0.803693 0.700666 -0.011874
0.838469 0.700617 -0.012131
0.873297 0.700548 -0.012407
0.908179 0.700457 -0.012700
0.943120 0.700344 -0.013012
0.978120 0.700206 -0.013342
1.013183 0.700043 -0.013692
1.048309 0.699853 -0.014062
-0.023365 0.734513 -0.010677
-0.023110 0.734514 -0.010677
-0.022018 0.734520 -0.010681
-0.019800 0.734530 -0.010688
-0.016250 0.734546 -0.010700
-0.011198 0.734568 -0.010716
-0.004498 0.734597 -0.010738
0.100068 0.734633 -0.010766
0.170790 0.734676 -0.010801
0.221392 0.734724 -0.010843
0.265302 0.734778 -0.010892
0.305861 0.734837 -0.010950
0.344461 0.734899 -0.011017
0.381814 0.734965 -0.011093
0.418335 0.735031 -0.011180
0.454283 0.735098 -0.011277
0.489830 0.735163 -0.011386
0.525096 0.735226 -0.011506
0.560168 0.735285 -0.011639
0.595106 0.735338 -0.011786
0.629958 0.735385 -0.011946
0.664759 0.735422 -0.012121
0.699535 0.735449 -0.012310
0.734307 0.735465 -0.012515
0.769091 0.735468 -0.012736
0.803900 0.735455 -0.012974
0.838743 0.735427 -0.013228
0.873627 0.735381 -0.013500
0.908558 0.735317 -0.013790
0.943540 0.735232 -0.014098
0.978576 0.735126 -0.014424
1.013670 0.734997 -0.014770
1.048822 0.734844 -0.015135
-0.025927 0.769347 -0.011874
-0.025669 0.769348 -0.011875
-0.024567 0.769352 -0.011878
-0.022329 0.769362 -0.011885
-0.018746 0.769377 -0.011897
-0.013651 0.769399 -0.011914
-0.006892 0.769426 -0.011935
0.069533 0.769460 -0.011964
0.159168 0.769500 -0.011998
0.213846 0.769546 -0.012040
0.259793 0.769598 -0.012089
0.301634 0.769654 -0.012147
0.341132 0.769715 -0.012213
0.379158 0.769779 -0.012289
0.416204 0.769844 -0.012375
0.452574 0.769911 -0.012471
0.488467 0.769977 -0.012578
0.524022 0.770041 -0.012698
0.559336 0.770103 -0.012830
0.594480 0.770160 -0.012974
0.629508 0.770212 -0.013133
0.664460 0.770257 -0.013305
0.699366 0.770293 -0.013493
0.734251 0.770320 -0.013695
0.769133 0.770335 -0.013913
0.804026 0.770338 -0.014148
0.838942 0.770327 -0.014399
0.873890 0.770300 -0.014668
0.908877 0.770257 -0.014954
0.943906 0.770197 -0.015258
0.978984 0.770118 -0.015581
1.014114 0.770018 -0.015923
1.049297 0.769897 -0.016284
-0.028644 0.804287 -0.013145
-0.028384 0.804288 -0.013146
-0.027273 0.804293 -0.013149
-0.025015 0.804302 -0.013156
-0.021402 0.804316 -0.013168
-0.016263 0.804336 -0.013185
-0.009448 0.804362 -0.013207
-0.000822 0.804394 -0.013235
0.145187 0.804432 -0.013269
0.205262 0.804476 -0.013311
0.253630 0.804525 -0.013360
0.296925 0.804580 -0.013417
0.337421 0.804638 -0.013483
0.376184 0.804700 -0.013559
0.413801 0.804765 -0.013644
