data/manual_verify/v02_three_shot_luts/scene_0003.cube
# Generated by Local Color Service V0.1.3 using OpenColorIO Baker
# Recipe Hash: b85ba405fe9a87a7be7453cd5d8d30fa3c2ecd99428c75e72f1f2c2cdebd5538
# OCIO Config: studio-config-v4.0.0_aces-v2.0_ocio-v2.5
LUT_3D_SIZE 9
0.083837 0.083837 0.083837
0.150260 0.082359 0.082359
0.328185 0.034025 0.071945
0.523411 -0.005407 0.035851
0.718404 -0.011771 -0.002417
0.916744 -0.020890 -0.006340
1.117666 -0.033233 -0.010384
1.320937 -0.049104 -0.015429
1.526192 -0.068756 -0.021703
0.075601 0.149741 0.077208
0.149025 0.149791 0.075180
0.327664 0.143226 0.060904
0.517440 0.123445 -0.000397
0.713151 0.059788 -0.003067
0.912335 -0.007298 -0.006783
1.113989 -0.019084 -0.010702
1.317839 -0.034468 -0.015749
1.523543 -0.053687 -0.022026
-0.006382 0.323151 -0.001500
0.120066 0.322627 -0.001633
0.319594 0.320826 -0.002252
0.508523 0.316758 -0.003675
0.702717 0.308307 -0.005834
0.901412 0.293204 -0.008577
1.103472 0.268515 -0.012397
1.308031 0.228562 -0.017385
1.514536 0.154650 -0.023620
-0.018089 0.504457 -0.007676
-0.004443 0.504112 -0.007743
0.301641 0.502872 -0.008083
0.498984 0.500683 -0.008933
0.693551 0.497008 -0.010529
0.891194 0.490961 -0.013060
1.092280 0.481596 -0.016666
1.296294 0.467936 -0.021456
1.502666 0.448860 -0.027516
-0.037727 0.690718 -0.016152
-0.023223 0.690472 -0.016221
0.262053 0.689529 -0.016547
0.483210 0.687899 -0.017322
0.683260 0.685508 -0.018764
0.881865 0.682017 -0.021073
1.082452 0.676935 -0.024415
1.285617 0.669743 -0.028923
1.491219 0.659920 -0.034706
-0.066267 0.880552 -0.028567
-0.051070 0.880364 -0.028637
0.172708 0.879617 -0.028957
0.456388 0.878287 -0.029686
0.668419 0.876406 -0.031017
0.871085 0.873881 -0.033142
1.072802 0.870480 -0.036240
1.275866 0.865896 -0.040459
1.480889 0.859805 -0.045927
-0.104786 1.073147 -0.045362
-0.089018 1.072997 -0.045434
-0.021008 1.072389 -0.045752
0.412903 1.071269 -0.046456
0.646316 1.069676 -0.047710
0.856712 1.067612 -0.049695
1.061649 1.064988 -0.052584
1.265876 1.061636 -0.056537
1.471048 1.057351 -0.061691
-0.154190 1.267974 -0.066922
-0.137934 1.267851 -0.066994
-0.068004 1.267343 -0.067312
0.341500 1.266383 -0.068000
0.614329 1.264998 -0.069202
0.837018 1.263211 -0.071079
1.047537 1.261007 -0.073799
1.254426 1.258306 -0.077519
1.460739 1.254983 -0.082385
-0.215277 1.464663 -0.093585
-0.198594 1.464558 -0.093658
-0.126950 1.464124 -0.093976
0.195690 1.463294 -0.094656
0.568981 1.462071 -0.095823
0.810423 1.460485 -0.097623
1.029274 1.458547 -0.100212
1.240474 1.456230 -0.103744
1.449050 1.453465 -0.108364
0.082926 0.083141 0.152081
0.149852 0.081643 0.151546
0.328551 0.030517 0.148169
0.522895 -0.005410 0.142201
0.717346 -0.011725 0.130131
0.915457 -0.020823 0.108833
1.116508 -0.033154 0.061957
1.319923 -0.049016 -0.003486
1.525302 -0.068661 -0.009467
0.074225 0.149529 0.150201
0.149528 0.149528 0.149528
0.327846 0.143000 0.145756
0.516925 0.123220 0.139271
0.712153 0.059569 0.127419
0.911153 -0.007284 0.105664
1.112914 -0.019046 0.054796
1.316879 -0.034412 -0.003806
1.522688 -0.053617 -0.009788
-0.006190 0.322563 0.135877
0.121458 0.322051 0.135243
0.319614 0.320269 0.132519
0.508041 0.316231 0.126106
0.701966 0.307856 0.113132
0.900590 0.292859 0.087079
1.102651 0.268259 -0.000688
1.307247 0.228378 -0.005391
1.513804 0.154519 -0.011342
-0.017905 0.503872 0.098143
-0.004279 0.503535 0.097329
0.301782 0.502328 0.093414
0.498798 0.500188 0.083239
0.693179 0.496572 0.057728
0.890710 0.490589 -0.001308
1.091737 0.481286 -0.004715
1.295730 0.467683 -0.009279
1.502107 0.448653 -0.015105
-0.037511 0.690273 -0.004088
-0.023020 0.690031 -0.004161
0.262439 0.689102 -0.004493
0.483217 0.687495 -0.005259
0.683104 0.685137 -0.006655
0.881603 0.681680 -0.008877
1.082118 0.676637 -0.012095
1.285239 0.669482 -0.016451
1.490818 0.659695 -0.022061
-0.066034 0.880204 -0.015966
-0.050846 0.880018 -0.016038
0.173608 0.879278 -0.016363
0.456511 0.877960 -0.017093
0.668385 0.876096 -0.018406
0.870956 0.873591 -0.020487
1.072608 0.870212 -0.023512
1.275622 0.865654 -0.027633
1.480613 0.859587 -0.032979
-0.104542 1.072866 -0.032288
-0.088781 1.072717 -0.032361
-0.020798 1.072113 -0.032683
0.413121 1.070999 -0.033390
0.646356 1.069417 -0.034638
0.856664 1.067366 -0.036601
1.061542 1.064756 -0.039448
1.265723 1.061419 -0.043338
1.470863 1.057150 -0.048409
-0.153939 1.267741 -0.053424
-0.137689 1.267619 -0.053497
-0.067778 1.267112 -0.053818
0.341843 1.266158 -0.054510
0.614424 1.264778 -0.055711
0.837023 1.263000 -0.057578
1.047490 1.260804 -0.060275
1.254335 1.258113 -0.063957
1.460616 1.254802 -0.068771
-0.215019 1.464466 -0.079716
-0.198344 1.464363 -0.079789
-0.126716 1.463930 -0.080110
0.196526 1.463102 -0.080793
0.569122 1.461882 -0.081962
0.810465 1.460302 -0.083760
1.029264 1.458369 -0.086337
1.240429 1.456059 -0.089847
1.448974 1.453304 -0.094434
0.026536 0.077216 0.342466
0.136788 0.075364 0.340907
0.327637 -0.000268 0.335960
0.521436 -0.005670 0.329847
0.715506 -0.011812 0.322137
0.913368 -0.020829 0.314440
1.114273 -0.033085 0.305646
1.317639 -0.048882 0.294823
1.523042 -0.068471 0.281046
-0.000285 0.147877 0.336593
0.143426 0.147550 0.334932
0.326740 0.141315 0.330284
0.515749 0.121453 0.325096
0.710559 0.056015 0.319341
0.909231 -0.007365 0.312596
1.110800 -0.019051 0.304269
1.314687 -0.034347 0.293672
1.520496 -0.053489 0.279986
-0.006571 0.321335 0.321981
0.119096 0.320865 0.321263
0.319148 0.319149 0.319149
0.507357 0.315167 0.316197
0.700848 0.306875 0.312203
0.899100 0.291986 0.306687
1.100908 0.267502 0.299131
1.305361 0.227725 0.288947
1.511862 0.153880 0.275396
-0.017749 0.502613 0.309365
-0.004120 0.502294 0.309012
0.301989 0.501139 0.307685
0.498533 0.499062 0.305360
0.692498 0.495523 0.301835
0.889680 0.489629 0.296673
1.090442 0.480426 0.289330
1.294254 0.466927 0.279173
1.500523 0.448001 0.265391
-0.037030 0.689074 0.291987
-0.022556 0.688841 0.291730
0.263433 0.687944 0.290661
0.483325 0.686386 0.288535
0.682786 0.684087 0.285063
0.880964 0.680701 0.279808
1.081229 0.675735 0.272198
1.284160 0.668664 0.261521
1.489605 0.658961 0.246807
-0.065349 0.879119 0.264420
-0.050180 0.878938 0.264177
0.176342 0.878218 0.263125
0.456953 0.876932 0.260922
0.668349 0.875111 0.257185
0.870619 0.872657 0.251402
1.072040 0.869336 0.242894
1.274873 0.864841 0.230745
1.479726 0.858839 0.213569
-0.103728 1.071907 0.218142
-0.087983 1.071761 0.217851
-0.020078 1.071167 0.216578
0.413905 1.070076 0.213860
0.646541 1.068523 0.209154
0.856550 1.066507 0.201711
1.061213 1.063939 0.190438
1.265228 1.060649 0.173556
1.470232 1.056428 0.147465
-0.153035 1.266897 0.118307
-0.136800 1.266777 0.117645
-0.066951 1.266278 0.114710
0.343126 1.265338 0.108145
0.614796 1.263978 0.095564
0.837075 1.262225 0.070114
1.047337 1.260058 -0.000958
1.254030 1.257401 -0.004546
1.460187 1.254127 -0.009204
-0.214054 1.463724 -0.019145
-0.197391 1.463621 -0.019223
-0.125814 1.463194 -0.019562
0.199712 1.462374 -0.020274
0.569679 1.461169 -0.021471
0.810652 1.459606 -0.023283
1.029244 1.457695 -0.025844
1.240262 1.455410 -0.029298
1.448693 1.452680 -0.033783
-0.006606 0.059627 0.549967
0.103526 0.052786 0.547087
0.323695 -0.001477 0.539414
0.519181 -0.006374 0.529431
0.713835 -0.012322 0.519128
0.911714 -0.021207 0.510523
1.112457 -0.033340 0.502682
1.315629 -0.049021 0.494917
1.520863 -0.068502 0.486693
-0.006105 0.144166 0.538716
0.120793 0.143263 0.536067
0.322662 0.137084 0.529426
0.514049 0.116583 0.522021
0.709204 0.041510 0.514773
0.907756 -0.007771 0.507791
1.109097 -0.019349 0.500846
1.312756 -0.034536 0.493595
1.518378 -0.053571 0.485676
-0.008887 0.319879 0.516590
0.100416 0.319460 0.515598
0.316330 0.317795 0.512661
0.506270 0.313812 0.508967
0.699938 0.305525 0.504874
0.897979 0.290660 0.500294
1.099494 0.266202 0.495061
1.303671 0.226395 0.488988
1.509946 0.152138 0.481867
-0.018826 0.501335 0.502307
-0.005101 0.501039 0.501855
0.300398 0.499935 0.500267
0.497897 0.497897 0.497897
0.691893 0.494386 0.494995
0.888849 0.488528 0.491499
1.089320 0.479373 0.487220
1.292854 0.465935 0.481946
1.498883 0.447078 0.475457
-0.037235 0.687758 0.489694
-0.022733 0.687535 0.489435
0.263146 0.686671 0.488431
0.483167 0.685155 0.486702
0.682469 0.682896 0.484342
0.880395 0.679552 0.481303
1.080380 0.674635 0.477425
1.283046 0.667620 0.472500
1.488258 0.657982 0.466303
-0.064931 0.877782 0.475297
-0.049764 0.877607 0.475116
0.178207 0.876909 0.474374
0.457307 0.875658 0.472976
0.668329 0.873875 0.470899
0.870300 0.871463 0.468071
1.071446 0.868190 0.464345
1.274031 0.863746 0.459523
1.478662 0.857802 0.453378
-0.102861 1.070596 0.456698
-0.087129 1.070454 0.456550
-0.019278 1.069876 0.455924
0.414844 1.068810 0.454682
0.646816 1.067289 0.452739
0.856467 1.065311 0.449987
1.060853 1.062784 0.446271
1.264630 1.059540 0.441396
1.469426 1.055370 0.435128
-0.151838 1.265647 0.431643
-0.135616 1.265528 0.431507
-0.065833 1.265040 0.430918
0.344929 1.264119 0.429721
0.615368 1.262784 0.427795
0.837210 1.261062 0.424999
1.047182 1.258931 0.421162
1.253643 1.256312 0.416072
1.459604 1.253080 0.409479
-0.212608 1.462549 0.397266
-0.195958 1.462448 0.397124
-0.124446 1.462028 0.396520
0.204509 1.461223 0.395276
0.570579 1.460038 0.393240
0.810988 1.458498 0.390247
1.029269 1.456617 0.386093
1.240055 1.454363 0.380536
1.448301 1.451669 0.373284
-0.016387 -0.000872 0.764286
-0.002550 -0.001327 0.760984
0.313570 -0.003660 0.751419
0.514450 -0.007691 0.737799
0.711240 -0.013448 0.724822
0.909834 -0.022152 0.713998
1.110765 -0.034119 0.704686
1.313910 -0.049644 0.696297
1.519029 -0.068974 0.688362
-0.013728 0.136128 0.748329
-0.000371 0.135079 0.745607
0.312554 0.128349 0.737805
0.510180 0.105987 0.728352
0.707049 -0.000579 0.718984
0.906116 -0.008697 0.710252
1.107549 -0.020135 0.702166
1.311129 -0.035180 0.694521
1.516608 -0.054076 0.687052
-0.014275 0.317713 0.720296
-0.000939 0.317337 0.719127
0.308319 0.315711 0.715448
0.503359 0.311699 0.710644
0.698411 0.303376 0.705460
0.896789 0.288474 0.700058
1.098275 0.263933 0.694448
1.302295 0.223868 0.688584
1.508374 0.148331 0.682382
-0.022318 0.499916 0.701792
-0.008400 0.499644 0.701224
0.294328 0.498596 0.699212
0.495713 0.496590 0.696258
0.690763 0.493087 0.692859
0.887964 0.487236 0.689145
1.088373 0.478096 0.685070
1.291725 0.464683 0.680538
1.497539 0.445858 0.675448
-0.039237 0.686444 0.687723
-0.024647 0.686233 0.687406
0.258744 0.685407 0.686195
0.481720 0.683931 0.684203
0.681699 0.681699 0.681699
0.879751 0.678376 0.678804
1.079646 0.673481 0.675493
1.282129 0.666493 0.671675
1.487127 0.656889 0.667239
-0.065788 0.876446 0.674927
-0.050585 0.876278 0.674725
0.174925 0.875604 0.673915
0.456618 0.874385 0.672470
0.667933 0.872634 0.670495
0.869896 0.870251 0.668064
1.070911 0.867005 0.665163
1.273306 0.862592 0.661719
1.477729 0.856683 0.657626
-0.102831 1.069227 0.661378
-0.087088 1.069090 0.661233
-0.019202 1.068527 0.660633
0.414971 1.067487 0.659502
0.646815 1.065996 0.657855
0.856312 1.064048 0.655713
1.060515 1.061552 0.653055
1.264093 1.058339 0.649815
1.468685 1.054205 0.645898
-0.151113 1.264267 0.645604
-0.134893 1.264152 0.645488
-0.065123 1.263674 0.645001
0.346138 1.262773 0.644050
0.615784 1.261463 0.642603
0.837310 1.259769 0.640642
1.047042 1.257669 0.638128
1.253289 1.255081 0.634999
1.459044 1.251884 0.631158
-0.211331 1.461185 0.626367
-0.194688 1.461086 0.626266
-0.123214 1.460674 0.625839
0.208835 1.459884 0.624987
0.571454 1.458719 0.623654
0.811345 1.457204 0.621795
1.029323 1.455350 0.619356
1.239875 1.453125 0.616265
1.447913 1.450463 0.612429
-0.028152 -0.004220 0.981962
-0.013404 -0.004691 0.978715
0.293798 -0.006710 0.967707
0.506095 -0.009820 0.951831
0.706851 -0.015350 0.936902
0.907058 -0.023828 0.923946
1.108683 -0.035584 0.912750
1.312106 -0.050910 0.902891
1.517294 -0.070053 0.893967
-0.025188 0.121498 0.962780
-0.011057 0.120182 0.960206
0.293343 0.112171 0.951975
0.502812 0.084415 0.941111
0.703201 -0.002364 0.929893
0.903646 -0.010312 0.919289
1.105648 -0.021573 0.909554
1.309439 -0.036442 0.900619
1.514948 -0.055163 0.892295
-0.023533 0.314409 0.930571
-0.009690 0.314059 0.929326
0.292139 0.312445 0.925150
0.497306 0.308373 0.919353
0.695405 0.299969 0.912960
0.894908 0.284955 0.906359
1.096797 0.260187 0.899703
1.300910 0.219517 0.893051
1.506939 0.141221 0.886397
-0.029185 0.498129 0.907721
-0.014994 0.497882 0.907062
0.280853 0.496891 0.904679
0.490736 0.494912 0.901093
0.688331 0.491407 0.896961
0.886489 0.485546 0.892558
1.087225 0.476401 0.887939
1.290622 0.462989 0.883088
1.496348 0.444165 0.877966
-0.044029 0.685024 0.890728
-0.029292 0.684827 0.890349
0.246986 0.684044 0.888897
0.477801 0.682609 0.886511
0.679780 0.680401 0.883568
0.878587 0.677088 0.880300
1.078735 0.672200 0.876769
1.281235 0.665222 0.872954
1.486135 0.655635 0.868799
-0.068891 0.875103 0.876693
-0.053612 0.874942 0.876456
0.161053 0.874295 0.875504
0.453725 0.873112 0.873833
0.666537 0.871392 0.871621
0.869031 0.869031 0.869031
1.070208 0.865802 0.866130
1.272587 0.861405 0.862907
1.476902 0.855514 0.859316
-0.104564 1.067874 0.863706
-0.088782 1.067741 0.863542
-0.020749 1.067196 0.862872
0.413081 1.066182 0.861634
0.645953 1.064721 0.859898
0.855755 1.062798 0.857757
1.060022 1.060324 0.855260
1.263541 1.057134 0.852405
1.468014 1.053020 0.849153
-0.151723 1.262886 0.850428
-0.135486 1.262773 0.850307
-0.065653 1.262309 0.849799
0.345338 1.261426 0.848829
0.615471 1.260142 0.847407
0.837073 1.258473 0.845574
1.046764 1.256396 0.843354
1.252907 1.253832 0.840743
1.458527 1.250659 0.837707
-0.211016 1.459782 0.835850
-0.194371 1.459685 0.835753
-0.122879 1.459282 0.835343
0.210113 1.458508 0.834540
0.571740 1.457363 0.833324
0.811440 1.455872 0.831702
1.029267 1.454041 0.829676
1.239666 1.451841 0.827233
1.447547 1.449203 0.824340
-0.044124 -0.008619 1.200641
-0.028733 -0.008917 1.197348
0.258747 -0.010047 1.185592
0.493008 -0.012873 1.169640
0.699972 -0.018157 1.153565
0.902847 -0.026372 1.138916
1.105774 -0.037876 1.125948
1.309851 -0.052963 1.114470
1.515358 -0.071879 1.104182
-0.041062 0.094479 1.180484
-0.026232 0.092471 1.178117
0.260359 0.080379 1.169955
0.490744 -0.000157 1.158334
0.696920 -0.005011 1.145752
0.899793 -0.012761 1.133522
1.102958 -0.023811 1.122151
1.307322 -0.038466 1.111726
1.513104 -0.056977 1.102144
-0.037252 0.309563 1.145691
-0.022875 0.309218 1.144433
0.263538 0.307577 1.139987
0.486872 0.303408 1.133429
0.690160 0.294866 1.125945
0.891782 0.279634 1.118128
1.094625 0.254423 1.110270
1.299168 0.212627 1.102522
1.505370 0.128929 1.094944
-0.040188 0.495778 1.118925
-0.025666 0.495550 1.118208
0.255933 0.494606 1.115553
0.481758 0.492649 1.111418
0.683861 0.489133 1.106546
0.883897 0.483249 1.101335
1.085473 0.474082 1.095934
1.289226 0.460648 1.090389
1.495065 0.441792 1.084712
-0.052459 0.683371 1.098702
-0.037529 0.683188 1.098270
0.223243 0.682448 1.096601
0.470221 0.681056 1.093825
0.676014 0.678870 1.090376
0.876413 0.675562 1.086572
1.077282 0.670673 1.082546
1.280086 0.663695 1.078328
1.485072 0.654112 1.073904
-0.075118 0.873677 1.082465
-0.059726 0.873525 1.082190
0.125173 0.872907 1.081087
0.447425 0.871762 1.079148
0.663472 0.870074 1.076597
0.867253 0.867732 1.073658
1.069016 0.864513 1.070458
1.271637 0.860124 1.067033
1.476014 0.854241 1.063373
-0.108926 1.066508 1.068406
-0.093077 1.066380 1.068219
-0.024780 1.065855 1.067450
0.407882 1.064871 1.066039
0.643583 1.063439 1.064089
0.854382 1.061540 1.061737
1.059085 1.059085 1.059085
1.262776 1.055909 1.056173
1.467278 1.051808 1.053000
-0.154512 1.261516 1.055245
-0.138239 1.261408 1.055109
-0.068248 1.260955 1.054542
0.340984 1.260096 1.053472
0.613793 1.258837 1.051928
0.836112 1.257192 1.049992
1.046090 1.255138 1.047729
1.252328 1.252593 1.045175
1.457940 1.249436 1.042332
-0.212476 1.458391 1.042031
-0.195809 1.458296 1.041926
-0.124236 1.457904 1.041487
0.205541 1.457145 1.040637
0.570766 1.456021 1.039374
0.810897 1.454552 1.037735
1.028861 1.452744 1.035757
1.239280 1.450562 1.033464
1.447111 1.447946 1.030857
-0.065065 -0.013011 1.418750
-0.049189 -0.013214 1.415833
0.196832 -0.014259 1.405392
0.473964 -0.016933 1.390094
0.689995 -0.021972 1.373550
0.896759 -0.029903 1.357717
1.101673 -0.041122 1.343271
1.306838 -0.055929 1.330277
1.512955 -0.074578 1.318573
-0.061696 -0.000389 1.400525
-0.046257 -0.000572 1.398374
0.202070 -0.001513 1.390563
0.472697 -0.003949 1.378718
0.687558 -0.008635 1.365273
0.894093 -0.016167 1.351778
1.099102 -0.026975 1.338975
1.304470 -0.041382 1.327112
1.510808 -0.059648 1.316193
-0.055882 0.302748 1.364464
-0.040974 0.302392 1.363230
0.213178 0.300683 1.358683
0.470749 0.296367 1.351608
0.681989 0.287604 1.343234
0.886924 0.271998 1.334320
1.091379 0.246031 1.325291
1.296759 0.202290 1.316386
1.503399 0.107663 1.307731
-0.055925 0.492679 1.334372
-0.041036 0.492466 1.333626
0.211230 0.491556 1.330793
0.467498 0.489609 1.326226
0.676671 0.486071 1.320693
0.879707 0.480150 1.314689
1.082743 0.470942 1.308446
1.287234 0.457460 1.302078
1.493439 0.438531 1.295639
-0.065243 0.681369 1.311000
-0.050080 0.681198 1.310530
0.177110 0.680499 1.308689
0.457719 0.679149 1.305571
0.669731 0.676982 1.301636
0.872763 0.673675 1.297263
1.074935 0.668777 1.292644
1.278400 0.661792 1.287860
1.483708 0.652204 1.282927
-0.085234 0.872084 1.292250
-0.069694 0.871942 1.291941
-0.002565 0.871355 1.290701
0.436434 0.870250 1.288502
0.658079 0.868593 1.285594
0.864119 0.866269 1.282246
1.067000 0.863057 1.278627
1.270198 0.858670 1.274818
1.474851 0.852791 1.270837
-0.116704 1.065073 1.276439
-0.100761 1.064951 1.276227
-0.032088 1.064447 1.275356
0.397986 1.063495 1.273757
0.639057 1.062093 1.271549
0.851763 1.060221 1.268907
1.057394 1.057781 1.265967
1.261562 1.054615 1.262805
1.466290 1.050524 1.259447
-0.160265 1.260130 1.262336
-0.143928 1.260025 1.262182
-0.073699 1.259588 1.261544
0.331359 1.258753 1.260342
0.610089 1.257521 1.258622
0.834010 1.255901 1.256488
1.044727 1.253868 1.254038
1.251337 1.251337 1.251337
1.457120 1.248194 1.248415
-0.216474 1.457006 1.249021
-0.199771 1.456915 1.248905
-0.128044 1.456532 1.248417
0.191371 1.455792 1.247482
0.567843 1.454691 1.246105
0.809313 1.453245 1.244342
1.027833 1.451456 1.242258
1.238516 1.449294 1.239902
1.446460 1.446694 1.237299
-0.091051 -0.018299 1.638582
-0.074715 -0.018504 1.636116
-0.003675 -0.019524 1.626902
0.447309 -0.022070 1.612512
0.676320 -0.026874 1.595994
0.888404 -0.034516 1.579452
1.096071 -0.045425 1.563874
1.302807 -0.059922 1.549572
1.509860 -0.078267 1.536543
-0.087413 -0.005313 1.622370
-0.071435 -0.005503 1.620425
-0.001762 -0.006445 1.613099
0.447018 -0.008808 1.601402
0.674488 -0.013330 1.587535
0.886138 -0.020633 1.573155
1.093767 -0.031177 1.559191
1.300616 -0.045305 1.546053
1.507836 -0.063293 1.533857
-0.079780 0.293481 1.586050
-0.064359 0.293101 1.584858
0.088378 0.291280 1.580325
0.447302 0.286752 1.572947
0.670220 0.277644 1.563905
0.879897 0.261434 1.554071
1.086725 0.234220 1.543985
1.293408 0.187161 1.533976
1.500798 0.062149 1.524233
-0.076868 0.488659 1.553254
-0.061593 0.488454 1.552496
0.108415 0.487562 1.549568
0.446395 0.485611 1.544690
0.666088 0.482037 1.538604
0.873477 0.476063 1.531875
1.078699 0.466793 1.524819
1.284375 0.453228 1.517604
1.491239 0.434177 1.510332
-0.082973 0.678911 1.526966
-0.067550 0.678752 1.526470
-0.000757 0.678089 1.524504
0.438782 0.676774 1.521111
0.660267 0.674623 1.516744
0.867205 0.671311 1.511823
1.071365 0.666400 1.506598
1.275915 0.659399 1.501189
1.481823 0.649797 1.495648
-0.099904 0.870251 1.505664
-0.084189 0.870116 1.505329
-0.016360 0.869560 1.503971
0.419220 0.868494 1.501544
0.649703 0.866869 1.498299
0.859202 0.864561 1.494533
1.063844 0.861355 1.490460
1.268012 0.856967 1.486188
1.473208 0.851084 1.481769
-0.128599 1.063512 1.487822
-0.112540 1.063396 1.487587
-0.043388 1.062914 1.486622
0.381714 1.061995 1.484842
0.631707 1.060627 1.482376
0.847482 1.058778 1.479416
1.054641 1.056354 1.476134
1.259652 1.053197 1.472632
1.464858 1.049109 1.468962
-0.169696 1.258687 1.472268
-0.153280 1.258585 1.472097
-0.082723 1.258163 1.471388
0.314250 1.257354 1.470049
0.603682 1.256150 1.468134
0.830355 1.254558 1.465763
1.042381 1.252542 1.463060
1.249703 1.250028 1.460115
1.455885 1.246894 1.456976
-0.223731 1.455604 1.458111
-0.206974 1.455516 1.457983
-0.135026 1.455143 1.457444
0.160140 1.454423 1.456408
0.562261 1.453346 1.454887
0.806271 1.451924 1.452953
1.025892 1.450157 1.450689
1.237158 1.448012 1.448164
1.445424 1.445424 1.445424
