data/manual_verify/v02_three_shot_luts/scene_0002.cube
# Generated by Local Color Service V0.1.3 using OpenColorIO Baker
# Recipe Hash: fe984356931506789587f3c8674f1194b3c7638d2465be14100624ec5b3f350b
# OCIO Config: studio-config-v4.0.0_aces-v2.0_ocio-v2.5
LUT_3D_SIZE 9
-0.003435 -0.003435 -0.003435
0.100676 -0.003435 -0.003435
0.232834 -0.002993 -0.003354
0.356461 -0.002141 -0.003197
0.487395 -0.002711 -0.002892
0.622230 -0.004853 -0.002490
0.759316 -0.007738 -0.002570
0.898204 -0.011399 -0.003812
1.038559 -0.015887 -0.005359
-0.003435 0.100676 -0.003435
0.100676 0.100676 -0.003435
0.230061 0.105147 -0.003334
0.356685 0.101547 -0.003047
0.488182 0.088473 -0.002681
0.622828 0.058275 -0.002313
0.759794 -0.001552 -0.002670
0.898588 -0.004996 -0.003919
1.038876 -0.009293 -0.005468
-0.001420 0.230879 -0.002678
0.102367 0.231007 -0.002639
0.231145 0.231223 -0.002494
0.359169 0.230771 -0.002261
0.490522 0.228858 -0.001983
0.624865 0.224848 -0.002223
0.761526 0.218173 -0.003182
0.900044 0.208148 -0.004426
1.040112 0.193798 -0.005970
-0.004535 0.360481 -0.002012
0.068691 0.360563 -0.002031
0.227727 0.360818 -0.002133
0.360372 0.361011 -0.002371
0.492985 0.360770 -0.002798
0.627541 0.359741 -0.003458
0.764062 0.357639 -0.004382
0.902352 0.354217 -0.005594
1.042181 0.349251 -0.007111
-0.009464 0.494186 -0.004245
-0.002898 0.494242 -0.004268
0.217213 0.494445 -0.004370
0.358477 0.494720 -0.004597
0.494041 0.494883 -0.004999
0.629695 0.494731 -0.005619
0.766591 0.494072 -0.006494
0.904938 0.492738 -0.007652
1.044683 0.490581 -0.009115
-0.016556 0.630708 -0.007510
-0.009657 0.630748 -0.007533
0.196450 0.630905 -0.007635
0.352335 0.631155 -0.007855
0.492721 0.631411 -0.008236
0.630527 0.631550 -0.008820
0.768445 0.631444 -0.009644
0.907260 0.630972 -0.010740
1.047182 0.630023 -0.012134
-0.025927 0.769347 -0.011874
-0.018746 0.769377 -0.011897
0.159168 0.769500 -0.011998
0.341132 0.769715 -0.012213
0.488467 0.769977 -0.012578
0.629508 0.770212 -0.013133
0.769133 0.770335 -0.013913
0.908877 0.770257 -0.014954
1.049297 0.769897 -0.016284
-0.037755 0.909703 -0.017412
-0.030340 0.909728 -0.017435
0.066729 0.909827 -0.017536
0.323767 0.910009 -0.017748
0.480851 0.910252 -0.018103
0.626280 0.910510 -0.018637
0.768308 0.910726 -0.019383
0.909459 0.910836 -0.020377
1.050721 0.910778 -0.021646
-0.052220 1.051499 -0.024194
-0.044599 1.051519 -0.024218
-0.011907 1.051601 -0.024318
0.298463 1.051757 -0.024528
0.469444 1.051974 -0.024875
0.620574 1.052226 -0.025392
0.765726 1.052474 -0.026111
0.908768 1.052672 -0.027063
1.051224 1.052772 -0.028280
-0.003435 -0.003435 0.100676
0.100676 -0.003435 0.100676
0.232427 -0.002983 0.101534
0.356322 -0.002135 0.103116
0.487387 -0.002733 0.103388
0.622297 -0.004865 0.098383
0.759410 -0.007741 0.089428
0.898281 -0.011402 0.074590
1.038623 -0.015889 0.044961
-0.003435 0.100676 0.100676
0.100676 0.100676 0.100676
0.229686 0.105113 0.101753
0.356584 0.101316 0.104147
0.488191 0.088256 0.103288
0.622908 0.058103 0.097724
0.759887 -0.001554 0.088514
0.898664 -0.004998 0.073250
1.038939 -0.009295 0.041922
-0.001542 0.230859 0.105438
0.101284 0.230986 0.105447
0.230957 0.231200 0.105073
0.359182 0.230755 0.103372
0.490616 0.228858 0.099834
0.624971 0.224857 0.093619
0.761612 0.218179 0.083415
0.900116 0.208152 0.066072
1.040173 0.193800 0.018127
-0.004502 0.360505 0.095942
0.069365 0.360587 0.095765
0.227914 0.360840 0.094897
0.360510 0.361029 0.092718
0.493097 0.360785 0.088412
0.627633 0.359753 0.080830
0.764140 0.357648 0.067754
0.902418 0.354225 0.040683
1.042239 0.349257 -0.000946
-0.009424 0.494203 0.070196
-0.002856 0.494259 0.069866
0.217401 0.494461 0.068333
0.358599 0.494734 0.064659
0.494138 0.494895 0.057168
0.629776 0.494741 0.041346
0.766660 0.494082 -0.000327
0.904998 0.492746 -0.001406
1.044735 0.490587 -0.002783
-0.016513 0.630721 -0.001267
-0.009612 0.630761 -0.001288
0.196660 0.630917 -0.001380
0.352448 0.631167 -0.001582
0.492806 0.631421 -0.001933
0.630598 0.631560 -0.002477
0.768506 0.631453 -0.003251
0.907313 0.630979 -0.004290
1.047230 0.630030 -0.005621
-0.025882 0.769356 -0.005372
-0.018701 0.769387 -0.005394
0.159445 0.769509 -0.005488
0.341241 0.769724 -0.005691
0.488545 0.769985 -0.006036
0.629571 0.770220 -0.006563
0.769188 0.770342 -0.007309
0.908924 0.770265 -0.008308
1.049339 0.769903 -0.009590
-0.037709 0.909711 -0.010686
-0.030293 0.909735 -0.010708
0.067636 0.909835 -0.010805
0.323878 0.910017 -0.011008
0.480926 0.910259 -0.011348
0.626339 0.910516 -0.011862
0.768358 0.910732 -0.012583
0.909503 0.910842 -0.013545
1.050760 0.910783 -0.014778
-0.052174 1.051505 -0.017269
-0.044552 1.051525 -0.017291
-0.011858 1.051607 -0.017388
0.298585 1.051762 -0.017591
0.469515 1.051980 -0.017928
0.620629 1.052232 -0.018430
0.765772 1.052480 -0.019129
0.908809 1.052677 -0.020057
1.051260 1.052777 -0.021245
-0.002988 -0.003379 0.231510
0.105199 -0.003378 0.231405
0.232187 -0.002884 0.231253
0.356583 -0.002049 0.230856
0.487814 -0.002779 0.230489
0.622671 -0.004903 0.229848
0.759731 -0.007772 0.228501
0.898556 -0.011427 0.226288
1.038860 -0.015911 0.223063
-0.002975 0.101278 0.230955
0.105166 0.101293 0.230852
0.229665 0.105430 0.230797
0.356992 0.100945 0.230855
0.488609 0.087854 0.230640
0.623275 0.057454 0.229909
0.760202 -0.001579 0.228486
0.898935 -0.005019 0.226209
1.039175 -0.009314 0.222931
-0.001649 0.230938 0.231176
0.100724 0.231053 0.231200
0.231238 0.231238 0.231238
0.359580 0.230765 0.231135
0.491001 0.228849 0.230697
0.625314 0.224837 0.229742
0.761912 0.218152 0.228108
0.900377 0.208120 0.225642
1.040401 0.193764 0.222191
-0.004492 0.360582 0.230363
0.069960 0.360660 0.230354
0.228293 0.360903 0.230280
0.360885 0.361079 0.230016
0.493447 0.360822 0.229390
0.627947 0.359780 0.228233
0.764417 0.357668 0.226390
0.902662 0.354239 0.223709
1.042453 0.349267 0.220032
-0.009344 0.494264 0.226867
-0.002763 0.494318 0.226836
0.217892 0.494517 0.226682
0.358967 0.494783 0.226294
0.494458 0.494938 0.225520
0.630060 0.494777 0.224201
0.766912 0.494111 0.222179
0.905222 0.492770 0.219298
1.044935 0.490608 0.215397
-0.016392 0.630769 0.219748
-0.009483 0.630808 0.219700
0.197302 0.630962 0.219483
0.352822 0.631209 0.218990
0.493105 0.631459 0.218085
0.630856 0.631593 0.216615
0.768735 0.631483 0.214419
0.907518 0.631005 0.211330
1.047413 0.630053 0.207175
-0.025734 0.769395 0.207964
-0.018548 0.769425 0.207902
0.160378 0.769547 0.207628
0.341630 0.769759 0.207032
0.488831 0.770018 0.205986
0.629811 0.770250 0.204335
0.769397 0.770370 0.201915
0.909112 0.770289 0.198542
1.049508 0.769925 0.194015
-0.037546 0.909742 0.189904
-0.030126 0.909766 0.189826
0.070809 0.909865 0.189486
0.324295 0.910046 0.188761
0.481205 0.910287 0.187517
0.626563 0.910543 0.185595
0.768552 0.910756 0.182810
0.909675 0.910864 0.178948
1.050915 0.910803 0.173756
-0.052001 1.051531 0.162241
-0.044377 1.051551 0.162138
-0.011672 1.051633 0.161689
0.299049 1.051787 0.160744
0.469794 1.052004 0.159142
0.620844 1.052255 0.156690
0.765953 1.052501 0.153150
0.908968 1.052697 0.148221
1.051405 1.052796 0.141497
-0.002352 -0.003298 0.359880
0.110398 -0.003292 0.359851
0.230830 -0.002724 0.359901
0.356516 -0.001921 0.359892
0.488245 -0.002918 0.360069
0.623138 -0.005023 0.360167
0.760177 -0.007876 0.360008
0.898968 -0.011517 0.359506
1.039236 -0.015990 0.358586
-0.002346 0.102093 0.359716
0.102184 0.102801 0.359709
0.228728 0.105123 0.359823
0.357179 0.099708 0.360069
0.489026 0.086425 0.360269
0.623733 0.055050 0.360314
0.760644 -0.001671 0.360108
0.899344 -0.005100 0.359567
1.039547 -0.009386 0.358614
-0.002200 0.230930 0.360451
0.095848 0.231024 0.360484
0.230635 0.231154 0.360597
0.359757 0.230632 0.360731
0.491389 0.228685 0.360798
0.625748 0.224656 0.360703
0.762335 0.217963 0.360363
0.900772 0.207925 0.359696
1.040764 0.193560 0.358630
-0.004780 0.360661 0.361017
0.065636 0.360734 0.361032
0.228032 0.360957 0.361077
0.361109 0.361109 0.361109
0.493822 0.360831 0.361049
0.628355 0.359772 0.360813
0.764816 0.357649 0.360324
0.903038 0.354212 0.359507
1.042801 0.349235 0.358292
-0.009438 0.494348 0.360587
-0.002831 0.494401 0.360588
0.217989 0.494591 0.360582
0.359272 0.494846 0.360529
0.494833 0.494987 0.360363
0.630447 0.494815 0.360008
0.767288 0.494140 0.359392
0.905576 0.492791 0.358442
1.045264 0.490622 0.357092
-0.016351 0.630844 0.358652
-0.009426 0.630882 0.358643
0.197782 0.631033 0.358597
0.353219 0.631273 0.358477
0.493491 0.631516 0.358226
0.631229 0.631643 0.357776
0.769090 0.631525 0.357057
0.907850 0.631041 0.355999
1.047724 0.630082 0.354537
-0.025597 0.769459 0.354818
-0.018401 0.769489 0.354801
0.161390 0.769608 0.354725
0.342117 0.769818 0.354552
0.489232 0.770072 0.354231
0.630174 0.770299 0.353701
0.769733 0.770414 0.352895
0.909424 0.770328 0.351747
1.049798 0.769960 0.350191
-0.037344 0.909797 0.348733
-0.029917 0.909820 0.348711
0.074688 0.909919 0.348610
0.324879 0.910098 0.348393
0.481624 0.910336 0.348013
0.626921 0.910588 0.347412
0.768873 0.910798 0.346527
0.909969 0.910903 0.345294
1.051188 0.910839 0.343646
-0.051753 1.051579 0.340016
-0.044124 1.051598 0.339989
-0.011397 1.051679 0.339868
0.299757 1.051833 0.339611
0.470238 1.052047 0.339174
0.621200 1.052296 0.338504
0.766263 1.052540 0.337540
0.909248 1.052734 0.336217
1.051661 1.052830 0.334471
-0.001995 -0.003223 0.492793
0.096417 -0.003082 0.492814
0.227270 -0.002540 0.492892
0.355733 -0.001921 0.492998
0.488400 -0.003195 0.493297
0.623512 -0.005271 0.493571
0.760620 -0.008096 0.493748
0.899421 -0.011712 0.493770
1.039677 -0.016165 0.493589
-0.002902 0.102879 0.492774
0.084746 0.103567 0.492807
0.226025 0.102895 0.492956
0.356670 0.097068 0.493204
0.489165 0.083312 0.493481
0.624097 0.049336 0.493722
0.761080 -0.001871 0.493867
0.899793 -0.005282 0.493863
1.039985 -0.009550 0.493659
-0.003431 0.230695 0.493552
0.082304 0.230762 0.493583
0.228294 0.230818 0.493697
0.359269 0.230226 0.493874
0.491507 0.228234 0.494064
0.626087 0.224180 0.494212
0.762752 0.217471 0.494267
0.901208 0.207419 0.494175
1.041192 0.193031 0.493890
-0.005623 0.360682 0.494411
0.047790 0.360746 0.494430
0.226268 0.360941 0.494502
0.360747 0.361059 0.494610
0.493954 0.360749 0.494713
0.628679 0.359668 0.494762
0.765213 0.357529 0.494709
0.903454 0.354082 0.494507
1.043212 0.349099 0.494111
-0.009957 0.494424 0.494891
-0.003311 0.494473 0.494901
0.216822 0.494651 0.494937
0.359099 0.494888 0.494986
0.495011 0.495011 0.495011
0.630770 0.494823 0.494971
0.767669 0.494133 0.494819
0.905974 0.492773 0.494512
1.045658 0.490595 0.494009
-0.016618 0.630927 0.494642
-0.009669 0.630964 0.494645
0.197200 0.631109 0.494653
0.353253 0.631339 0.494652
0.493732 0.631572 0.494612
0.631563 0.631687 0.494496
0.769462 0.631559 0.494260
0.908233 0.631066 0.493863
1.048100 0.630100 0.493265
-0.025669 0.769538 0.493389
-0.018456 0.769567 0.493386
0.161440 0.769684 0.493371
0.342351 0.769888 0.493330
0.489545 0.770136 0.493235
0.630526 0.770356 0.493053
0.770102 0.770463 0.492745
0.909794 0.770370 0.492271
1.050159 0.769996 0.491592
-0.037271 0.909870 0.490898
-0.029832 0.909893 0.490891
0.076714 0.909989 0.490859
0.325315 0.910165 0.490784
0.482011 0.910399 0.490643
0.627297 0.910646 0.490405
0.769242 0.910851 0.490035
0.910330 0.910950 0.489494
1.051535 0.910882 0.488745
-0.051567 1.051643 0.486972
-0.043928 1.051662 0.486961
-0.011169 1.051743 0.486914
0.300416 1.051894 0.486811
0.470698 1.052106 0.486631
0.621601 1.052351 0.486345
0.766635 1.052592 0.485920
0.909601 1.052782 0.485320
1.051997 1.052874 0.484510
-0.004671 -0.002985 0.628747
0.056734 -0.002848 0.628768
0.220760 -0.002360 0.628843
0.354085 -0.002302 0.629012
0.488049 -0.003644 0.629309
0.623631 -0.005681 0.629617
0.760939 -0.008469 0.629895
0.899826 -0.012050 0.630104
1.040113 -0.016472 0.630210
-0.005406 0.100940 0.628808
0.040256 0.100657 0.628843
0.220772 0.098709 0.628975
0.355103 0.092464 0.629195
0.488797 0.077716 0.629469
0.624205 0.036674 0.629754
0.761391 -0.002216 0.630011
0.900193 -0.005599 0.630201
1.040419 -0.009842 0.630289
-0.005488 0.230106 0.629498
0.045081 0.230143 0.629524
0.223505 0.230111 0.629627
0.357753 0.229432 0.629800
0.491124 0.227380 0.630014
0.626173 0.223289 0.630235
0.763045 0.216553 0.630426
0.901593 0.206471 0.630553
1.041614 0.192033 0.630582
-0.007210 0.360587 0.630378
-0.000820 0.360640 0.630397
0.222257 0.360801 0.630471
0.359434 0.360873 0.630596
0.493615 0.360522 0.630748
0.628759 0.359411 0.630895
0.765489 0.357251 0.631008
0.903822 0.353792 0.631052
1.043618 0.348803 0.630997
-0.011109 0.494457 0.631150
-0.004409 0.494502 0.631162
0.213608 0.494666 0.631211
0.358082 0.494879 0.631292
0.494764 0.494977 0.631387
0.630871 0.494767 0.631468
0.767941 0.494059 0.631504
0.906329 0.492685 0.631467
1.046050 0.490496 0.631328
-0.017401 0.630998 0.631561
-0.010417 0.631033 0.631568
0.194696 0.631170 0.631596
0.352560 0.631388 0.631641
0.493608 0.631606 0.631686
0.631707 0.631707 0.631707
0.769742 0.631565 0.631676
0.908581 0.631060 0.631566
1.048480 0.630084 0.631349
-0.026149 0.769618 0.631406
-0.018914 0.769647 0.631409
0.159460 0.769759 0.631420
0.341969 0.769956 0.631433
0.489556 0.770195 0.631434
0.630724 0.770405 0.631403
0.770399 0.770502 0.631313
0.910141 0.770401 0.631138
1.050530 0.770018 0.630852
-0.037510 0.909949 0.630508
-0.030057 0.909972 0.630507
0.074247 0.910066 0.630504
0.325236 0.910238 0.630490
0.482158 0.910466 0.630455
0.627554 0.910707 0.630377
0.769560 0.910905 0.630235
0.910680 0.910997 0.630003
1.051900 0.910921 0.629655
-0.051613 1.051720 0.628716
-0.043965 1.051738 0.628713
-0.011154 1.051817 0.628698
0.300650 1.051966 0.628662
0.470979 1.052174 0.628595
0.621920 1.052414 0.628477
0.766979 1.052649 0.628288
0.909958 1.052834 0.628006
1.052357 1.052921 0.627605
-0.008512 -0.002765 0.766899
-0.002577 -0.002647 0.766916
0.210813 -0.002365 0.766995
0.351180 -0.002988 0.767193
0.486997 -0.004290 0.767460
0.623359 -0.006281 0.767760
0.761032 -0.009022 0.768063
0.900102 -0.012559 0.768341
1.040482 -0.016941 0.768567
-0.008688 0.094836 0.767018
-0.002617 0.094433 0.767045
0.212240 0.092091 0.767154
0.352183 0.085103 0.767346
0.487730 0.068282 0.767597
0.623921 -0.000194 0.767881
0.761477 -0.002734 0.768169
0.900464 -0.006082 0.768432
1.040783 -0.010292 0.768646
-0.008456 0.229045 0.767609
-0.002220 0.229051 0.767631
0.215573 0.228926 0.767720
0.354912 0.228147 0.767879
0.490048 0.226020 0.768088
0.625866 0.221875 0.768325
0.763111 0.215096 0.768564
0.901848 0.204958 0.768781
1.041967 0.190427 0.768949
-0.009671 0.360319 0.768438
-0.003179 0.360361 0.768456
0.215276 0.360482 0.768525
0.356864 0.360501 0.768648
0.492608 0.360100 0.768811
0.628457 0.358951 0.768994
0.765542 0.356766 0.769173
0.904061 0.353291 0.769326
1.043956 0.348292 0.769429
-0.013054 0.494418 0.769291
-0.006290 0.494458 0.769304
0.207581 0.494603 0.769355
0.355904 0.494788 0.769446
0.493892 0.494855 0.769566
0.630611 0.494617 0.769696
0.768000 0.493886 0.769817
0.906560 0.492495 0.769905
1.046375 0.490294 0.769942
-0.018875 0.631036 0.769981
-0.011849 0.631069 0.769990
0.189405 0.631197 0.770025
0.350807 0.631399 0.770088
0.492916 0.631599 0.770169
0.631519 0.631681 0.770252
0.769825 0.631522 0.770319
0.908815 0.631002 0.770349
1.048798 0.630014 0.770321
-0.027219 0.769686 0.770348
-0.019955 0.769713 0.770353
0.154312 0.769821 0.770375
0.340629 0.770009 0.770414
0.489061 0.770236 0.770460
0.630627 0.770434 0.770501
0.770519 0.770519 0.770519
0.910386 0.770406 0.770495
1.050847 0.770013 0.770409
-0.038245 0.910027 0.770251
-0.030771 0.910049 0.770254
0.063124 0.910140 0.770265
0.324287 0.910307 0.770282
0.481863 0.910527 0.770298
0.627555 0.910760 0.770301
0.769726 0.910949 0.770275
0.910943 0.911032 0.770202
1.052220 0.910949 0.770065
-0.052065 1.051798 0.769572
-0.044401 1.051817 0.769572
-0.011529 1.051894 0.769573
0.300083 1.052039 0.769573
0.470880 1.052243 0.769562
0.622023 1.052477 0.769531
0.767196 1.052706 0.769466
0.910243 1.052884 0.769350
1.052684 1.052965 0.769165
-0.013205 -0.002877 0.906825
-0.006978 -0.002907 0.906848
0.197720 -0.003193 0.906945
0.346638 -0.003891 0.907119
0.485076 -0.005153 0.907356
0.622571 -0.007093 0.907635
0.760805 -0.009780 0.907934
0.900175 -0.013265 0.908232
1.040722 -0.017599 0.908509
-0.012899 0.085405 0.906969
-0.006627 0.084853 0.906992
0.199500 0.081904 0.907083
0.347636 0.073464 0.907249
0.485793 0.051382 0.907475
0.623121 -0.000951 0.907742
0.761242 -0.003451 0.908030
0.900532 -0.006758 0.908317
1.041019 -0.010926 0.908584
-0.012393 0.227400 0.907478
-0.005997 0.227377 0.907497
0.203586 0.227159 0.907575
0.350472 0.226272 0.907717
0.488112 0.224052 0.907912
0.625045 0.219836 0.908144
0.762855 0.212989 0.908395
0.901899 0.202762 0.908646
1.042191 0.188079 0.908877
-0.013103 0.359827 0.908239
-0.006502 0.359857 0.908254
0.204446 0.359935 0.908317
0.352756 0.359895 0.908432
0.490760 0.359436 0.908593
0.627649 0.358243 0.908784
0.765277 0.356027 0.908988
0.904098 0.352531 0.909189
1.044165 0.347519 0.909369
-0.015919 0.494274 0.909092
-0.009081 0.494308 0.909104
0.197833 0.494433 0.909153
0.352275 0.494585 0.909244
0.492220 0.494616 0.909371
0.629865 0.494346 0.909520
0.767750 0.493588 0.909678
0.906594 0.492176 0.909827
1.046574 0.489959 0.909953
-0.021185 0.631022 0.909894
-0.014107 0.631052 0.909903
0.180302 0.631169 0.909940
0.347693 0.631354 0.910008
0.491476 0.631531 0.910104
0.630874 0.631591 0.910216
0.769616 0.631411 0.910330
0.908860 0.630874 0.910431
1.048995 0.629871 0.910505
-0.029034 0.769727 0.910517
-0.021736 0.769752 0.910524
0.144540 0.769854 0.910550
0.338012 0.770032 0.910600
0.487877 0.770246 0.910668
0.630107 0.770428 0.910745
0.770368 0.770498 0.910819
0.910456 0.770371 0.910875
1.051051 0.769966 0.910900
-0.039634 0.910092 0.910851
-0.032134 0.910113 0.910855
0.017505 0.910201 0.910872
0.322129 0.910361 0.910905
0.480940 0.910573 0.910948
0.627174 0.910795 0.910994
0.769647 0.910973 0.911031
0.911046 0.911046 0.911046
1.052437 0.910953 0.911027
-0.053084 1.051873 0.910795
-0.045400 1.051891 0.910797
-0.012450 1.051966 0.910806
0.298340 1.052107 0.910824
0.470212 1.052304 0.910845
0.621782 1.052532 0.910862
0.767193 1.052753 0.910867
0.910385 1.052924 0.910844
1.052919 1.052997 0.910783
-0.018436 -0.003990 1.048254
-0.012000 -0.004053 1.048275
0.178918 -0.004345 1.048356
0.340187 -0.005023 1.048505
0.482131 -0.006248 1.048715
0.621157 -0.008136 1.048970
0.760174 -0.010764 1.049255
0.899979 -0.014190 1.049551
1.040781 -0.018468 1.049844
-0.018080 0.070439 1.048376
-0.011622 0.069623 1.048395
0.180966 0.065439 1.048472
0.341189 0.053058 1.048616
0.482836 -0.000208 1.048818
0.621695 -0.001931 1.049065
0.760602 -0.004386 1.049340
0.900331 -0.007647 1.049629
1.041075 -0.011767 1.049914
-0.017341 0.225064 1.048818
-0.010792 0.225015 1.048834
0.186117 0.224707 1.048902
0.344163 0.223706 1.049028
0.485159 0.221376 1.049207
0.623599 0.217068 1.049427
0.762196 0.210122 1.049674
0.901682 0.199758 1.049934
1.042232 0.184845 1.050192
-0.017578 0.359059 1.049509
-0.010864 0.359077 1.049523
0.188449 0.359112 1.049580
0.346838 0.359007 1.049686
0.487917 0.358485 1.049838
0.626226 0.357241 1.050025
0.764612 0.354988 1.050235
0.903865 0.351468 1.050454
1.044191 0.346437 1.050670
-0.019799 0.493997 1.050329
-0.012879 0.494025 1.050340
0.183047 0.494127 1.050387
0.346913 0.494243 1.050474
0.489589 0.494235 1.050599
0.628522 0.493927 1.050753
0.767110 0.493138 1.050925
0.906363 0.491701 1.051103
1.046593 0.489466 1.051274
-0.024445 0.630936 1.051164
-0.017309 0.630963 1.051173
0.165853 0.631068 1.051210
0.342923 0.631233 1.051280
0.489126 0.631385 1.051380
0.629659 0.631419 1.051503
0.769031 0.631216 1.051640
0.908650 0.630658 1.051777
1.049018 0.629638 1.051906
-0.031727 0.769727 1.051913
-0.024387 0.769751 1.051919
0.127636 0.769846 1.051948
0.333811 0.770012 1.052001
0.485837 0.770210 1.052080
0.629052 0.770375 1.052174
0.769862 0.770428 1.052277
0.910282 0.770285 1.052378
1.051087 0.769865 1.052465
-0.041815 0.910135 1.052482
-0.034285 0.910155 1.052486
-0.001968 0.910238 1.052508
0.318438 0.910391 1.052548
0.479217 0.910592 1.052604
0.626293 0.910803 1.052673
0.769235 0.910968 1.052746
0.910922 0.911029 1.052811
1.052497 0.910924 1.052860
-0.054811 1.051936 1.052789
-0.047106 1.051954 1.052793
-0.014061 1.052026 1.052807
0.295068 1.052162 1.052835
0.468797 1.052352 1.052874
0.621081 1.052572 1.052918
0.766884 1.052784 1.052962
0.910319 1.052945 1.052995
1.053009 1.053009 1.053009
