data/manual_verify/v02_three_shot_luts/scene_0001.cube
# Generated by Local Color Service V0.1.3 using OpenColorIO Baker
# Recipe Hash: 894872e8854880a057cd44575bc9cd98f009ed1ded788104df9f431df11fe9f8
# OCIO Config: studio-config-v4.0.0_aces-v2.0_ocio-v2.5
LUT_3D_SIZE 5
0.017853 0.017853 0.017853
0.287773 -0.001001 -0.000490
0.625749 -0.008313 -0.002699
0.974227 -0.023623 -0.007372
1.331107 -0.048989 -0.015452
-0.004433 0.281990 -0.002074
0.279153 0.280085 -0.002392
0.612956 0.269485 -0.004148
0.962639 0.235490 -0.008818
1.321567 0.139341 -0.016838
-0.026916 0.603311 -0.011510
0.229982 0.602346 -0.011795
0.597098 0.599040 -0.013390
0.945611 0.591840 -0.017446
1.302588 0.577382 -0.024826
-0.075000 0.938109 -0.032473
-0.014315 0.937490 -0.032755
0.565875 0.935274 -0.034172
0.928521 0.931402 -0.037685
1.286211 0.925007 -0.044235
-0.154234 1.281086 -0.067145
-0.090168 1.280647 -0.067429
0.499833 1.278969 -0.068769
0.901266 1.276077 -0.071940
1.268064 1.271873 -0.077814
-0.001013 -0.000223 0.298445
0.286877 -0.001288 0.292833
0.623339 -0.008358 0.281099
0.971447 -0.023528 0.267236
1.328517 -0.048800 0.246329
-0.004643 0.280469 0.281026
0.278680 0.278680 0.278680
0.611445 0.268295 0.272868
0.960543 0.234643 0.261790
1.319371 0.138699 0.241558
-0.026427 0.601951 0.255748
0.231179 0.601034 0.254630
0.596738 0.597862 0.249874
0.944622 0.590844 0.238885
1.301268 0.576586 0.217180
-0.074252 0.937081 0.192701
-0.013652 0.936479 0.191371
0.566094 0.934318 0.185059
0.928182 0.930532 0.169193
1.285551 0.924242 0.133230
-0.153368 1.280306 -0.013028
-0.089358 1.279874 -0.013329
0.500443 1.278220 -0.014702
0.901260 1.275371 -0.017845
1.267781 1.271221 -0.023547
-0.010862 -0.001854 0.664266
0.274083 -0.003002 0.653574
0.619852 -0.009525 0.631553
0.968614 -0.024277 0.614879
1.325258 -0.049182 0.601301
-0.010118 0.277441 0.627819
0.269446 0.275791 0.623810
0.609467 0.265335 0.615550
0.958429 0.231614 0.606418
1.316542 0.134124 0.596356
-0.028021 0.599778 0.600882
0.227173 0.598937 0.599615
0.595882 0.595882 0.595882
0.943371 0.588970 0.590702
1.299270 0.574859 0.583763
-0.073632 0.934863 0.578831
-0.013033 0.934293 0.578209
0.566380 0.932224 0.575883
0.927660 0.928552 0.571843
1.284317 0.922395 0.565783
-0.151451 1.278203 0.549118
-0.087520 1.277787 0.548673
0.501992 1.276190 0.546827
0.901382 1.273425 0.543183
1.267180 1.269380 0.537289
-0.031156 -0.006117 1.043662
0.226846 -0.007101 1.031219
0.610376 -0.012879 1.004728
0.964507 -0.026966 0.981874
1.322281 -0.051276 0.963843
-0.026464 0.270535 0.998212
0.231156 0.268877 0.993491
0.602487 0.258074 0.981874
0.955429 0.223499 0.968901
1.314115 0.118332 0.956200
-0.037488 0.597223 0.959352
0.196883 0.596471 0.957612
0.591058 0.593516 0.952456
0.941434 0.586612 0.945967
1.297624 0.572521 0.938788
-0.078011 0.932612 0.934249
-0.017026 0.932080 0.933455
0.563648 0.930105 0.930664
0.926503 0.926503 0.926503
1.283205 0.920402 0.921427
-0.152306 1.275890 0.912220
-0.088274 1.275492 0.911766
0.501428 1.273955 0.910005
0.901043 1.271264 0.906983
1.266571 1.267291 0.902873
-0.064476 -0.012949 1.425168
-0.001767 -0.013827 1.415506
0.590305 -0.019090 1.389930
0.956370 -0.032356 1.363340
1.317741 -0.055856 1.340708
-0.056701 0.256837 1.381695
0.087590 0.254983 1.376955
0.585490 0.243359 1.363361
0.948784 0.206278 1.346871
1.310340 0.069185 1.330512
-0.059269 0.593477 1.332795
0.028882 0.592803 1.330754
0.577586 0.589928 1.324324
0.936433 0.582992 1.315920
1.294940 0.568857 1.306846
-0.092088 0.930122 1.300394
-0.030327 0.929634 1.299398
0.553482 0.927762 1.295876
0.922747 0.924222 1.290699
1.281211 0.918140 1.284747
-0.160392 1.273581 1.275742
-0.096018 1.273205 1.275187
0.494168 1.271735 1.273065
0.898543 1.269117 1.269575
1.265195 1.265195 1.265194
