data/manual_verify/v02_three_shot_luts/scene_0001.cube
# Generated by Local Color Service V0.1.3 using OpenColorIO Baker
# Recipe Hash: 894872e8854880a057cd44575bc9cd98f009ed1ded788104df9f431df11fe9f8
# OCIO Config: studio-config-v4.0.0_aces-v2.0_ocio-v2.5
LUT_3D_SIZE 9
0.017853 0.017853 0.017853
0.133818 -0.000040 -0.000040
0.287773 -0.001001 -0.000490
0.455839 -0.003827 -0.001329
0.625749 -0.008313 -0.002699
0.798795 -0.014814 -0.004637
0.974227 -0.023623 -0.007372
1.151774 -0.034949 -0.010970
1.331107 -0.048989 -0.015452
-0.000354 0.131602 -0.000354
0.130862 0.130862 -0.000458
0.285875 0.125359 -0.000891
0.450944 0.108616 -0.001676
0.621448 0.056115 -0.002945
0.795187 -0.005030 -0.004843
0.971217 -0.013425 -0.007601
1.149237 -0.024396 -0.011202
1.328936 -0.038121 -0.015687
-0.004433 0.281990 -0.002074
0.106387 0.281564 -0.002131
0.279153 0.280085 -0.002392
0.443669 0.276668 -0.003008
0.612956 0.269485 -0.004148
0.786299 0.256593 -0.006093
0.962639 0.235490 -0.008818
1.141225 0.201418 -0.012380
1.321567 0.139341 -0.016838
-0.012853 0.440369 -0.005448
-0.003002 0.440089 -0.005497
0.263882 0.439080 -0.005740
0.435815 0.437279 -0.006348
0.605567 0.434202 -0.007489
0.778048 0.429088 -0.009299
0.953565 0.421122 -0.011879
1.131676 0.409469 -0.015309
1.311886 0.393173 -0.019650
-0.026916 0.603311 -0.011510
-0.016436 0.603111 -0.011560
0.229982 0.602346 -0.011795
0.422532 0.601014 -0.012353
0.597098 0.599040 -0.013390
0.770475 0.596123 -0.015048
0.945611 0.591840 -0.017446
1.123024 0.585741 -0.020681
1.302588 0.577382 -0.024826
-0.047401 0.769470 -0.020417
-0.036403 0.769317 -0.020468
0.154171 0.768709 -0.020700
0.399696 0.767623 -0.021227
0.584638 0.766080 -0.022186
0.761577 0.763991 -0.023715
0.937745 0.761151 -0.025940
1.115114 0.757297 -0.028970
1.294215 0.752145 -0.032895
-0.075000 0.938109 -0.032473
-0.063578 0.937986 -0.032524
-0.014315 0.937490 -0.032755
0.362545 0.936577 -0.033265
0.565875 0.935274 -0.034172
0.749528 0.933576 -0.035603
0.928521 0.931402 -0.037685
1.106940 0.928606 -0.040529
1.286211 0.925007 -0.044235
-0.110418 1.108757 -0.047968
-0.098636 1.108658 -0.048020
-0.047943 1.108242 -0.048251
0.301687 1.107460 -0.048751
0.538585 1.106327 -0.049622
0.732851 1.104862 -0.050980
0.916701 1.103046 -0.052943
1.097460 1.100806 -0.055626
1.277753 1.098035 -0.059131
-0.154234 1.281086 -0.067145
-0.142134 1.281001 -0.067198
-0.090168 1.280647 -0.067429
0.180284 1.279969 -0.067923
0.499833 1.278969 -0.068769
0.710204 1.277671 -0.070071
0.901266 1.276077 -0.071940
1.085780 1.274165 -0.074486
1.268064 1.271873 -0.077814
0.010243 0.010243 0.134211
0.133491 -0.000087 0.133491
0.287750 -0.001047 0.130319
0.455286 -0.003839 0.124388
0.624828 -0.008292 0.114163
0.797732 -0.014771 0.096153
0.973274 -0.023570 0.057528
1.150939 -0.034889 -0.002326
1.330375 -0.048925 -0.006594
-0.000401 0.131267 0.131267
0.130524 0.130524 0.130524
0.285747 0.125052 0.127391
0.450407 0.108310 0.121923
0.620588 0.055768 0.111885
0.794214 -0.005021 0.093496
0.970333 -0.013400 0.051935
1.148446 -0.024359 -0.002555
1.328232 -0.038074 -0.006825
-0.004372 0.281482 0.119079
0.106886 0.281067 0.118547
0.279043 0.279607 0.116250
0.443244 0.276223 0.110819
0.612342 0.269111 0.099827
0.785624 0.256306 0.077947
0.961964 0.235277 -0.000335
1.140579 0.201264 -0.003691
1.320966 0.139229 -0.007944
-0.012725 0.439885 0.087223
-0.002886 0.439612 0.086541
0.264011 0.438629 0.083265
0.435671 0.436869 0.074804
0.605268 0.433840 0.054182
0.777654 0.428779 -0.000780
0.953120 0.420865 -0.003216
1.131212 0.409259 -0.006482
1.311425 0.393002 -0.010651
-0.026764 0.602943 -0.002769
-0.016293 0.602746 -0.002821
0.230317 0.601992 -0.003059
0.422549 0.600680 -0.003609
0.596977 0.598731 -0.004611
0.770264 0.595844 -0.006204
0.945341 0.591592 -0.008509
1.122714 0.585525 -0.011628
1.302259 0.577195 -0.015646
-0.047237 0.769181 -0.011277
-0.036244 0.769030 -0.011329
0.154925 0.768427 -0.011563
0.399808 0.767352 -0.012089
0.584617 0.765822 -0.013032
0.761477 0.763750 -0.014527
0.937588 0.760930 -0.016698
1.114916 0.757096 -0.019655
1.293989 0.751964 -0.023490
-0.074827 0.937875 -0.022982
-0.063411 0.937754 -0.023035
-0.014166 0.937262 -0.023268
0.362734 0.936354 -0.023779
0.565916 0.935059 -0.024679
0.749494 0.933371 -0.026093
0.928437 0.931209 -0.028142
1.106818 0.928426 -0.030940
1.286059 0.924841 -0.034585
-0.110240 1.108564 -0.038165
-0.098461 1.108464 -0.038218
-0.047782 1.108052 -0.038451
0.301983 1.107273 -0.038953
0.538671 1.106145 -0.039822
0.732861 1.104686 -0.041170
0.916665 1.102877 -0.043115
1.097388 1.100647 -0.045768
1.277654 1.097885 -0.049232
-0.154050 1.280923 -0.057062
-0.141955 1.280838 -0.057115
-0.089999 1.280486 -0.057348
0.180956 1.279810 -0.057843
0.499957 1.278812 -0.058689
0.710245 1.277518 -0.059987
0.901262 1.275930 -0.061846
1.085745 1.274024 -0.064375
1.268003 1.271738 -0.067676
-0.001013 -0.000223 0.298445
0.126287 -0.000321 0.297067
0.286877 -0.001288 0.292833
0.454099 -0.004003 0.287506
0.623339 -0.008358 0.281099
0.796031 -0.014781 0.274655
0.971447 -0.023528 0.267236
1.149068 -0.034803 0.258054
1.328517 -0.048800 0.246329
-0.001290 0.129691 0.293123
0.125382 0.128889 0.291716
0.284845 0.123637 0.287879
0.449466 0.106823 0.283584
0.619301 0.053005 0.278791
0.792651 -0.005082 0.273129
0.968606 -0.013408 0.266091
1.146650 -0.024319 0.257091
1.326432 -0.037991 0.245437
-0.004643 0.280469 0.281026
0.104895 0.280088 0.280432
0.278680 0.278680 0.278680
0.442707 0.275341 0.276221
0.611445 0.268295 0.272868
0.784416 0.255577 0.268206
0.960543 0.234643 0.261790
1.139036 0.200717 0.253119
1.319371 0.138699 0.241558
-0.012617 0.438845 0.270490
-0.002774 0.438587 0.270196
0.264212 0.437646 0.269087
0.435480 0.435937 0.267134
0.604731 0.432971 0.264152
0.776824 0.427983 0.259762
0.952067 0.420151 0.253500
1.130006 0.408630 0.244823
1.310127 0.392459 0.233045
-0.026427 0.601951 0.255748
-0.015966 0.601762 0.255532
0.231179 0.601034 0.254630
0.422668 0.599761 0.252829
0.596738 0.597862 0.249874
0.769756 0.595032 0.245389
0.944622 0.590844 0.238885
1.121836 0.584846 0.229755
1.301268 0.576586 0.217180
-0.046753 0.768283 0.232207
-0.035774 0.768136 0.232000
0.157224 0.767550 0.231105
0.400206 0.766501 0.229229
0.584612 0.765007 0.226040
0.761218 0.762976 0.221100
0.937135 0.760203 0.213832
1.114310 0.756421 0.203459
1.293267 0.751343 0.188831
-0.074252 0.937081 0.192701
-0.062846 0.936962 0.192454
-0.013652 0.936479 0.191371
0.363421 0.935588 0.189060
0.566094 0.934318 0.185059
0.749417 0.932660 0.178740
0.928182 0.930532 0.169193
1.106422 0.927786 0.154969
1.285551 0.924242 0.133230
-0.109601 1.107865 0.109555
-0.097832 1.107767 0.109028
-0.047195 1.107360 0.106690
0.303082 1.106593 0.101507
0.539004 1.105482 0.091794
0.732922 1.104044 0.073452
0.916555 1.102259 -0.000006
1.097149 1.100055 -0.002578
1.277310 1.097323 -0.005917
-0.153368 1.280306 -0.013028
-0.141279 1.280223 -0.013084
-0.089358 1.279874 -0.013329
0.183516 1.279206 -0.013841
0.500443 1.278220 -0.014702
0.710417 1.276941 -0.016005
0.901260 1.275371 -0.017845
1.085619 1.273485 -0.020326
1.267781 1.271221 -0.023547
-0.004444 -0.000782 0.478205
0.100759 -0.000898 0.475800
0.283236 -0.001883 0.469386
0.452245 -0.004499 0.461033
0.621992 -0.008722 0.452511
0.794701 -0.015055 0.445377
0.969979 -0.023716 0.438851
1.147435 -0.034911 0.432353
1.326742 -0.048833 0.425435
-0.004317 0.126023 0.468704
0.106225 0.125259 0.466514
0.281396 0.120057 0.461028
0.448070 0.102713 0.454910
0.618215 0.042344 0.448914
0.791468 -0.005373 0.443121
0.967231 -0.013625 0.437333
1.145084 -0.024460 0.431258
1.324706 -0.038059 0.424593
-0.006286 0.279260 0.450437
0.089151 0.278919 0.449617
0.276297 0.277549 0.447189
0.441817 0.274205 0.444134
0.610725 0.267160 0.440740
0.783523 0.254460 0.436925
0.959406 0.233545 0.432546
1.137667 0.199593 0.427440
1.317812 0.137260 0.421426
-0.013387 0.437791 0.438628
-0.003472 0.437550 0.438254
0.262869 0.436650 0.436938
0.434971 0.434971 0.434971
0.604261 0.432027 0.432553
0.776169 0.427067 0.429624
0.951170 0.419273 0.426023
1.128875 0.407802 0.421565
1.308796 0.391687 0.416063
-0.026580 0.600864 0.428103
-0.016097 0.600683 0.427888
0.230946 0.599983 0.427052
0.422565 0.598743 0.425609
0.596508 0.596876 0.423631
0.769316 0.594079 0.421072
0.943949 0.589931 0.417793
1.120941 0.583979 0.413614
1.300177 0.575771 0.408340
-0.046461 0.767178 0.415961
-0.035480 0.767035 0.415810
0.158803 0.766467 0.415188
0.400535 0.765446 0.414013
0.584628 0.763983 0.412263
0.760984 0.761987 0.409871
0.936671 0.759253 0.406707
1.113638 0.755513 0.402602
1.292409 0.750482 0.397362
-0.073641 0.935995 0.400154
-0.062242 0.935880 0.400028
-0.013082 0.935409 0.399500
0.364242 0.934540 0.398451
0.566357 0.933295 0.396805
0.749379 0.931668 0.394467
0.927910 0.929574 0.391304
1.105950 0.926867 0.387145
1.284904 0.923363 0.381792
-0.108758 1.106829 0.378770
-0.096996 1.106732 0.378654
-0.046401 1.106334 0.378154
0.304623 1.105582 0.377139
0.539514 1.104492 0.375501
0.733064 1.103080 0.373120
0.916452 1.101324 0.369847
1.096851 1.099152 0.365502
1.276848 1.096455 0.359869
-0.152347 1.279333 0.349394
-0.140268 1.279250 0.349274
-0.088391 1.278908 0.348759
0.187386 1.278251 0.347700
0.501228 1.277282 0.345967
0.710726 1.276022 0.343415
0.901305 1.274476 0.339872
1.085470 1.272615 0.335133
1.267475 1.270380 0.328945
-0.010862 -0.001854 0.664266
-0.001020 -0.002026 0.661527
0.274083 -0.003002 0.653574
0.448269 -0.005433 0.642283
0.619852 -0.009525 0.631553
0.793173 -0.015733 0.622596
0.968614 -0.024277 0.614879
1.146049 -0.035363 0.607912
1.325258 -0.049182 0.601301
-0.009689 0.119199 0.650985
-0.000089 0.118319 0.648734
0.272780 0.112647 0.642285
0.444806 0.093780 0.634471
0.616439 -0.000249 0.626726
0.790138 -0.006035 0.619500
0.965983 -0.014189 0.612797
1.143772 -0.024926 0.606444
1.323275 -0.038428 0.600218
-0.010118 0.277441 0.627819
-0.000506 0.277135 0.626853
0.269446 0.275791 0.623810
0.439349 0.272417 0.619838
0.609467 0.265335 0.615550
0.782564 0.252600 0.611075
0.958429 0.231614 0.606418
1.136561 0.197449 0.601537
1.316542 0.134124 0.596356
-0.015879 0.436612 0.612535
-0.005825 0.436391 0.612064
0.257666 0.435536 0.610399
0.433123 0.433880 0.607954
0.603333 0.430940 0.605138
0.775461 0.425983 0.602054
0.950418 0.418200 0.598660
1.127974 0.406749 0.594874
1.307713 0.390660 0.590605
-0.028021 0.599778 0.600882
-0.017474 0.599607 0.600620
0.227173 0.598937 0.599615
0.421347 0.597728 0.597963
0.595882 0.595882 0.595882
0.768809 0.593101 0.593470
0.943371 0.588970 0.590702
1.120212 0.583039 0.587499
1.299270 0.574859 0.583763
-0.047082 0.766073 0.590216
-0.036074 0.765936 0.590048
0.156050 0.765387 0.589375
0.399963 0.764393 0.588171
0.584319 0.762955 0.586524
0.760676 0.760982 0.584490
0.936257 0.758270 0.582055
1.113068 0.754553 0.579154
1.291665 0.749552 0.575695
-0.073632 0.934863 0.578831
-0.062223 0.934751 0.578710
-0.013033 0.934293 0.578209
0.364367 0.933444 0.577263
0.566380 0.932224 0.575883
0.749278 0.930622 0.574083
0.927660 0.928552 0.571843
1.105534 0.925870 0.569104
1.284317 0.922395 0.565783
-0.108253 1.105687 0.565481
-0.096491 1.105593 0.565384
-0.045900 1.105204 0.564975
0.305661 1.104467 0.564176
0.539891 1.103397 0.562958
0.733177 1.102008 0.561304
0.916367 1.100277 0.559178
1.096585 1.098130 0.556524
1.276411 1.095462 0.553259
-0.151451 1.278203 0.549118
-0.139376 1.278122 0.549033
-0.087520 1.277787 0.548673
0.190881 1.277142 0.547954
0.501992 1.276190 0.546827
0.711057 1.274950 0.545253
0.901382 1.273425 0.543183
1.085349 1.271589 0.540556
1.267180 1.269380 0.537289
-0.019503 -0.003622 0.853429
-0.009020 -0.003800 0.850737
0.256696 -0.004760 0.841615
0.441186 -0.006943 0.828488
0.616179 -0.010880 0.816140
0.790880 -0.016931 0.805421
0.966915 -0.025327 0.796153
1.144586 -0.036275 0.787984
1.323857 -0.049963 0.780579
-0.017807 0.106808 0.837537
-0.007658 0.105703 0.835409
0.256389 0.098962 0.828603
0.438541 0.075795 0.819620
0.613212 -0.001520 0.810342
0.788097 -0.007187 0.801568
0.964433 -0.015217 0.793510
1.142403 -0.025832 0.786105
1.321935 -0.039214 0.779196
-0.016707 0.274650 0.810906
-0.006732 0.274362 0.809876
0.255597 0.273019 0.806420
0.434181 0.269589 0.801625
0.606937 0.262432 0.796338
0.781010 0.249598 0.790875
0.957228 0.228418 0.785364
1.135445 0.193754 0.779848
1.315389 0.128294 0.774319
-0.020776 0.435118 0.792020
-0.010527 0.434916 0.791475
0.246112 0.434106 0.789502
0.428874 0.432469 0.786535
0.601282 0.429523 0.783114
0.774242 0.424556 0.779467
0.949487 0.416767 0.775637
1.127088 0.405314 0.771607
1.306760 0.389224 0.767342
-0.031456 0.598601 0.777968
-0.020802 0.598441 0.777654
0.217114 0.597804 0.776450
0.418002 0.596628 0.774474
0.594265 0.594799 0.772035
0.767848 0.592025 0.769323
0.942637 0.587897 0.766390
1.119500 0.581973 0.763213
1.298479 0.573806 0.759743
-0.049307 0.764961 0.766332
-0.038243 0.764831 0.766134
0.144466 0.764304 0.765345
0.397496 0.763337 0.763958
0.583146 0.761925 0.762122
0.759967 0.759968 0.759968
0.935696 0.757268 0.757550
1.112499 0.753565 0.754858
1.291010 0.748577 0.751850
-0.074882 0.933744 0.755510
-0.063445 0.933635 0.755374
-0.014142 0.933192 0.754817
0.362758 0.932365 0.753787
0.565663 0.931168 0.752342
0.748832 0.929586 0.750557
0.927273 0.927534 0.748469
1.105105 0.924869 0.746076
1.283791 0.921411 0.743343
-0.108703 1.104543 0.744377
-0.096929 1.104451 0.744276
-0.046287 1.104073 0.743852
0.304983 1.103353 0.743043
0.539641 1.102304 0.741855
0.733001 1.100935 0.740321
0.916162 1.099222 0.738459
1.096297 1.097096 0.736265
1.276011 1.094446 0.733705
-0.151244 1.277042 0.732079
-0.139167 1.276963 0.731997
-0.087291 1.276633 0.731654
0.191916 1.276002 0.730982
0.502251 1.275066 0.729963
0.711162 1.273846 0.728601
0.901362 1.272341 0.726896
1.085206 1.270523 0.724836
1.266906 1.268335 0.722390
-0.031156 -0.006117 1.043662
-0.020146 -0.006298 1.040938
0.226846 -0.007101 1.031219
0.430054 -0.009111 1.018027
0.610376 -0.012879 1.004728
0.787360 -0.018749 0.992608
0.964507 -0.026966 0.981874
1.142738 -0.037747 0.972369
1.322281 -0.051276 0.963843
-0.029070 0.084118 1.026992
-0.018421 0.082453 1.025034
0.228284 0.072465 1.018283
0.428253 0.016768 1.008672
0.607905 -0.003404 0.998262
0.784872 -0.008933 0.988143
0.962206 -0.016815 0.978731
1.140670 -0.027282 0.970097
1.320436 -0.040517 0.962157
-0.026464 0.270535 0.998212
-0.016102 0.270249 0.997171
0.231156 0.268877 0.993491
0.425259 0.265356 0.988065
0.602487 0.258074 0.981874
0.778386 0.245052 0.975405
0.955429 0.223499 0.968901
1.134020 0.187910 0.962483
1.314115 0.118332 0.956200
-0.028621 0.433139 0.976077
-0.018135 0.432953 0.975484
0.224783 0.432180 0.973284
0.421192 0.430555 0.969861
0.597479 0.427596 0.965829
0.772061 0.422606 0.961515
0.948034 0.414796 0.957042
1.125948 0.403324 0.952446
1.305723 0.387205 0.947735
-0.037488 0.597223 0.959352
-0.026693 0.597074 0.958995
0.196883 0.596471 0.957612
0.411511 0.595329 0.955313
0.591058 0.593516 0.952456
0.766017 0.590743 0.949304
0.941434 0.586612 0.945967
1.118564 0.580686 0.942466
1.297624 0.572521 0.938788
-0.053762 0.763778 0.945914
-0.042615 0.763654 0.945685
0.115075 0.763151 0.944771
0.392103 0.762215 0.943163
0.580535 0.760827 0.941048
0.758473 0.758884 0.938610
0.934711 0.756192 0.935953
1.111730 0.752493 0.933105
1.290298 0.747511 0.930057
-0.078011 0.932612 0.934249
-0.066525 0.932508 0.934093
-0.017026 0.932080 0.933455
0.358315 0.931278 0.932284
0.563648 0.930105 0.930664
0.747680 0.928541 0.928710
0.926503 0.926503 0.926503
1.104489 0.923849 0.924077
1.283205 0.920402 0.921427
-0.110713 1.103410 0.923284
-0.098911 1.103322 0.923170
-0.048151 1.102952 0.922700
0.301283 1.102252 0.921809
0.538219 1.101222 0.920526
0.732200 1.099873 0.918913
0.915613 1.098178 0.917026
1.095838 1.096065 0.914892
1.275550 1.093429 0.912512
-0.152306 1.275890 0.912220
-0.140212 1.275813 0.912132
-0.088274 1.275492 0.911766
0.188198 1.274873 0.911058
0.501428 1.273955 0.910005
0.710718 1.272752 0.908636
0.901043 1.271264 0.906983
1.084908 1.269464 0.905061
1.266571 1.267291 0.902873
-0.046032 -0.009196 1.233629
-0.034646 -0.009341 1.231217
0.174567 -0.010089 1.222581
0.413833 -0.011996 1.209927
0.601922 -0.015596 1.196238
0.782235 -0.021268 1.183135
0.961080 -0.029284 1.171178
1.140242 -0.039870 1.160418
1.320307 -0.053213 1.150723
-0.043713 -0.000106 1.218553
-0.032621 -0.000237 1.216774
0.178966 -0.000906 1.210311
0.412860 -0.002639 1.200512
0.599960 -0.005985 1.189387
0.780067 -0.011359 1.178219
0.958983 -0.019074 1.167620
1.138307 -0.029368 1.157798
1.318551 -0.042432 1.148753
-0.039707 0.264734 1.188716
-0.028966 0.264437 1.187694
0.188369 0.263002 1.183931
0.411475 0.259345 1.178075
0.595528 0.251868 1.171144
0.774278 0.238527 1.163767
0.952709 0.216340 1.156292
1.132023 0.179162 1.148920
1.312497 0.101516 1.141748
-0.039840 0.430519 1.163819
-0.029091 0.430346 1.163200
0.186750 0.429597 1.160854
0.408984 0.427974 1.157072
0.591342 0.424993 1.152492
0.768507 0.419968 1.147520
0.945741 0.412121 1.142352
1.124295 0.400605 1.137077
1.304389 0.384424 1.131740
-0.046620 0.595545 1.144482
-0.035655 0.595407 1.144094
0.157951 0.594835 1.142568
0.400799 0.593724 1.139985
0.585687 0.591924 1.136726
0.762918 0.589149 1.133103
0.939459 0.585009 1.129277
1.117165 0.579074 1.125312
1.296506 0.570903 1.121220
-0.060991 0.762452 1.128968
-0.049738 0.762335 1.128712
-0.001125 0.761857 1.127684
0.382690 0.760953 1.125861
0.575924 0.759589 1.123451
0.755808 0.757660 1.120675
0.933016 0.754971 1.117675
1.110535 0.751273 1.114514
1.289348 0.746291 1.111208
-0.083580 0.931422 1.115871
-0.072025 0.931322 1.115695
-0.022252 0.930911 1.114973
0.349857 0.930134 1.113647
0.559776 0.928986 1.111815
0.745455 0.927442 1.109623
0.925083 0.925416 1.107182
1.103484 0.922769 1.104555
1.282401 0.919327 1.101762
-0.114842 1.102262 1.104162
-0.102993 1.102176 1.104034
-0.052057 1.101820 1.103505
0.293112 1.101138 1.102508
0.535054 1.100130 1.101079
0.730417 1.098801 1.099306
0.914472 1.097122 1.097269
1.095021 1.095022 1.095021
1.274886 1.092395 1.092585
-0.155185 1.274743 1.093070
-0.143063 1.274669 1.092974
-0.091011 1.274356 1.092569
0.176782 1.273751 1.091792
0.498939 1.272852 1.090646
0.709375 1.271668 1.089178
0.900187 1.270197 1.087443
1.084283 1.268411 1.085478
1.266050 1.266251 1.083304
-0.064476 -0.012949 1.425168
-0.052755 -0.013097 1.423128
-0.001767 -0.013827 1.415506
0.391130 -0.015649 1.403600
0.590305 -0.019090 1.389930
0.775169 -0.024558 1.376238
0.956370 -0.032356 1.363340
1.136876 -0.042726 1.351498
1.317741 -0.055856 1.340708
-0.061968 -0.003599 1.411754
-0.050490 -0.003735 1.410146
-0.000425 -0.004406 1.404083
0.390969 -0.006094 1.394404
0.588842 -0.009327 1.382927
0.773332 -0.014540 1.371024
0.954494 -0.022072 1.359462
1.135088 -0.032172 1.348584
1.316085 -0.045041 1.338482
-0.056701 0.256837 1.381695
-0.045593 0.256517 1.380709
0.087590 0.254983 1.376955
0.391444 0.251134 1.370848
0.585490 0.243359 1.363361
0.768312 0.229505 1.355221
0.948784 0.206278 1.346871
1.129218 0.166414 1.338583
1.310340 0.069185 1.330512
-0.054770 0.427111 1.354550
-0.043745 0.426943 1.353923
0.102389 0.426205 1.351497
0.390927 0.424573 1.347457
0.582294 0.421557 1.342418
0.763202 0.416483 1.336846
0.942321 0.408579 1.331002
1.121898 0.396993 1.325027
1.302563 0.380708 1.319003
-0.059269 0.593477 1.332795
-0.048112 0.593347 1.332383
0.028882 0.592803 1.330754
0.384584 0.591719 1.327943
0.577586 0.589928 1.324324
0.758177 0.587146 1.320249
0.936433 0.582992 1.315920
1.115077 0.577042 1.311438
1.294940 0.568857 1.306846
-0.071469 0.760918 1.315165
-0.060089 0.760809 1.314886
-0.010969 0.760354 1.313762
0.367955 0.759481 1.311750
0.568750 0.758141 1.309059
0.751610 0.756223 1.305939
0.930338 0.753536 1.302563
1.108698 0.749835 1.299022
1.287983 0.744850 1.295357
-0.092088 0.930122 1.300394
-0.080448 0.930028 1.300198
-0.030327 0.929634 1.299398
0.335959 0.928883 1.297922
0.553482 0.927762 1.295876
0.741800 0.926236 1.293423
0.922747 0.924222 1.290699
1.101880 0.921580 1.287794
1.281211 0.918140 1.284747
-0.121597 1.101064 1.287501
-0.109691 1.100981 1.287359
-0.058518 1.100637 1.286770
0.278620 1.099975 1.285660
0.529570 1.098991 1.284070
0.727298 1.097683 1.282102
0.912482 1.096018 1.279859
1.093649 1.093930 1.277412
1.273863 1.091310 1.274803
-0.160392 1.273581 1.275742
-0.148232 1.273508 1.275636
-0.096018 1.273205 1.275187
0.152256 1.272617 1.274327
0.494168 1.271735 1.273065
0.706783 1.270571 1.271457
0.898543 1.269117 1.269575
1.083147 1.267344 1.267475
1.265195 1.265195 1.265194
