data/manual_verify/v02_three_shot_luts/scene_0003.cube
# Generated by Local Color Service V0.1.3 using OpenColorIO Baker
# Recipe Hash: b85ba405fe9a87a7be7453cd5d8d30fa3c2ecd99428c75e72f1f2c2cdebd5538
# OCIO Config: studio-config-v4.0.0_aces-v2.0_ocio-v2.5
LUT_3D_SIZE 5
0.083837 0.083837 0.083837
0.328185 0.034025 0.071945
0.718404 -0.011771 -0.002417
1.117666 -0.033233 -0.010384
1.526192 -0.068756 -0.021703
-0.006382 0.323151 -0.001500
0.319594 0.320826 -0.002252
0.702717 0.308307 -0.005834
1.103472 0.268515 -0.012397
1.514536 0.154650 -0.023620
-0.037727 0.690718 -0.016152
0.262053 0.689529 -0.016547
0.683260 0.685508 -0.018764
1.082452 0.676935 -0.024415
1.491219 0.659920 -0.034706
-0.104786 1.073147 -0.045362
-0.021008 1.072389 -0.045752
0.646316 1.069676 -0.047710
1.061649 1.064988 -0.052584
1.471048 1.057351 -0.061691
-0.215277 1.464663 -0.093585
-0.126950 1.464124 -0.093976
0.568981 1.462071 -0.095823
1.029274 1.458547 -0.100212
1.449050 1.453465 -0.108364
0.026536 0.077216 0.342466
0.327637 -0.000268 0.335960
0.715506 -0.011812 0.322137
1.114273 -0.033085 0.305646
1.523042 -0.068471 0.281046
-0.006571 0.321335 0.321981
0.319148 0.319149 0.319149
0.700848 0.306875 0.312203
1.100908 0.267502 0.299131
1.511862 0.153880 0.275396
-0.037030 0.689074 0.291987
0.263433 0.687944 0.290661
0.682786 0.684087 0.285063
1.081229 0.675735 0.272198
1.489605 0.658961 0.246807
-0.103728 1.071907 0.218142
-0.020078 1.071167 0.216578
0.646541 1.068523 0.209154
1.061213 1.063939 0.190438
1.470232 1.056428 0.147465
-0.214054 1.463724 -0.019145
-0.125814 1.463194 -0.019562
0.569679 1.461169 -0.021471
1.029244 1.457695 -0.025844
1.448693 1.452680 -0.033783
-0.016387 -0.000872 0.764286
0.313570 -0.003660 0.751419
0.711240 -0.013448 0.724822
1.110765 -0.034119 0.704686
1.519029 -0.068974 0.688362
-0.014275 0.317713 0.720296
0.308319 0.315711 0.715448
0.698411 0.303376 0.705460
1.098275 0.263933 0.694448
1.508374 0.148331 0.682382
-0.039237 0.686444 0.687723
0.258744 0.685407 0.686195
0.681699 0.681699 0.681699
1.079646 0.673481 0.675493
1.487127 0.656889 0.667239
-0.102831 1.069227 0.661378
-0.019202 1.068527 0.660633
0.646815 1.065996 0.657855
1.060515 1.061552 0.653055
1.468685 1.054205 0.645898
-0.211331 1.461185 0.626367
-0.123214 1.460674 0.625839
0.571454 1.458719 0.623654
1.029323 1.455350 0.619356
1.447913 1.450463 0.612429
-0.044124 -0.008619 1.200641
0.258747 -0.010047 1.185592
0.699972 -0.018157 1.153565
1.105774 -0.037876 1.125948
1.515358 -0.071879 1.104182
-0.037252 0.309563 1.145691
0.263538 0.307577 1.139987
0.690160 0.294866 1.125945
1.094625 0.254423 1.110270
1.505370 0.128929 1.094944
-0.052459 0.683371 1.098702
0.223243 0.682448 1.096601
0.676014 0.678870 1.090376
1.077282 0.670673 1.082546
1.485072 0.654112 1.073904
-0.108926 1.066508 1.068406
-0.024780 1.065855 1.067450
0.643583 1.063439 1.064089
1.059085 1.059085 1.059085
1.467278 1.051808 1.053000
-0.212476 1.458391 1.042031
-0.124236 1.457904 1.041487
0.570766 1.456021 1.039374
1.028861 1.452744 1.035757
1.447111 1.447946 1.030857
-0.091051 -0.018299 1.638582
-0.003675 -0.019524 1.626902
0.676320 -0.026874 1.595994
1.096071 -0.045425 1.563874
1.509860 -0.078267 1.536543
-0.079780 0.293481 1.586050
0.088378 0.291280 1.580325
0.670220 0.277644 1.563905
1.086725 0.234220 1.543985
1.500798 0.062149 1.524233
-0.082973 0.678911 1.526966
-0.000757 0.678089 1.524504
0.660267 0.674623 1.516744
1.071365 0.666400 1.506598
1.481823 0.649797 1.495648
-0.128599 1.063512 1.487822
-0.043388 1.062914 1.486622
0.631707 1.060627 1.482376
1.054641 1.056354 1.476134
1.464858 1.049109 1.468962
-0.223731 1.455604 1.458111
-0.135026 1.455143 1.457444
0.562261 1.453346 1.454887
1.025892 1.450157 1.450689
1.445424 1.445424 1.445424
