data/manual_verify/v02_three_shot_luts/scene_0001.cube
# Generated by Local Color Service V0.1.3 using OpenColorIO Baker
# Recipe Hash: 894872e8854880a057cd44575bc9cd98f009ed1ded788104df9f431df11fe9f8
# OCIO Config: studio-config-v4.0.0_aces-v2.0_ocio-v2.5
LUT_3D_SIZE 33
0.017853 0.017853 0.017853
0.036264 0.017412 0.017411
0.067848 0.015315 0.015315
0.100694 0.008845 0.008844
0.133818 -0.000040 -0.000040
0.167188 -0.000115 -0.000114
0.206347 -0.000319 -0.000223
0.246712 -0.000610 -0.000347
0.287773 -0.001001 -0.000490
0.329374 -0.001508 -0.000656
0.371356 -0.002145 -0.000851
0.413556 -0.002916 -0.001074
0.455839 -0.003827 -0.001329
0.498059 -0.004828 -0.001621
0.540375 -0.005864 -0.001951
0.582950 -0.007025 -0.002309
0.625749 -0.008313 -0.002699
0.668750 -0.009733 -0.003123
0.711934 -0.011288 -0.003586
0.755288 -0.012980 -0.004090
0.798795 -0.014814 -0.004637
0.842445 -0.016793 -0.005230
0.886229 -0.018918 -0.005885
0.930158 -0.021193 -0.006604
0.974227 -0.023623 -0.007372
1.018429 -0.026210 -0.008192
1.062758 -0.028957 -0.009065
1.107208 -0.031870 -0.009990
1.151774 -0.034949 -0.010970
1.196451 -0.038198 -0.012006
1.241235 -0.041619 -0.013097
1.286122 -0.045215 -0.014246
1.331107 -0.048989 -0.015452
0.015961 0.035771 0.015961
0.035606 0.035606 0.015442
0.067577 0.034890 0.012876
0.100538 0.033368 -0.000003
0.133714 0.030711 -0.000055
0.167164 0.026059 -0.000129
0.206377 -0.000046 -0.000238
0.246706 -0.000336 -0.000361
0.287727 -0.000726 -0.000504
0.329286 -0.001231 -0.000670
0.371227 -0.001865 -0.000864
0.413384 -0.002633 -0.001087
0.455627 -0.003540 -0.001341
0.497810 -0.004514 -0.001634
0.540147 -0.005544 -0.001962
0.582740 -0.006699 -0.002318
0.625555 -0.007983 -0.002707
0.668569 -0.009398 -0.003131
0.711765 -0.010947 -0.003594
0.755129 -0.012636 -0.004097
0.798647 -0.014465 -0.004644
0.842304 -0.016439 -0.005236
0.886096 -0.018560 -0.005893
0.930033 -0.020832 -0.006611
0.974108 -0.023258 -0.007380
1.018316 -0.025841 -0.008200
1.062651 -0.028586 -0.009072
1.107105 -0.031495 -0.009998
1.151676 -0.034571 -0.010978
1.196358 -0.037817 -0.012014
1.241146 -0.041235 -0.013105
1.286036 -0.044829 -0.014254
1.331026 -0.048600 -0.015461
-0.000016 0.066762 -0.000016
0.032575 0.066693 -0.000019
0.066399 0.066399 -0.000035
0.099868 0.065796 -0.000067
0.133265 0.064815 -0.000119
0.167156 0.063231 -0.000194
0.206485 0.058965 -0.000301
0.246663 0.052183 -0.000423
0.287515 0.040420 -0.000563
0.328899 -0.000044 -0.000728
0.370663 -0.000666 -0.000919
0.412645 -0.001421 -0.001139
0.454693 -0.002281 -0.001393
0.496829 -0.003166 -0.001687
0.539238 -0.004172 -0.002008
0.581895 -0.005304 -0.002360
0.624766 -0.006566 -0.002745
0.667830 -0.007960 -0.003166
0.711071 -0.009490 -0.003626
0.754475 -0.011159 -0.004128
0.798028 -0.012970 -0.004674
0.841717 -0.014926 -0.005266
0.885541 -0.017031 -0.005926
0.929508 -0.019286 -0.006644
0.973611 -0.021697 -0.007413
1.017843 -0.024265 -0.008234
1.062200 -0.026995 -0.009106
1.106675 -0.029890 -0.010032
1.151265 -0.032953 -0.011013
1.195964 -0.036186 -0.012048
1.240769 -0.039592 -0.013140
1.285675 -0.043173 -0.014289
1.330679 -0.046933 -0.015496
-0.000146 0.099039 -0.000146
0.024734 0.099000 -0.000150
0.063913 0.098831 -0.000166
0.098487 0.098487 -0.000198
0.132347 0.097933 -0.000249
0.167464 0.096897 -0.000327
0.206619 0.094694 -0.000429
0.246499 0.091511 -0.000547
0.287019 0.086974 -0.000684
0.328056 0.080550 -0.000844
0.369466 0.071394 -0.001031
0.411056 0.059671 -0.001256
0.452964 0.039694 -0.001509
0.495177 -0.000404 -0.001789
0.537664 -0.001365 -0.002099
0.580398 -0.002454 -0.002443
0.623343 -0.003673 -0.002821
0.666477 -0.005026 -0.003238
0.709783 -0.006517 -0.003694
0.753248 -0.008149 -0.004193
0.796858 -0.009924 -0.004737
0.840599 -0.011846 -0.005328
0.884478 -0.013917 -0.005995
0.928495 -0.016140 -0.006714
0.972645 -0.018520 -0.007483
1.016922 -0.021059 -0.008304
1.061319 -0.023761 -0.009177
1.105833 -0.026629 -0.010103
1.150458 -0.029665 -0.011084
1.195191 -0.032872 -0.012120
1.240026 -0.036252 -0.013212
1.284961 -0.039809 -0.014361
1.329991 -0.043545 -0.015568
-0.000354 0.131602 -0.000354
-0.000069 0.131576 -0.000358
0.059629 0.131462 -0.000374
0.096221 0.131232 -0.000406
0.130862 0.130862 -0.000458
0.167784 0.130042 -0.000537
0.206562 0.128792 -0.000635
0.245900 0.127331 -0.000753
0.285875 0.125359 -0.000891
0.326448 0.122672 -0.001050
0.367536 0.119119 -0.001232
0.409053 0.114519 -0.001440
0.450944 0.108616 -0.001676
0.493166 0.101022 -0.001942
0.535680 0.091074 -0.002241
0.578455 0.077417 -0.002575
0.621448 0.056115 -0.002945
0.664636 -0.000299 -0.003356
0.707999 -0.001733 -0.003807
0.751521 -0.003309 -0.004302
0.795187 -0.005030 -0.004843
0.838988 -0.006899 -0.005444
0.882930 -0.008918 -0.006113
0.927009 -0.011093 -0.006832
0.971217 -0.013425 -0.007601
1.015550 -0.015919 -0.008422
1.060000 -0.018577 -0.009295
1.104564 -0.021402 -0.010221
1.149237 -0.024396 -0.011202
1.194015 -0.027563 -0.012238
1.238893 -0.030904 -0.013330
1.283867 -0.034423 -0.014479
1.328936 -0.038121 -0.015687
-0.000951 0.167468 -0.000693
-0.000666 0.167459 -0.000697
0.043887 0.167419 -0.000712
0.089189 0.167336 -0.000744
0.127252 0.167149 -0.000795
0.166223 0.166721 -0.000867
0.205140 0.166116 -0.000953
0.244473 0.165261 -0.001054
0.284352 0.164077 -0.001175
0.324791 0.162481 -0.001316
0.365741 0.160394 -0.001482
0.407140 0.157734 -0.001675
0.448939 0.154408 -0.001897
0.491095 0.150306 -0.002151
0.533568 0.145292 -0.002439
0.576322 0.139190 -0.002764
0.619312 0.131759 -0.003127
0.662510 0.122629 -0.003530
0.705895 0.111182 -0.003977
0.749446 0.096224 -0.004467
0.793147 0.074732 -0.005006
0.836999 0.027449 -0.005625
0.880997 -0.001774 -0.006293
0.925131 -0.003884 -0.007011
0.969396 -0.006154 -0.007780
1.013784 -0.008587 -0.008599
1.058290 -0.011185 -0.009472
1.102907 -0.013952 -0.010398
1.147632 -0.016889 -0.011378
1.192459 -0.020000 -0.012414
1.237385 -0.023287 -0.013505
1.282407 -0.026753 -0.014655
1.327521 -0.030399 -0.015862
-0.001917 0.205188 -0.001089
-0.001631 0.205174 -0.001093
-0.000407 0.205115 -0.001106
0.077595 0.204967 -0.001134
0.122944 0.204708 -0.001178
0.163618 0.204365 -0.001236
0.203280 0.203913 -0.001309
0.242915 0.203310 -0.001398
0.282870 0.202505 -0.001506
0.323267 0.201443 -0.001635
0.364116 0.200070 -0.001790
0.405394 0.198332 -0.001971
0.447074 0.196173 -0.002183
0.489123 0.193535 -0.002427
0.531506 0.190354 -0.002706
0.574188 0.186559 -0.003022
0.617123 0.182075 -0.003378
0.660284 0.176801 -0.003775
0.703646 0.170613 -0.004216
0.747187 0.163346 -0.004702
0.790900 0.154765 -0.005268
0.834778 0.144523 -0.005885
0.878808 0.132061 -0.006550
0.922981 0.116362 -0.007266
0.967287 0.095155 -0.008032
1.011719 0.060171 -0.008850
1.056270 -0.001348 -0.009721
1.100934 -0.004042 -0.010645
1.145706 -0.006908 -0.011624
1.190582 -0.009949 -0.012658
1.235555 -0.013167 -0.013749
1.280623 -0.016565 -0.014898
1.325782 -0.020145 -0.016104
-0.003106 0.243359 -0.001544
-0.002799 0.243339 -0.001546
-0.001474 0.243255 -0.001558
0.061819 0.243099 -0.001580
0.116304 0.242873 -0.001615
0.159737 0.242578 -0.001663
0.200678 0.242205 -0.001726
0.240951 0.241732 -0.001806
0.281207 0.241128 -0.001904
0.321710 0.240354 -0.002025
0.362550 0.239373 -0.002171
0.403760 0.238145 -0.002344
0.445343 0.236630 -0.002547
0.487284 0.234787 -0.002783
0.529562 0.232576 -0.003055
0.572144 0.229954 -0.003364
0.614992 0.226880 -0.003713
0.658078 0.223304 -0.004105
0.701380 0.219172 -0.004544
0.744888 0.214425 -0.005061
0.788585 0.208985 -0.005625
0.832457 0.202759 -0.006238
0.876492 0.195626 -0.006899
0.920676 0.187428 -0.007611
0.965001 0.177943 -0.008373
1.009458 0.166854 -0.009188
1.054038 0.153670 -0.010055
1.098735 0.137536 -0.010977
1.143542 0.116745 -0.011953
1.188455 0.086547 -0.012986
1.233468 -0.000322 -0.014074
1.278576 -0.003639 -0.015221
1.323776 -0.007140 -0.016425
-0.004433 0.281990 -0.002074
-0.004115 0.281972 -0.002076
-0.002749 0.281901 -0.002084
0.016837 0.281765 -0.002102
0.106387 0.281564 -0.002131
0.154181 0.281301 -0.002172
0.197049 0.280976 -0.002228
0.238340 0.280577 -0.002301
0.279153 0.280085 -0.002392
0.319938 0.279477 -0.002506
0.360896 0.278725 -0.002645
0.402126 0.277799 -0.002811
0.443669 0.276668 -0.003008
0.485537 0.275302 -0.003237
0.527723 0.273669 -0.003502
0.570206 0.271740 -0.003805
0.612956 0.269485 -0.004148
0.655956 0.266876 -0.004560
0.699192 0.263883 -0.005025
0.742645 0.260467 -0.005535
0.786299 0.256593 -0.006093
0.830138 0.252213 -0.006699
0.874149 0.247279 -0.007355
0.918320 0.241728 -0.008060
0.962639 0.235490 -0.008818
1.007098 0.228473 -0.009627
1.051686 0.220563 -0.010490
1.096398 0.211612 -0.011407
1.141225 0.201418 -0.012380
1.186160 0.189693 -0.013408
1.231199 0.176007 -0.014494
1.276336 0.159658 -0.015637
1.321567 0.139341 -0.016838
-0.006059 0.321073 -0.002699
-0.005732 0.321059 -0.002701
-0.004328 0.320996 -0.002708
-0.001453 0.320875 -0.002723
0.091404 0.320694 -0.002748
0.146497 0.320456 -0.002784
0.192140 0.320161 -0.002835
0.234886 0.319807 -0.002902
0.276534 0.319382 -0.002988
0.317797 0.318872 -0.003096
0.359019 0.318257 -0.003229
0.400377 0.317516 -0.003389
0.441960 0.316625 -0.003580
0.483810 0.315559 -0.003803
0.525942 0.314295 -0.004067
0.568354 0.312812 -0.004393
0.611028 0.311088 -0.004762
0.653954 0.309100 -0.005174
0.697116 0.306826 -0.005631
0.740501 0.304239 -0.006134
0.784094 0.301315 -0.006684
0.827880 0.298028 -0.007282
0.871848 0.294347 -0.007930
0.915983 0.290241 -0.008628
0.960276 0.285672 -0.009379
1.004715 0.280600 -0.010182
1.049293 0.274974 -0.011038
1.093999 0.268740 -0.011950
1.138825 0.261827 -0.012916
1.183767 0.254150 -0.013940
1.228817 0.245602 -0.015020
1.273970 0.236044 -0.016158
1.319219 0.225291 -0.017355
-0.007997 0.360523 -0.003440
-0.007661 0.360510 -0.003442
-0.006222 0.360455 -0.003448
-0.003279 0.360346 -0.003461
0.066145 0.360182 -0.003484
0.136052 0.359963 -0.003517
0.185691 0.359692 -0.003564
0.230416 0.359367 -0.003627
0.273199 0.358986 -0.003708
0.315152 0.358538 -0.003811
0.356798 0.358011 -0.003942
0.398407 0.357390 -0.004113
0.440127 0.356658 -0.004321
0.482038 0.355795 -0.004563
0.524181 0.354784 -0.004843
0.566564 0.353606 -0.005162
0.609189 0.352242 -0.005522
0.652052 0.350676 -0.005926
0.695147 0.348888 -0.006373
0.738463 0.346859 -0.006867
0.781990 0.344571 -0.007408
0.825714 0.342005 -0.007997
0.869625 0.339140 -0.008637
0.913711 0.335955 -0.009327
0.957961 0.332428 -0.010069
1.002365 0.328533 -0.010864
1.046913 0.324243 -0.011713
1.091596 0.319528 -0.012616
1.136408 0.314353 -0.013576
1.181340 0.308679 -0.014592
1.226385 0.302456 -0.015666
1.271537 0.295632 -0.016798
1.316792 0.288138 -0.017989
-0.010257 0.400290 -0.004339
-0.009914 0.400278 -0.004340
-0.008442 0.400228 -0.004347
-0.005437 0.400130 -0.004362
-0.000590 0.399981 -0.004387
0.121722 0.399779 -0.004423
0.177379 0.399529 -0.004475
0.224749 0.399231 -0.004544
0.269026 0.398884 -0.004634
0.311908 0.398483 -0.004747
0.354152 0.398021 -0.004887
0.396146 0.397485 -0.005056
0.438108 0.396864 -0.005258
0.480160 0.396142 -0.005493
0.522374 0.395306 -0.005766
0.564776 0.394340 -0.006077
0.607387 0.393229 -0.006429
0.650214 0.391959 -0.006823
0.693259 0.390514 -0.007261
0.736517 0.388880 -0.007745
0.779981 0.387040 -0.008277
0.823644 0.384979 -0.008856
0.867495 0.382683 -0.009486
0.911523 0.380136 -0.010166
0.955721 0.377321 -0.010899
1.000077 0.374221 -0.011685
1.044584 0.370816 -0.012524
1.089232 0.367089 -0.013419
1.134015 0.363015 -0.014370
1.178923 0.358573 -0.015378
1.223949 0.353736 -0.016443
1.269089 0.348475 -0.017567
1.314335 0.342757 -0.018750
-0.012853 0.440369 -0.005448
-0.012503 0.440359 -0.005450
-0.011000 0.440314 -0.005457
-0.007936 0.440225 -0.005472
-0.003002 0.440089 -0.005497
0.101020 0.439904 -0.005533
0.166706 0.439674 -0.005584
0.217670 0.439399 -0.005652
0.263882 0.439080 -0.005740
0.307958 0.438714 -0.005851
0.350984 0.438297 -0.005987
0.393503 0.437822 -0.006152
0.435815 0.437279 -0.006348
0.478097 0.436657 -0.006577
0.520449 0.435944 -0.006842
0.562927 0.435130 -0.007146
0.605567 0.434202 -0.007489
0.648393 0.433146 -0.007874
0.691414 0.431950 -0.008303
0.734633 0.430602 -0.008777
0.778048 0.429088 -0.009299
0.821656 0.427395 -0.009868
0.865450 0.425512 -0.010487
0.909423 0.423425 -0.011157
0.953565 0.421122 -0.011879
0.997870 0.418588 -0.012654
1.042328 0.415812 -0.013483
1.086933 0.412777 -0.014368
1.131676 0.409469 -0.015309
1.176549 0.405873 -0.016306
1.221546 0.401971 -0.017362
1.266661 0.397744 -0.018476
1.311886 0.393173 -0.019650
-0.015804 0.480742 -0.006715
-0.015446 0.480733 -0.006716
-0.013916 0.480692 -0.006724
-0.010797 0.480612 -0.006739
-0.005781 0.480487 -0.006763
0.064781 0.480317 -0.006800
0.152840 0.480104 -0.006851
0.208885 0.479848 -0.006918
0.257600 0.479552 -0.007004
0.303184 0.479214 -0.007112
0.347199 0.478832 -0.007246
0.390392 0.478400 -0.007406
0.433172 0.477914 -0.007597
0.475776 0.477363 -0.007821
0.518341 0.476741 -0.008079
0.560955 0.476036 -0.008375
0.603676 0.475239 -0.008710
0.646541 0.474340 -0.009086
0.689571 0.473327 -0.009506
0.732777 0.472189 -0.009970
0.776164 0.470916 -0.010481
0.819732 0.469497 -0.011039
0.863480 0.467921 -0.011647
0.907401 0.466177 -0.012306
0.951491 0.464255 -0.013017
0.995744 0.462144 -0.013780
1.040152 0.459833 -0.014598
1.084708 0.457311 -0.015472
1.129405 0.454566 -0.016401
1.174238 0.451586 -0.017388
1.219197 0.448359 -0.018432
1.264278 0.444872 -0.019536
1.309474 0.441111 -0.020699
-0.019124 0.521374 -0.008144
-0.018760 0.521365 -0.008145
-0.017204 0.521328 -0.008153
-0.014034 0.521254 -0.008168
-0.008941 0.521140 -0.008193
-0.001654 0.520983 -0.008229
0.134317 0.520784 -0.008280
0.198022 0.520546 -0.008346
0.250015 0.520268 -0.008431
0.297483 0.519952 -0.008537
0.342719 0.519596 -0.008668
0.386749 0.519198 -0.008825
0.430119 0.518753 -0.009011
0.473138 0.518256 -0.009229
0.515993 0.517699 -0.009481
0.558809 0.517076 -0.009770
0.601666 0.516377 -0.010097
0.644615 0.515594 -0.010464
0.687691 0.514718 -0.010874
0.730914 0.513740 -0.011329
0.774296 0.512649 -0.011829
0.817844 0.511438 -0.012377
0.861560 0.510096 -0.012973
0.905442 0.508615 -0.013621
0.949488 0.506985 -0.014319
0.993693 0.505197 -0.015071
1.038052 0.503242 -0.015877
1.082560 0.501111 -0.016738
1.127210 0.498793 -0.017656
1.171996 0.496281 -0.018630
1.216914 0.493563 -0.019663
1.261956 0.490630 -0.020755
1.307115 0.487472 -0.021906
-0.022824 0.562236 -0.009740
-0.022455 0.562228 -0.009742
-0.020874 0.562194 -0.009749
-0.017656 0.562126 -0.009765
-0.012489 0.562020 -0.009790
-0.005104 0.561875 -0.009826
0.107637 0.561689 -0.009876
0.184519 0.561466 -0.009942
0.240908 0.561205 -0.010026
0.290735 0.560908 -0.010131
0.337460 0.560574 -0.010259
0.382505 0.560202 -0.010412
0.426593 0.559789 -0.010595
0.470126 0.559332 -0.010808
0.513354 0.558826 -0.011054
0.556440 0.558264 -0.011336
0.599488 0.557639 -0.011655
0.642569 0.556945 -0.012014
0.685731 0.556174 -0.012415
0.729005 0.555317 -0.012860
0.772411 0.554368 -0.013349
0.815962 0.553317 -0.013886
0.859665 0.552157 -0.014472
0.903522 0.550879 -0.015107
0.947535 0.549477 -0.015794
0.991702 0.547940 -0.016533
1.036019 0.546263 -0.017327
1.080481 0.544437 -0.018175
1.125085 0.542453 -0.019080
1.169827 0.540304 -0.020042
1.214700 0.537982 -0.021061
1.259699 0.535478 -0.022140
1.304819 0.532784 -0.023279
-0.026916 0.603311 -0.011510
-0.026542 0.603304 -0.011511
-0.024938 0.603273 -0.011519
-0.021673 0.603210 -0.011534
-0.016436 0.603111 -0.011560
-0.008956 0.602976 -0.011596
0.056551 0.602802 -0.011646
0.167422 0.602592 -0.011712
0.229982 0.602346 -0.011795
0.282793 0.602065 -0.011898
0.331329 0.601750 -0.012024
0.377590 0.601400 -0.012175
0.422532 0.601014 -0.012353
0.466686 0.600589 -0.012561
0.510374 0.600122 -0.012802
0.553799 0.599607 -0.013077
0.597098 0.599040 -0.013390
0.640361 0.598415 -0.013741
0.683653 0.597724 -0.014133
0.727014 0.596963 -0.014568
0.770475 0.596123 -0.015048
0.814054 0.595198 -0.015574
0.857766 0.594180 -0.016148
0.901618 0.593063 -0.016772
0.945611 0.591840 -0.017446
0.989751 0.590503 -0.018173
1.034034 0.589045 -0.018954
1.078459 0.587460 -0.019789
1.123024 0.585741 -0.020681
1.167723 0.583881 -0.021629
1.212553 0.581872 -0.022636
1.257510 0.579708 -0.023701
1.302588 0.577382 -0.024826
-0.031410 0.644585 -0.013457
-0.031031 0.644578 -0.013459
-0.029405 0.644549 -0.013467
-0.026097 0.644491 -0.013482
-0.020792 0.644399 -0.013508
-0.013221 0.644272 -0.013544
-0.003138 0.644109 -0.013594
0.144881 0.643911 -0.013659
0.216809 0.643679 -0.013742
0.273475 0.643412 -0.013844
0.324219 0.643114 -0.013968
0.371923 0.642783 -0.014116
0.417876 0.642419 -0.014291
0.462768 0.642020 -0.014495
0.507005 0.641584 -0.014731
0.550844 0.641107 -0.015000
0.594455 0.640585 -0.015306
0.637953 0.640013 -0.015649
0.681418 0.639387 -0.016033
0.724905 0.638700 -0.016459
0.768453 0.637946 -0.016929
0.812091 0.637120 -0.017445
0.855836 0.636216 -0.018008
0.899701 0.635227 -0.018620
0.943695 0.634147 -0.019282
0.987821 0.632969 -0.019997
1.032084 0.631688 -0.020764
1.076481 0.630297 -0.021587
1.121011 0.628791 -0.022464
1.165673 0.627163 -0.023399
1.210465 0.625406 -0.024391
1.255381 0.623516 -0.025443
1.300421 0.621485 -0.026555
-0.036316 0.686043 -0.015588
-0.035932 0.686037 -0.015590
-0.034285 0.686010 -0.015598
-0.030935 0.685955 -0.015613
-0.025566 0.685870 -0.015639
-0.017907 0.685751 -0.015675
-0.007714 0.685598 -0.015725
0.112169 0.685410 -0.015790
0.200733 0.685190 -0.015872
0.262538 0.684938 -0.015973
0.315998 0.684654 -0.016095
0.365421 0.684339 -0.016241
0.412563 0.683994 -0.016413
0.458319 0.683617 -0.016613
0.503203 0.683207 -0.016844
0.547534 0.682760 -0.017108
0.591521 0.682275 -0.017408
0.635308 0.681746 -0.017744
0.678993 0.681170 -0.018120
0.722645 0.680543 -0.018537
0.766316 0.679858 -0.018998
0.810041 0.679112 -0.019503
0.853846 0.678298 -0.020055
0.897748 0.677412 -0.020656
0.941760 0.676447 -0.021307
0.985891 0.675398 -0.022009
1.030145 0.674260 -0.022763
1.074526 0.673027 -0.023572
1.119033 0.671694 -0.024436
1.163667 0.670254 -0.025357
1.208425 0.668703 -0.026336
1.253307 0.667036 -0.027374
1.298309 0.665247 -0.028472
-0.041644 0.727675 -0.017907
-0.041254 0.727669 -0.017908
-0.039588 0.727644 -0.017916
-0.036198 0.727593 -0.017932
-0.030766 0.727513 -0.017957
-0.023023 0.727401 -0.017994
-0.012724 0.727256 -0.018044
0.036753 0.727079 -0.018109
0.180618 0.726870 -0.018190
0.249638 0.726630 -0.018290
0.306504 0.726360 -0.018411
0.357988 0.726061 -0.018555
0.406527 0.725732 -0.018724
0.453289 0.725373 -0.018921
0.498924 0.724985 -0.019148
0.543829 0.724564 -0.019407
0.588260 0.724107 -0.019700
0.632392 0.723614 -0.020030
0.676344 0.723079 -0.020398
0.720204 0.722500 -0.020807
0.764033 0.721871 -0.021258
0.807877 0.721189 -0.021754
0.851769 0.720448 -0.022296
0.895733 0.719645 -0.022885
0.939784 0.718774 -0.023524
0.983938 0.717830 -0.024214
1.028201 0.716809 -0.024956
1.072578 0.715705 -0.025752
1.117073 0.714513 -0.026603
1.161687 0.713230 -0.027511
1.206422 0.711848 -0.028476
1.251275 0.710365 -0.029500
1.296243 0.708774 -0.030583
-0.047401 0.769470 -0.020417
-0.047007 0.769464 -0.020419
-0.045322 0.769441 -0.020427
-0.041894 0.769393 -0.020443
-0.036403 0.769317 -0.020468
-0.028578 0.769211 -0.020505
-0.018179 0.769075 -0.020555
-0.004975 0.768907 -0.020619
0.154171 0.768709 -0.020700
0.234285 0.768480 -0.020799
0.295537 0.768223 -0.020919
0.349516 0.767937 -0.021061
0.399696 0.767623 -0.021227
0.447624 0.767281 -0.021421
0.494126 0.766911 -0.021644
0.539693 0.766511 -0.021898
0.584638 0.766080 -0.022186
0.629173 0.765615 -0.022510
0.673442 0.765114 -0.022871
0.717552 0.764574 -0.023272
0.761577 0.763991 -0.023715
0.805574 0.763361 -0.024201
0.849581 0.762681 -0.024733
0.893631 0.761946 -0.025312
0.937745 0.761151 -0.025940
0.981940 0.760294 -0.026618
1.026228 0.759369 -0.027349
1.070617 0.758372 -0.028132
1.115114 0.757297 -0.028970
1.159721 0.756142 -0.029864
1.204440 0.754901 -0.030816
1.249270 0.753570 -0.031825
1.294215 0.752145 -0.032895
-0.053602 0.811418 -0.023124
-0.053203 0.811413 -0.023126
-0.051500 0.811391 -0.023133
-0.048037 0.811345 -0.023149
-0.042491 0.811275 -0.023175
-0.034591 0.811175 -0.023212
-0.024094 0.811046 -0.023262
-0.010775 0.810887 -0.023326
0.115137 0.810698 -0.023406
0.215714 0.810480 -0.023505
0.282831 0.810234 -0.023623
0.339870 0.809960 -0.023764
0.391989 0.809660 -0.023928
0.441268 0.809333 -0.024119
0.488763 0.808978 -0.024338
0.535086 0.808598 -0.024589
0.580622 0.808187 -0.024872
0.625620 0.807747 -0.025190
0.670260 0.807274 -0.025545
0.714664 0.806766 -0.025939
0.758923 0.806221 -0.026374
0.803104 0.805634 -0.026851
0.847257 0.805004 -0.027374
0.891419 0.804325 -0.027943
0.935619 0.803594 -0.028560
0.979877 0.802808 -0.029227
1.024209 0.801962 -0.029945
1.068627 0.801054 -0.030717
1.113138 0.800077 -0.031542
1.157749 0.799029 -0.032422
1.202464 0.797906 -0.033360
1.247284 0.796703 -0.034356
1.292211 0.795417 -0.035411
-0.060262 0.853512 -0.026032
-0.059860 0.853508 -0.026034
-0.058139 0.853486 -0.026041
-0.054643 0.853444 -0.026057
-0.049043 0.853377 -0.026083
-0.041069 0.853283 -0.026120
-0.030479 0.853160 -0.026170
-0.017048 0.853009 -0.026234
-0.000561 0.852830 -0.026314
0.192595 0.852621 -0.026412
0.268013 0.852386 -0.026530
0.328884 0.852123 -0.026669
0.383308 0.851836 -0.026832
0.434154 0.851522 -0.027020
0.482788 0.851182 -0.027237
0.529973 0.850817 -0.027483
0.576177 0.850426 -0.027762
0.621706 0.850006 -0.028074
0.666768 0.849557 -0.028424
0.711512 0.849077 -0.028811
0.756044 0.848562 -0.029238
0.800446 0.848012 -0.029708
0.844775 0.847422 -0.030222
0.889077 0.846790 -0.030781
0.933386 0.846113 -0.031388
0.977729 0.845387 -0.032044
1.022123 0.844607 -0.032751
1.066587 0.843773 -0.033510
1.111128 0.842878 -0.034323
1.155757 0.841920 -0.035190
1.200480 0.840896 -0.036114
1.245299 0.839800 -0.037096
1.290217 0.838631 -0.038137
-0.067391 0.895745 -0.029147
-0.066986 0.895741 -0.029149
-0.065250 0.895720 -0.029156
-0.061720 0.895680 -0.029172
-0.056070 0.895616 -0.029198
-0.048025 0.895527 -0.029235
-0.037344 0.895411 -0.029285
-0.023804 0.895267 -0.029349
-0.007190 0.895096 -0.029429
0.162174 0.894897 -0.029527
0.250540 0.894671 -0.029643
0.316340 0.894420 -0.029781
0.373541 0.894143 -0.029943
0.426212 0.893842 -0.030129
0.476150 0.893516 -0.030343
0.524313 0.893165 -0.030586
0.571274 0.892789 -0.030860
0.617400 0.892388 -0.031169
0.662942 0.891959 -0.031512
0.708072 0.891502 -0.031893
0.752920 0.891015 -0.032314
0.797578 0.890495 -0.032776
0.842113 0.889940 -0.033281
0.886583 0.889347 -0.033831
0.931027 0.888714 -0.034428
0.975475 0.888038 -0.035074
1.019954 0.887315 -0.035770
1.064479 0.886542 -0.036517
1.109068 0.885717 -0.037317
1.153730 0.884835 -0.038172
1.198471 0.883894 -0.039082
1.243301 0.882890 -0.040050
1.288221 0.881821 -0.041077
-0.075000 0.938109 -0.032473
-0.074591 0.938104 -0.032474
-0.072840 0.938085 -0.032482
-0.069279 0.938047 -0.032498
-0.063578 0.937986 -0.032524
-0.055467 0.937902 -0.032562
-0.044699 0.937791 -0.032611
-0.031053 0.937654 -0.032676
-0.014315 0.937490 -0.032755
0.116272 0.937301 -0.032853
0.229544 0.937084 -0.032969
0.301950 0.936842 -0.033105
0.362545 0.936577 -0.033265
0.417357 0.936287 -0.033450
0.468791 0.935972 -0.033661
0.518062 0.935635 -0.033901
0.565875 0.935274 -0.034172
0.612675 0.934888 -0.034476
0.658755 0.934478 -0.034814
0.704323 0.934041 -0.035189
0.749528 0.933576 -0.035603
0.794476 0.933083 -0.036058
0.839252 0.932557 -0.036555
0.883917 0.931998 -0.037097
0.928521 0.931402 -0.037685
0.973100 0.930769 -0.038320
1.017681 0.930093 -0.039005
1.062290 0.929373 -0.039741
1.106940 0.928606 -0.040529
1.151649 0.927789 -0.041371
1.196426 0.926919 -0.042268
1.241277 0.925993 -0.043223
1.286211 0.925007 -0.044235
-0.083099 0.980597 -0.036014
-0.082686 0.980593 -0.036016
-0.080920 0.980575 -0.036024
-0.077329 0.980539 -0.036040
-0.071582 0.980482 -0.036066
-0.063404 0.980401 -0.036103
-0.052552 0.980295 -0.036153
-0.038802 0.980164 -0.036217
-0.021945 0.980008 -0.036297
-0.001777 0.979826 -0.036394
0.203483 0.979618 -0.036509
0.285300 0.979386 -0.036645
0.350140 0.979130 -0.036804
0.407492 0.978850 -0.036987
0.460649 0.978548 -0.037196
