data/manual_verify/ref_candidates/candidate_a.cube
# Generated by Local Color Service V0.1.3 using OpenColorIO Baker
# Recipe Hash: 386281ddaa5a9d8a9892905eea2d8f33ad9dcc19b85f9f1e89321bff0a97c573
# OCIO Config: studio-config-v4.0.0_aces-v2.0_ocio-v2.5
LUT_3D_SIZE 5
0.049005 0.049005 0.049005
0.256769 0.044406 0.048203
0.512086 0.034858 0.041453
0.765020 0.053463 0.034291
1.016776 0.072899 0.046289
0.026672 0.257351 0.040540
0.257310 0.257320 0.038095
0.511776 0.257549 0.027962
0.764762 0.258562 0.037309
1.016578 0.260723 0.048310
0.057865 0.511379 0.041724
0.258622 0.511350 0.042210
0.511394 0.511301 0.044562
0.764140 0.511399 0.049666
1.015968 0.511829 0.057406
0.089874 0.763787 0.064207
0.263180 0.763768 0.064490
0.512075 0.763705 0.065802
0.763812 0.763658 0.068732
1.015327 0.763718 0.073637
0.123040 1.015018 0.087699
0.271593 1.015002 0.087897
0.514396 1.014949 0.088770
0.764286 1.014877 0.090680
1.015052 1.014833 0.093947
0.044336 0.048448 0.257173
0.256939 0.043185 0.257259
0.512054 0.035261 0.257391
0.764973 0.053564 0.257587
1.016739 0.072952 0.258127
0.028917 0.257349 0.257327
0.257321 0.257321 0.257321
0.511722 0.257549 0.257372
0.764718 0.258565 0.257625
1.016541 0.260728 0.258209
0.057575 0.511370 0.257737
0.258563 0.511343 0.257755
0.511348 0.511295 0.257865
0.764102 0.511395 0.258185
1.015936 0.511827 0.258833
0.089610 0.763781 0.259500
0.263112 0.763762 0.259530
0.512035 0.763700 0.259674
0.763780 0.763653 0.260028
1.015299 0.763714 0.260701
0.122837 1.015012 0.263072
0.271518 1.014998 0.263108
0.514357 1.014945 0.263271
0.764258 1.014873 0.263643
1.015028 1.014830 0.264316
0.021162 0.045324 0.511502
0.257580 0.037331 0.511508
0.511993 0.037255 0.511474
0.764867 0.054482 0.511427
1.016633 0.073448 0.511454
0.038345 0.257372 0.511447
0.257602 0.257361 0.511432
0.511668 0.257607 0.511392
0.764616 0.258628 0.511371
1.016439 0.260787 0.511422
0.059127 0.511353 0.511300
0.258660 0.511328 0.511295
0.511287 0.511287 0.511287
0.764008 0.511393 0.511310
1.015840 0.511829 0.511410
0.089536 0.763763 0.511484
0.263052 0.763744 0.511486
0.511953 0.763685 0.511503
0.763689 0.763641 0.511563
1.015211 0.763705 0.511706
0.122410 1.014997 0.512280
0.271354 1.014983 0.512287
0.514256 1.014931 0.512322
0.764169 1.014861 0.512409
1.014946 1.014819 0.512584
0.056109 0.034320 0.764089
0.259221 0.032711 0.764076
0.512161 0.041989 0.764020
0.764818 0.057045 0.763946
1.016526 0.074945 0.763886
0.055679 0.257537 0.764003
0.258814 0.257549 0.763990
0.511843 0.257823 0.763945
0.764573 0.258849 0.763886
1.016333 0.260998 0.763838
0.066547 0.511355 0.763795
0.259505 0.511335 0.763787
0.511423 0.511306 0.763759
0.763965 0.511423 0.763727
1.015741 0.511866 0.763711
0.091903 0.763744 0.763657
0.263497 0.763726 0.763653
0.512012 0.763672 0.763642
0.763634 0.763634 0.763634
1.015113 0.763703 0.763649
0.122932 1.014975 0.763764
0.271479 1.014961 0.763764
0.514234 1.014912 0.763766
0.764093 1.014844 0.763779
1.014848 1.014806 0.763821
0.077742 0.041258 1.015454
0.261827 0.042628 1.015441
0.512755 0.049160 1.015395
0.764940 0.061604 1.015323
1.016488 0.077842 1.015245
0.075971 0.257941 1.015383
0.261353 0.257974 1.015372
0.512441 0.258282 1.015331
0.764700 0.259312 1.015268
1.016300 0.261441 1.015198
0.080177 0.511410 1.015180
0.261585 0.511395 1.015173
0.511956 0.511383 1.015144
0.764086 0.511516 1.015098
1.015711 0.511969 1.015049
0.098511 0.763739 1.014958
0.264952 0.763723 1.014954
0.512413 0.763676 1.014935
0.763724 0.763647 1.014906
1.015079 0.763724 1.014879
0.125783 1.014955 1.014832
0.272362 1.014942 1.014830
0.514484 1.014896 1.014819
0.764137 1.014833 1.014807
1.014800 1.014800 1.014800
