data/manual_verify/ref_candidates/candidate_a.cube
# Generated by Local Color Service V0.1.3 using OpenColorIO Baker
# Recipe Hash: 386281ddaa5a9d8a9892905eea2d8f33ad9dcc19b85f9f1e89321bff0a97c573
# OCIO Config: studio-config-v4.0.0_aces-v2.0_ocio-v2.5
LUT_3D_SIZE 9
0.049005 0.049005 0.049005
0.129900 0.049005 0.049005
0.256769 0.044406 0.048203
0.384993 0.030787 0.046377
0.512086 0.034858 0.041453
0.638727 0.044065 0.032913
0.765020 0.053463 0.034291
0.891024 0.063098 0.040238
1.016776 0.072899 0.046289
0.049005 0.129900 0.049005
0.129900 0.129900 0.049005
0.257409 0.129528 0.047674
0.384961 0.129980 0.044424
0.512008 0.130911 0.038962
0.638664 0.132408 0.029857
0.764965 0.134524 0.034837
0.890977 0.137312 0.040679
1.016737 0.140772 0.046657
0.026672 0.257351 0.040540
0.129867 0.257339 0.040075
0.257310 0.257320 0.038095
0.384738 0.257364 0.033871
0.511776 0.257549 0.027962
0.638436 0.257930 0.032343
0.764762 0.258562 0.037309
0.890798 0.259484 0.042670
1.016578 0.260723 0.048310
0.042700 0.384607 0.031071
0.131958 0.384599 0.031201
0.257653 0.384573 0.031800
0.384618 0.384553 0.033131
0.511509 0.384578 0.035352
0.638131 0.384688 0.038461
0.764457 0.384919 0.042345
0.890507 0.385302 0.046846
1.016305 0.385860 0.051821
0.057865 0.511379 0.041724
0.135509 0.511373 0.041813
0.258622 0.511350 0.042210
0.384815 0.511320 0.043078
0.511394 0.511301 0.044562
0.637873 0.511319 0.046754
0.764140 0.511399 0.049666
0.890170 0.511563 0.053246
1.015968 0.511829 0.057406
0.073603 0.637753 0.052780
0.140829 0.637748 0.052847
0.260431 0.637729 0.053142
0.385493 0.637698 0.053773
0.511554 0.637667 0.054850
0.637772 0.637649 0.056464
0.763901 0.637663 0.058667
0.889860 0.637724 0.061465
1.015624 0.637848 0.064831
0.089874 0.763787 0.064207
0.147968 0.763783 0.064260
0.263180 0.763768 0.064490
0.386727 0.763740 0.064979
0.512075 0.763705 0.065802
0.637906 0.763674 0.067034
0.763812 0.763658 0.068732
0.889640 0.763668 0.070930
1.015327 0.763718 0.073637
0.106381 0.889530 0.075858
0.156722 0.889527 0.075902
0.266894 0.889514 0.076090
0.388569 0.889488 0.076485
0.513009 0.889455 0.077142
0.638330 0.889420 0.078121
0.763927 0.889390 0.079471
0.889561 0.889374 0.081235
1.015125 0.889382 0.083436
0.123040 1.015018 0.087699
0.166882 1.015014 0.087738
0.271593 1.015002 0.087897
0.391050 1.014981 0.088223
0.514396 1.014949 0.088770
0.639085 1.014913 0.089572
0.764286 1.014877 0.090680
0.889662 1.014848 0.092128
1.015052 1.014833 0.093947
0.049005 0.049005 0.129900
0.129900 0.049005 0.129900
0.256885 0.044302 0.129693
0.385046 0.030616 0.129525
0.512098 0.035034 0.129818
0.638718 0.044103 0.130240
0.765010 0.053473 0.130879
0.891015 0.063106 0.131758
1.016769 0.072903 0.132896
0.049005 0.129900 0.129900
0.129900 0.129900 0.129900
0.257509 0.129570 0.129586
0.384998 0.130014 0.129602
0.512015 0.130932 0.129855
0.638652 0.132410 0.130290
0.764954 0.134526 0.130938
0.890968 0.137314 0.131823
1.016728 0.140774 0.132966
0.028204 0.257357 0.129655
0.130023 0.257345 0.129663
0.257347 0.257325 0.129712
0.384739 0.257366 0.129851
0.511762 0.257548 0.130128
0.638424 0.257929 0.130582
0.764752 0.258562 0.131247
0.890790 0.259484 0.132146
1.016570 0.260724 0.133300
0.042573 0.384605 0.130413
0.131928 0.384596 0.130426
0.257636 0.384571 0.130487
0.384604 0.384551 0.130637
0.511497 0.384576 0.130921
0.638121 0.384686 0.131377
0.764449 0.384918 0.132042
0.890499 0.385301 0.132940
1.016298 0.385860 0.134092
0.057772 0.511377 0.131916
0.135478 0.511371 0.131931
0.258606 0.511348 0.131999
0.384803 0.511318 0.132155
0.511383 0.511300 0.132437
0.637864 0.511318 0.132886
0.764132 0.511398 0.133536
0.890163 0.511562 0.134416
1.015962 0.511829 0.135547
0.073528 0.637751 0.134292
0.140797 0.637747 0.134308
0.260415 0.637728 0.134381
0.385482 0.637697 0.134541
0.511545 0.637665 0.134822
0.637764 0.637648 0.135259
0.763894 0.637662 0.135886
0.889853 0.637723 0.136731
1.015618 0.637848 0.137818
0.089813 0.763786 0.137611
0.147935 0.763782 0.137628
0.263165 0.763766 0.137703
0.386717 0.763739 0.137863
0.512067 0.763704 0.138137
0.637899 0.763673 0.138558
0.763806 0.763657 0.139155
0.889633 0.763668 0.139958
1.015322 0.763717 0.140991
0.106330 0.889529 0.141878
0.156691 0.889526 0.141895
0.266880 0.889512 0.141971
0.388557 0.889488 0.142128
0.513002 0.889454 0.142396
0.638323 0.889419 0.142799
0.763922 0.889389 0.143367
0.889555 0.889373 0.144126
1.015119 0.889382 0.145101
0.122997 1.015017 0.147077
0.166853 1.015013 0.147095
0.271574 1.015002 0.147169
0.391040 1.014980 0.147325
0.514387 1.014949 0.147583
0.639078 1.014912 0.147969
0.764280 1.014877 0.148508
0.889657 1.014847 0.149224
1.015048 1.014833 0.150139
0.044336 0.048448 0.257173
0.128773 0.048445 0.257206
0.256939 0.043185 0.257259
0.385035 0.028756 0.257371
0.512054 0.035261 0.257391
0.638678 0.044240 0.257454
0.764973 0.053564 0.257587
0.890982 0.063170 0.257807
1.016739 0.072952 0.258127
0.044189 0.129755 0.257346
0.129477 0.129699 0.257375
0.257488 0.129597 0.257366
0.384955 0.130041 0.257357
0.511971 0.130957 0.257377
0.638612 0.132433 0.257448
0.764918 0.134547 0.257589
0.890935 0.137332 0.257815
1.016699 0.140791 0.258139
0.028917 0.257349 0.257327
0.130064 0.257338 0.257325
0.257321 0.257321 0.257321
0.384700 0.257365 0.257331
0.511722 0.257549 0.257372
0.638386 0.257931 0.257465
0.764718 0.258565 0.257625
0.890758 0.259487 0.257869
1.016541 0.260728 0.258209
0.042535 0.384597 0.257404
0.131902 0.384589 0.257405
0.257601 0.384564 0.257412
0.384566 0.384546 0.257437
0.511460 0.384572 0.257497
0.638086 0.384684 0.257609
0.764416 0.384916 0.257788
0.890470 0.385300 0.258051
1.016272 0.385859 0.258408
0.057575 0.511370 0.257737
0.135409 0.511364 0.257741
0.258563 0.511343 0.257755
0.384766 0.511313 0.257792
0.511348 0.511295 0.257865
0.637832 0.511314 0.257991
0.764102 0.511395 0.258185
0.890135 0.511559 0.258462
1.015936 0.511827 0.258833
0.073311 0.637746 0.258415
0.140705 0.637741 0.258419
0.260366 0.637722 0.258439
0.385445 0.637692 0.258485
0.511512 0.637661 0.258569
0.637734 0.637644 0.258705
0.763866 0.637658 0.258909
0.889827 0.637720 0.259194
1.015594 0.637845 0.259573
0.089610 0.763781 0.259500
0.147832 0.763777 0.259506
0.263112 0.763762 0.259530
0.386679 0.763734 0.259582
0.512035 0.763700 0.259674
0.637870 0.763669 0.259818
0.763780 0.763653 0.260028
0.889610 0.763664 0.260319
1.015299 0.763714 0.260701
0.106144 0.889526 0.261040
0.156579 0.889522 0.261047
0.266822 0.889508 0.261074
0.388519 0.889484 0.261131
0.512970 0.889451 0.261229
0.638296 0.889415 0.261379
0.763897 0.889385 0.261594
0.889532 0.889370 0.261887
1.015098 0.889379 0.262269
0.122837 1.015012 0.263072
0.166744 1.015010 0.263079
0.271518 1.014998 0.263108
0.391002 1.014976 0.263169
0.514357 1.014945 0.263271
0.639053 1.014909 0.263426
0.764258 1.014873 0.263643
0.889635 1.014845 0.263936
1.015028 1.014830 0.264316
0.033055 0.047386 0.384611
0.127933 0.046990 0.384623
0.257135 0.040959 0.384639
0.385043 0.027812 0.384674
0.512009 0.035943 0.384648
0.638626 0.044675 0.384639
0.764921 0.053860 0.384659
0.890931 0.063382 0.384717
1.016691 0.073108 0.384823
0.032618 0.129557 0.384695
0.130120 0.129567 0.384693
0.257559 0.129692 0.384673
0.384937 0.130136 0.384648
0.511928 0.131045 0.384628
0.638561 0.132514 0.384625
0.764866 0.134620 0.384649
0.890885 0.137397 0.384711
1.016651 0.140849 0.384820
0.032235 0.257350 0.384610
0.130422 0.257341 0.384607
0.257378 0.257329 0.384595
0.384682 0.257378 0.384582
0.511681 0.257564 0.384575
0.638337 0.257949 0.384585
0.764668 0.258583 0.384623
0.890709 0.259505 0.384698
1.016495 0.260745 0.384819
0.043607 0.384589 0.384552
0.132091 0.384582 0.384551
0.257626 0.384559 0.384546
0.384543 0.384543 0.384543
0.511420 0.384571 0.384549
0.638039 0.384685 0.384574
0.764368 0.384919 0.384628
0.890423 0.385304 0.384719
1.016227 0.385864 0.384855
0.057816 0.511361 0.384597
0.135462 0.511355 0.384597
0.258555 0.511334 0.384598
0.384735 0.511306 0.384603
0.511307 0.511290 0.384621
0.637787 0.511310 0.384659
0.764056 0.511392 0.384727
0.890090 0.511557 0.384833
1.015893 0.511826 0.384986
0.073243 0.637737 0.384808
0.140665 0.637732 0.384809
0.260330 0.637714 0.384814
0.385405 0.637684 0.384827
0.511469 0.637654 0.384854
0.637689 0.637638 0.384904
0.763822 0.637653 0.384984
0.889785 0.637716 0.385103
1.015553 0.637842 0.385269
0.089420 0.763773 0.385236
0.147730 0.763770 0.385237
0.263053 0.763754 0.385246
0.386631 0.763727 0.385265
0.511990 0.763693 0.385301
0.637826 0.763663 0.385360
0.763737 0.763647 0.385450
0.889569 0.763659 0.385580
1.015260 0.763710 0.385755
0.105911 0.889518 0.385920
0.156438 0.889515 0.385923
0.266745 0.889502 0.385934
0.388464 0.889477 0.385958
0.512923 0.889444 0.386000
0.638252 0.889410 0.386066
0.763855 0.889380 0.386165
0.889493 0.889365 0.386302
1.015061 0.889374 0.386485
0.122586 1.015006 0.386889
0.166585 1.015003 0.386892
0.271428 1.014992 0.386905
0.390940 1.014970 0.386933
0.514307 1.014940 0.386980
0.639008 1.014903 0.387053
0.764217 1.014868 0.387158
0.889598 1.014840 0.387301
1.014992 1.014825 0.387490
0.021162 0.045324 0.511502
0.129629 0.043870 0.511503
0.257580 0.037331 0.511508
0.385092 0.029876 0.511507
0.511993 0.037255 0.511474
0.638584 0.045554 0.511445
0.764867 0.054482 0.511427
0.890874 0.063836 0.511428
1.016633 0.073448 0.511454
0.036384 0.129736 0.511532
0.131200 0.129751 0.511527
0.257807 0.129889 0.511510
0.384989 0.130332 0.511484
0.511913 0.131232 0.511454
0.638520 0.132687 0.511429
0.764813 0.134779 0.511414
0.890828 0.137541 0.511418
1.016594 0.140977 0.511447
0.038345 0.257372 0.511447
0.131294 0.257366 0.511444
0.257602 0.257361 0.511432
0.384732 0.257417 0.511413
0.511668 0.257607 0.511392
0.638298 0.257994 0.511376
0.764616 0.258628 0.511371
0.890654 0.259550 0.511384
1.016439 0.260787 0.511422
0.046616 0.384587 0.511354
0.132705 0.384580 0.511352
0.257794 0.384560 0.511344
0.384580 0.384548 0.511332
0.511405 0.384580 0.511321
0.638001 0.384696 0.511315
0.764319 0.384932 0.511323
0.890369 0.385318 0.511348
1.016171 0.385879 0.511397
0.059127 0.511353 0.511300
0.135834 0.511347 0.511299
0.258660 0.511328 0.511295
0.384753 0.511301 0.511290
0.511287 0.511287 0.511287
0.637748 0.511310 0.511292
0.764008 0.511393 0.511310
0.890038 0.511560 0.511348
1.015840 0.511829 0.511410
0.073747 0.637727 0.511331
0.140851 0.637722 0.511331
0.260378 0.637705 0.511330
0.385402 0.637676 0.511330
0.511441 0.637647 0.511335
0.637648 0.637633 0.511349
0.763774 0.637649 0.511378
0.889734 0.637713 0.511426
1.015502 0.637840 0.511500
0.089536 0.763763 0.511484
0.147774 0.763759 0.511484
0.263052 0.763744 0.511486
0.386607 0.763717 0.511492
0.511953 0.763685 0.511503
0.637782 0.763656 0.511525
0.763689 0.763641 0.511563
0.889520 0.763654 0.511621
1.015211 0.763705 0.511706
0.105827 0.889508 0.511792
0.156386 0.889505 0.511793
0.266702 0.889492 0.511796
0.388421 0.889468 0.511806
0.512878 0.889436 0.511823
0.638206 0.889401 0.511852
0.763807 0.889372 0.511898
0.889445 0.889359 0.511965
1.015013 0.889369 0.512058
0.122410 1.014997 0.512280
0.166458 1.014994 0.512281
0.271354 1.014983 0.512287
0.390883 1.014961 0.512300
0.514256 1.014931 0.512322
0.638958 1.014896 0.512357
0.764169 1.014861 0.512409
0.889551 1.014832 0.512484
1.014946 1.014819 0.512584
0.041381 0.040866 0.637969
0.132155 0.039267 0.637969
0.258343 0.031629 0.637970
0.385255 0.032793 0.637948
0.512035 0.039275 0.637914
0.638572 0.046982 0.637879
0.764828 0.055522 0.637847
0.890822 0.064612 0.637824
1.016575 0.074041 0.637814
0.046164 0.130046 0.637972
0.132936 0.130069 0.637968
0.258298 0.130219 0.637953
0.385155 0.130662 0.637928
0.511957 0.131548 0.637896
0.638508 0.132985 0.637863
0.764776 0.135056 0.637834
0.890777 0.137793 0.637813
1.016536 0.141206 0.637805
0.046422 0.257431 0.637894
0.132825 0.257427 0.637891
0.258062 0.257430 0.637879
0.384894 0.257495 0.637859
0.511714 0.257690 0.637834
0.638289 0.258078 0.637808
0.764580 0.258713 0.637786
0.890604 0.259633 0.637772
1.016382 0.260868 0.637771
0.051789 0.384598 0.637792
0.133918 0.384592 0.637790
0.258179 0.384576 0.637781
0.384723 0.384568 0.637767
0.511446 0.384604 0.637748
0.637991 0.384724 0.637731
0.764284 0.384963 0.637717
0.890321 0.385351 0.637712
1.016116 0.385912 0.637720
0.061983 0.511349 0.637699
0.136710 0.511345 0.637698
0.258954 0.511326 0.637692
0.384866 0.511303 0.637682
0.511317 0.511291 0.637670
0.637735 0.511317 0.637660
0.763972 0.511402 0.637656
0.889990 0.511571 0.637661
1.015786 0.511842 0.637679
0.075250 0.637718 0.637648
0.141440 0.637714 0.637647
0.260587 0.637697 0.637644
0.385479 0.637670 0.637639
0.511456 0.637643 0.637633
0.637630 0.637630 0.637630
0.763737 0.637649 0.637634
0.889687 0.637714 0.637649
1.015449 0.637842 0.637677
0.090272 0.763753 0.637669
0.148125 0.763749 0.637668
0.263177 0.763734 0.637667
0.386648 0.763708 0.637666
0.511952 0.763677 0.637665
0.637757 0.763649 0.637669
0.763650 0.763636 0.637681
0.889473 0.763650 0.637704
1.015158 0.763702 0.637742
0.106128 0.889497 0.637786
0.156546 0.889494 0.637786
0.266757 0.889482 0.637787
0.388429 0.889458 0.637789
0.512860 0.889427 0.637793
0.638173 0.889393 0.637804
0.763765 0.889365 0.637822
0.889396 0.889353 0.637852
1.014961 0.889364 0.637898
0.122462 1.014986 0.638023
0.166479 1.014984 0.638024
0.271352 1.014972 0.638026
0.390861 1.014951 0.638030
0.514223 1.014921 0.638039
0.638918 1.014887 0.638055
0.764123 1.014853 0.638080
0.889501 1.014826 0.638117
1.014894 1.014813 0.638170
0.056109 0.034320 0.764089
0.135555 0.032368 0.764088
0.259221 0.032711 0.764076
0.385567 0.036410 0.764052
0.512161 0.041989 0.764020
0.638608 0.049001 0.763983
0.764818 0.057045 0.763946
0.890787 0.065775 0.763913
1.016526 0.074945 0.763886
0.056271 0.130517 0.764073
0.135399 0.130546 0.764070
0.259087 0.130707 0.764057
0.385470 0.131148 0.764034
0.512086 0.132019 0.764003
0.638547 0.133433 0.763969
0.764767 0.135476 0.763934
0.890742 0.138181 0.763901
1.016487 0.141561 0.763876
0.055679 0.257537 0.764003
0.135109 0.257537 0.764000
0.258814 0.257549 0.763990
0.385204 0.257622 0.763971
0.511843 0.257823 0.763945
0.638329 0.258215 0.763915
0.764573 0.258849 0.763886
0.890570 0.259766 0.763859
1.016333 0.260998 0.763838
0.058797 0.384628 0.763902
0.135851 0.384624 0.763900
0.258843 0.384611 0.763892
0.385008 0.384609 0.763876
0.511568 0.384651 0.763856
0.638030 0.384775 0.763833
0.764277 0.385017 0.763810
0.890288 0.385407 0.763790
1.016070 0.385969 0.763777
0.066547 0.511355 0.763795
0.138237 0.511351 0.763793
0.259505 0.511335 0.763787
0.385112 0.511314 0.763775
0.511423 0.511306 0.763759
0.637768 0.511334 0.763743
0.763965 0.511423 0.763727
0.889960 0.511594 0.763715
1.015741 0.511866 0.763711
0.078036 0.637714 0.763705
0.142584 0.637710 0.763704
0.261022 0.637694 0.763699
0.385675 0.637669 0.763691
0.511541 0.637644 0.763680
0.637654 0.637634 0.763669
0.763726 0.637654 0.763661
0.889655 0.637721 0.763657
1.015404 0.637851 0.763660
0.091903 0.763744 0.763657
0.148927 0.763740 0.763656
0.263497 0.763726 0.763653
0.386794 0.763702 0.763648
0.512012 0.763672 0.763642
0.637770 0.763646 0.763636
0.763634 0.763634 0.763634
0.889438 0.763649 0.763637
1.015113 0.763703 0.763649
0.107048 0.889486 0.763670
0.157065 0.889484 0.763670
0.266976 0.889471 0.763669
0.388527 0.889449 0.763666
0.512897 0.889418 0.763664
0.638173 0.889386 0.763663
0.763743 0.889359 0.763667
0.889360 0.889347 0.763677
1.014915 0.889360 0.763696
0.122932 1.014975 0.763764
0.166781 1.014972 0.763764
0.271479 1.014961 0.763764
0.390915 1.014940 0.763764
0.514234 1.014912 0.763766
0.638905 1.014877 0.763771
0.764093 1.014844 0.763779
0.889461 1.014818 0.763795
1.014848 1.014806 0.763821
0.067285 0.035891 0.889901
0.138885 0.036188 0.889898
0.260342 0.037561 0.889886
0.386060 0.040560 0.889864
0.512395 0.045317 0.889835
0.638712 0.051605 0.889800
0.764851 0.059075 0.889762
0.890779 0.067361 0.889723
1.016494 0.076205 0.889688
0.066621 0.131168 0.889884
0.138627 0.131201 0.889881
0.260210 0.131371 0.889870
0.385966 0.131812 0.889849
0.512321 0.132666 0.889821
0.638651 0.134054 0.889786
0.764800 0.136063 0.889749
0.890735 0.138726 0.889712
1.016456 0.142064 0.889678
0.065630 0.257704 0.889821
0.138186 0.257706 0.889819
0.259900 0.257727 0.889809
0.385694 0.257810 0.889791
0.512079 0.258018 0.889766
0.638435 0.258412 0.889736
0.764609 0.259046 0.889703
0.890565 0.259959 0.889670
1.016303 0.261186 0.889640
0.067142 0.384685 0.889725
0.138574 0.384682 0.889723
0.259835 0.384674 0.889715
0.385469 0.384678 0.889700
0.511795 0.384726 0.889679
0.638134 0.384855 0.889653
0.764313 0.385100 0.889627
0.890284 0.385492 0.889599
1.016041 0.386055 0.889575
0.072704 0.511374 0.889613
0.140512 0.511370 0.889612
0.260368 0.511356 0.889605
0.385524 0.511339 0.889593
0.511629 0.511335 0.889576
0.637865 0.511368 0.889556
0.763998 0.511460 0.889534
0.889955 0.511633 0.889514
1.015713 0.511908 0.889497
0.082228 0.637716 0.889505
0.144401 0.637713 0.889504
0.261741 0.637698 0.889498
0.386026 0.637675 0.889489
0.511719 0.637653 0.889476
0.637739 0.637645 0.889461
0.763755 0.637668 0.889445
0.889649 0.637738 0.889431
1.015376 0.637870 0.889421
0.094623 0.763739 0.889419
0.150302 0.763735 0.889418
0.264071 0.763722 0.889414
0.387079 0.763699 0.889407
0.512159 0.763671 0.889398
0.637838 0.763646 0.889388
0.763654 0.763637 0.889377
0.889429 0.763654 0.889369
1.015084 0.763710 0.889366
0.108766 0.889478 0.889373
0.158061 0.889475 0.889372
0.267416 0.889463 0.889369
0.388748 0.889441 0.889365
0.513010 0.889411 0.889359
0.638223 0.889381 0.889353
0.763753 0.889356 0.889348
0.889346 0.889346 0.889346
1.014884 0.889358 0.889349
0.123995 1.014964 0.889381
0.167457 1.014962 0.889381
0.271797 1.014951 0.889380
0.391075 1.014931 0.889377
0.514315 1.014903 0.889374
0.638936 1.014870 0.889372
0.764094 1.014837 0.889372
0.889440 1.014812 0.889375
1.014812 1.014802 0.889384
0.077742 0.041258 1.015454
0.142880 0.041503 1.015452
0.261827 0.042628 1.015441
0.386759 0.045102 1.015422
0.512755 0.049160 1.015395
0.638897 0.054747 1.015362
0.764940 0.061604 1.015323
0.890809 0.069388 1.015284
1.016488 0.077842 1.015245
0.077167 0.132014 1.015439
0.142622 0.132050 1.015436
0.261696 0.132228 1.015426
0.386668 0.132668 1.015408
0.512683 0.133507 1.015382
0.638838 0.134867 1.015349
0.764889 0.136834 1.015313
0.890766 0.139450 1.015273
1.016450 0.142737 1.015235
0.075971 0.257941 1.015383
0.142053 0.257946 1.015381
0.261353 0.257974 1.015372
0.386389 0.258067 1.015355
0.512441 0.258282 1.015331
0.638624 0.258679 1.015302
0.764700 0.259312 1.015268
0.890597 0.260222 1.015233
1.016300 0.261441 1.015198
0.076406 0.384774 1.015292
0.142115 0.384772 1.015290
0.261192 0.384769 1.015282
0.386133 0.384779 1.015268
0.512145 0.384834 1.015248
0.638320 0.384969 1.015222
0.764404 0.385219 1.015193
0.890318 0.385613 1.015163
1.016039 0.386176 1.015132
0.080177 0.511410 1.015180
0.143594 0.511407 1.015179
0.261585 0.511395 1.015173
0.386132 0.511382 1.015161
0.511956 0.511383 1.015144
0.638041 0.511420 1.015122
0.764086 0.511516 1.015098
0.889988 0.511693 1.015073
1.015711 0.511969 1.015049
0.087779 0.637728 1.015064
0.146969 0.637725 1.015063
0.262794 0.637712 1.015058
0.386561 0.637692 1.015049
0.512013 0.637672 1.015035
0.637899 0.637668 1.015017
0.763835 0.637694 1.014998
0.889679 0.637767 1.014977
1.015373 0.637901 1.014960
0.098511 0.763739 1.014958
0.152346 0.763736 1.014958
0.264952 0.763723 1.014954
0.387535 0.763702 1.014946
0.512413 0.763676 1.014935
0.637978 0.763654 1.014921
0.763724 0.763647 1.014906
0.889454 0.763666 1.014892
1.015079 0.763724 1.014879
0.111424 0.889472 1.014876
0.159633 0.889469 1.014876
0.268131 0.889458 1.014873
0.389126 0.889437 1.014868
0.513222 0.889409 1.014858
0.638340 0.889379 1.014849
0.763810 0.889356 1.014839
0.889363 0.889348 1.014829
1.014875 0.889363 1.014822
0.125783 1.014955 1.014832
0.168628 1.014953 1.014831
0.272362 1.014942 1.014830
0.391379 1.014923 1.014825
0.514484 1.014896 1.014819
0.639029 1.014864 1.014813
0.764137 1.014833 1.014807
0.889450 1.014809 1.014802
1.014800 1.014800 1.014800
