data/manual_verify/ref_candidates/candidate_a.cube
# Generated by Local Color Service V0.1.3 using OpenColorIO Baker
# Recipe Hash: 386281ddaa5a9d8a9892905eea2d8f33ad9dcc19b85f9f1e89321bff0a97c573
# OCIO Config: studio-config-v4.0.0_aces-v2.0_ocio-v2.5
LUT_3D_SIZE 33
0.049005 0.049005 0.049005
0.055302 0.049005 0.049005
0.074997 0.049005 0.049005
0.101212 0.049005 0.049005
0.129900 0.049005 0.049005
0.159640 0.049005 0.049005
0.192047 0.047883 0.048801
0.224490 0.046327 0.048527
0.256769 0.044406 0.048203
0.288935 0.042048 0.047828
0.321017 0.039144 0.047400
0.353033 0.035507 0.046917
0.384993 0.030787 0.046377
0.416860 0.028056 0.045575
0.448628 0.030317 0.044357
0.480369 0.032584 0.042990
0.512086 0.034858 0.041453
0.543780 0.037141 0.039721
0.575451 0.039433 0.037758
0.607100 0.041740 0.035514
0.638727 0.044065 0.032913
0.670332 0.046403 0.030319
0.701914 0.048740 0.031354
0.733476 0.051093 0.032819
0.765020 0.053463 0.034291
0.796546 0.055850 0.035769
0.828055 0.058254 0.037252
0.859547 0.060671 0.038742
0.891024 0.063098 0.040238
0.922484 0.065534 0.041742
0.953929 0.067980 0.043251
0.985360 0.070434 0.044766
1.016776 0.072899 0.046289
0.049005 0.055302 0.049005
0.055302 0.055302 0.049005
0.074997 0.055302 0.049005
0.101212 0.055302 0.049005
0.129900 0.055302 0.049005
0.159641 0.055301 0.049005
0.192096 0.054337 0.048796
0.224528 0.053043 0.048522
0.256799 0.051467 0.048199
0.288959 0.049573 0.047824
0.321037 0.047305 0.047396
0.353051 0.044586 0.046912
0.385008 0.041301 0.046373
0.416856 0.040375 0.045494
0.448624 0.041762 0.044274
0.480366 0.043236 0.042905
0.512083 0.044790 0.041365
0.543777 0.046419 0.039629
0.575449 0.048116 0.037661
0.607098 0.049880 0.035410
0.638724 0.051708 0.032800
0.670330 0.053590 0.030273
0.701912 0.055513 0.031375
0.733474 0.057485 0.032840
0.765018 0.059506 0.034311
0.796544 0.061571 0.035787
0.828053 0.063676 0.037269
0.859546 0.065817 0.038758
0.891022 0.067990 0.040254
0.922483 0.070189 0.041756
0.953928 0.072416 0.043265
0.985358 0.074669 0.044781
1.016775 0.076942 0.046302
0.049005 0.074997 0.049005
0.055302 0.074997 0.049005
0.074997 0.074997 0.049005
0.101212 0.074997 0.049005
0.129900 0.074997 0.049005
0.159736 0.074975 0.048998
0.192304 0.074311 0.048776
0.224688 0.073486 0.048503
0.256927 0.072501 0.048180
0.289064 0.071348 0.047805
0.321124 0.070013 0.047378
0.353124 0.068484 0.046895
0.385041 0.067388 0.046234
0.416839 0.067969 0.045145
0.448609 0.068620 0.043919
0.480352 0.069341 0.042541
0.512070 0.070132 0.040989
0.543765 0.070992 0.039236
0.575437 0.071922 0.037245
0.607087 0.072922 0.034964
0.638714 0.073993 0.032310
0.670320 0.075132 0.030145
0.701902 0.076329 0.031469
0.733465 0.077593 0.032928
0.765009 0.078923 0.034393
0.796536 0.080316 0.035865
0.828045 0.081770 0.037343
0.859538 0.083282 0.038829
0.891015 0.084848 0.040320
0.922475 0.086465 0.041820
0.953921 0.088132 0.043326
0.985352 0.089844 0.044839
1.016769 0.091602 0.046358
0.049005 0.101212 0.049005
0.055302 0.101212 0.049005
0.074997 0.101212 0.049005
0.101212 0.101212 0.049005
0.129900 0.101212 0.049005
0.160266 0.101121 0.048958
0.192724 0.100683 0.048736
0.225012 0.100149 0.048464
0.257185 0.099517 0.048142
0.289275 0.098784 0.047768
0.321295 0.098004 0.047323
0.353175 0.098106 0.046509
0.385008 0.098373 0.045538
0.416809 0.098684 0.044438
0.448580 0.099042 0.043196
0.480325 0.099445 0.041797
0.512045 0.099897 0.040217
0.543741 0.100397 0.038428
0.575415 0.100947 0.036388
0.607066 0.101549 0.034040
0.638695 0.102204 0.031289
0.670300 0.102908 0.030223
0.701883 0.103663 0.031661
0.733447 0.104472 0.033108
0.764992 0.105335 0.034562
0.796519 0.106253 0.036025
0.828029 0.107225 0.037494
0.859523 0.108248 0.038972
0.891000 0.109322 0.040457
0.922461 0.110447 0.041951
0.953908 0.111621 0.043451
0.985338 0.112845 0.044959
1.016755 0.114117 0.046473
0.049005 0.129900 0.049005
0.055302 0.129900 0.049005
0.074997 0.129900 0.049005
0.101212 0.129900 0.049005
0.129900 0.129900 0.049005
0.161160 0.129744 0.048892
0.193368 0.129500 0.048644
0.225423 0.129476 0.048219
0.257409 0.129528 0.047674
0.289352 0.129603 0.047029
0.321256 0.129702 0.046278
0.353126 0.129826 0.045413
0.384961 0.129980 0.044424
0.416765 0.130164 0.043302
0.448539 0.130380 0.042031
0.480286 0.130628 0.040592
0.512008 0.130911 0.038962
0.543706 0.131229 0.037106
0.575382 0.131584 0.034977
0.607035 0.131976 0.032505
0.638664 0.132408 0.029857
0.670269 0.132875 0.030558
0.701854 0.133383 0.031974
0.733419 0.133932 0.033401
0.764965 0.134524 0.034837
0.796493 0.135158 0.036283
0.828004 0.135834 0.037740
0.859499 0.136552 0.039204
0.890977 0.137312 0.040679
0.922439 0.138113 0.042161
0.953886 0.138958 0.043653
0.985318 0.139844 0.045151
1.016737 0.140772 0.046657
0.043939 0.161280 0.048015
0.051087 0.161288 0.048010
0.072262 0.161325 0.047987
0.099358 0.161401 0.047940
0.129180 0.161483 0.047828
0.161292 0.161480 0.047547
0.193358 0.161484 0.047180
0.225379 0.161496 0.046722
0.257357 0.161521 0.046166
0.289296 0.161559 0.045507
0.321200 0.161613 0.044737
0.353069 0.161686 0.043847
0.384906 0.161778 0.042826
0.416711 0.161893 0.041663
0.448487 0.162030 0.040340
0.480236 0.162192 0.038835
0.511960 0.162379 0.037118
0.543661 0.162593 0.035149
0.575338 0.162834 0.032867
0.606992 0.163104 0.030177
0.638621 0.163403 0.029676
0.670228 0.163730 0.031043
0.701814 0.164090 0.032426
0.733380 0.164482 0.033823
0.764928 0.164906 0.035234
0.796458 0.165364 0.036658
0.827970 0.165855 0.038094
0.859466 0.166379 0.039541
0.890945 0.166937 0.040998
0.922409 0.167530 0.042466
0.953856 0.168158 0.043943
0.985290 0.168820 0.045429
1.016709 0.169517 0.046923
0.032111 0.193434 0.046193
0.042188 0.193440 0.046188
0.067194 0.193467 0.046165
0.097343 0.193490 0.046073
0.129323 0.193483 0.045868
0.161348 0.193478 0.045579
0.193365 0.193475 0.045201
0.225357 0.193478 0.044728
0.257318 0.193488 0.044151
0.289247 0.193507 0.043465
0.321146 0.193537 0.042660
0.353012 0.193579 0.041727
0.384847 0.193637 0.040652
0.416652 0.193710 0.039420
0.448429 0.193800 0.038010
0.480179 0.193909 0.036394
0.511904 0.194037 0.034532
0.543606 0.194185 0.032368
0.575285 0.194355 0.029814
0.606939 0.194547 0.029078
0.638568 0.194761 0.030374
0.670176 0.194999 0.031693
0.701763 0.195262 0.033034
0.733332 0.195551 0.034393
0.764881 0.195866 0.035771
0.796413 0.196207 0.037164
0.827927 0.196575 0.038572
0.859424 0.196970 0.039994
0.890905 0.197393 0.041429
0.922369 0.197845 0.042876
0.953818 0.198325 0.044334
0.985253 0.198834 0.045803
1.016673 0.199372 0.047281
0.022066 0.225446 0.043766
0.037102 0.225446 0.043751
0.066436 0.225443 0.043684
0.097772 0.225439 0.043549
0.129551 0.225433 0.043335
0.161464 0.225427 0.043032
0.193414 0.225421 0.042634
0.225365 0.225419 0.042133
0.257300 0.225421 0.041521
0.289213 0.225429 0.040789
0.321101 0.225445 0.039926
0.352959 0.225470 0.038920
0.384789 0.225505 0.037755
0.416591 0.225552 0.036408
0.448367 0.225613 0.034851
0.480117 0.225687 0.033044
0.511843 0.225777 0.030926
0.543545 0.225882 0.028607
0.575222 0.226004 0.028833
0.606874 0.226142 0.030030
0.638505 0.226300 0.031261
0.670115 0.226477 0.032522
0.701705 0.226673 0.033811
0.733275 0.226891 0.035124
0.764826 0.227129 0.036459
0.796359 0.227390 0.037814
0.827874 0.227672 0.039187
0.859373 0.227977 0.040577
0.890855 0.228306 0.041983
0.922321 0.228658 0.043404
0.953772 0.229034 0.044837
0.985208 0.229434 0.046283
1.016629 0.229858 0.047740
0.026672 0.257351 0.040540
0.039520 0.257351 0.040523
0.067486 0.257349 0.040451
0.098325 0.257345 0.040306
0.129867 0.257339 0.040075
0.161646 0.257333 0.039748
0.193513 0.257327 0.039315
0.225411 0.257322 0.038768
0.257310 0.257320 0.038095
0.289199 0.257322 0.037285
0.321069 0.257329 0.036324
0.352916 0.257342 0.035194
0.384738 0.257364 0.033871
0.416534 0.257395 0.032320
0.448306 0.257435 0.030495
0.480054 0.257486 0.028387
0.511776 0.257549 0.027962
0.543474 0.257623 0.028989
0.575150 0.257711 0.030064
0.606804 0.257813 0.031183
0.638436 0.257930 0.032343
0.670047 0.258063 0.033539
0.701638 0.258212 0.034767
0.733209 0.258379 0.036024
0.764762 0.258562 0.037309
0.796297 0.258765 0.038618
0.827814 0.258985 0.039949
0.859314 0.259225 0.041300
0.890798 0.259484 0.042670
0.922266 0.259763 0.044057
0.953718 0.260062 0.045460
0.985155 0.260383 0.046879
1.016578 0.260723 0.048310
0.030984 0.289219 0.036336
0.042144 0.289218 0.036317
0.068719 0.289217 0.036236
0.099003 0.289213 0.036073
0.130273 0.289208 0.035811
0.161896 0.289202 0.035439
0.193666 0.289196 0.034943
0.225497 0.289190 0.034312
0.257352 0.289185 0.033530
0.289210 0.289183 0.032578
0.321056 0.289185 0.031435
0.352886 0.289191 0.030068
0.384696 0.289203 0.028432
0.416482 0.289222 0.027363
0.448244 0.289247 0.027868
0.479984 0.289281 0.028688
0.511703 0.289324 0.029568
0.543400 0.289377 0.030505
0.575076 0.289441 0.031494
0.606729 0.289517 0.032532
0.638362 0.289605 0.033615
0.669974 0.289705 0.034740
0.701565 0.289820 0.035902
0.733138 0.289949 0.037097
0.764692 0.290092 0.038325
0.796229 0.290251 0.039581
0.827747 0.290426 0.040863
0.859249 0.290616 0.042169
0.890734 0.290823 0.043497
0.922203 0.291048 0.044846
0.953657 0.291289 0.046213
0.985095 0.291548 0.047597
1.016519 0.291826 0.048998
0.035160 0.321050 0.030597
0.044966 0.321050 0.030574
0.070145 0.321048 0.030475
0.099816 0.321045 0.030273
0.130778 0.321041 0.029948
0.162222 0.321035 0.029482
0.193877 0.321028 0.028855
0.225632 0.321022 0.028089
0.257432 0.321016 0.027453
0.289247 0.321011 0.027219
0.321060 0.321008 0.027557
0.352865 0.321009 0.028024
0.384655 0.321014 0.028559
0.416428 0.321024 0.029161
0.448182 0.321040 0.029829
0.479917 0.321062 0.030560
0.511632 0.321092 0.031352
0.543327 0.321129 0.032202
0.575001 0.321176 0.033107
0.606653 0.321232 0.034064
0.638285 0.321298 0.035070
0.669897 0.321375 0.036119
0.701489 0.321464 0.037212
0.733062 0.321564 0.038341
0.764617 0.321677 0.039507
0.796154 0.321803 0.040705
0.827674 0.321942 0.041932
0.859177 0.322095 0.043188
0.890663 0.322263 0.044468
0.922134 0.322445 0.045773
0.953588 0.322642 0.047099
0.985029 0.322854 0.048445
1.016453 0.323082 0.049811
0.039024 0.352845 0.028456
0.047775 0.352845 0.028461
0.071655 0.352843 0.028484
0.100697 0.352841 0.028529
0.131333 0.352836 0.028603
0.162585 0.352830 0.028712
0.194116 0.352824 0.028858
0.225785 0.352817 0.029048
0.257523 0.352810 0.029286
0.289293 0.352803 0.029578
0.321074 0.352799 0.029925
0.352855 0.352796 0.030332
0.384627 0.352797 0.030801
0.416386 0.352801 0.031331
0.448130 0.352810 0.031922
0.479857 0.352824 0.032575
0.511567 0.352844 0.033288
0.543257 0.352870 0.034057
0.574927 0.352904 0.034882
0.606577 0.352945 0.035761
0.638208 0.352995 0.036690
0.669818 0.353054 0.037666
0.701410 0.353123 0.038687
0.732983 0.353202 0.039749
0.764538 0.353291 0.040850
0.796076 0.353392 0.041986
0.827596 0.353503 0.043156
0.859100 0.353627 0.044356
0.890587 0.353764 0.045585
0.922059 0.353912 0.046841
0.953515 0.354074 0.048122
0.984956 0.354249 0.049426
1.016382 0.354438 0.050750
0.042700 0.384607 0.031071
0.050596 0.384607 0.031075
0.073262 0.384605 0.031095
0.101663 0.384603 0.031136
0.131958 0.384599 0.031201
0.163007 0.384594 0.031296
0.194406 0.384587 0.031424
0.225982 0.384580 0.031591
0.257653 0.384573 0.031800
0.289373 0.384566 0.032055
0.321116 0.384560 0.032360
0.352868 0.384555 0.032718
0.384618 0.384553 0.033131
0.416360 0.384553 0.033601
0.448091 0.384557 0.034127
0.479808 0.384565 0.034712
0.511509 0.384578 0.035352
0.543193 0.384596 0.036049
0.574858 0.384619 0.036801
0.606504 0.384650 0.037605
0.638131 0.384688 0.038461
0.669740 0.384733 0.039366
0.701330 0.384786 0.040317
0.732903 0.384848 0.041310
0.764457 0.384919 0.042345
0.795995 0.384999 0.043419
0.827515 0.385090 0.044528
0.859019 0.385190 0.045671
0.890507 0.385302 0.046846
0.921980 0.385424 0.048050
0.953437 0.385558 0.049281
0.984879 0.385703 0.050538
1.016305 0.385860 0.051821
0.046436 0.416340 0.033704
0.053590 0.416339 0.033709
0.075057 0.416338 0.033726
0.102771 0.416336 0.033763
0.132690 0.416332 0.033821
0.163512 0.416327 0.033905
0.194760 0.416321 0.034020
0.226232 0.416314 0.034168
0.257826 0.416307 0.034353
0.289489 0.416299 0.034579
0.321188 0.416293 0.034849
0.352906 0.416287 0.035167
0.384630 0.416282 0.035534
0.416351 0.416280 0.035953
0.448066 0.416280 0.036424
0.479770 0.416284 0.036948
0.511461 0.416291 0.037526
0.543136 0.416303 0.038158
0.574794 0.416319 0.038843
0.606435 0.416341 0.039580
0.638058 0.416369 0.040367
0.669663 0.416404 0.041203
0.701251 0.416445 0.042086
0.732822 0.416494 0.043014
0.764375 0.416550 0.043984
0.795912 0.416615 0.044994
0.827432 0.416688 0.046043
0.858936 0.416770 0.047128
0.890424 0.416861 0.048247
0.921897 0.416962 0.049398
0.953354 0.417072 0.050579
0.984797 0.417193 0.051787
1.016225 0.417324 0.053023
0.050224 0.448045 0.036356
0.056727 0.448045 0.036360
0.077032 0.448044 0.036377
0.104018 0.448041 0.036409
0.133526 0.448038 0.036462
0.164096 0.448033 0.036538
0.195179 0.448028 0.036641
0.226534 0.448021 0.036774
0.258044 0.448014 0.036940
0.289642 0.448006 0.037142
0.321293 0.447999 0.037384
0.352972 0.447992 0.037668
0.384665 0.447986 0.037997
0.416362 0.447982 0.038373
0.448058 0.447980 0.038796
0.479746 0.447980 0.039269
0.511424 0.447984 0.039792
0.543088 0.447990 0.040366
0.574738 0.448001 0.040991
0.606371 0.448017 0.041666
0.637989 0.448037 0.042390
0.669590 0.448063 0.043163
0.701175 0.448095 0.043983
0.732742 0.448133 0.044848
0.764294 0.448177 0.045756
0.795829 0.448229 0.046705
0.827348 0.448288 0.047695
0.858852 0.448354 0.048722
0.890339 0.448429 0.049784
0.921812 0.448512 0.050881
0.953270 0.448603 0.052010
0.984713 0.448704 0.053170
1.016142 0.448814 0.054357
0.054031 0.479725 0.039028
0.059968 0.479724 0.039031
0.079160 0.479723 0.039046
0.105396 0.479721 0.039076
0.134463 0.479718 0.039124
0.164761 0.479714 0.039194
0.195664 0.479708 0.039287
0.226892 0.479702 0.039407
0.258308 0.479695 0.039558
0.289836 0.479687 0.039740
0.321431 0.479680 0.039958
0.353067 0.479673 0.040215
0.384726 0.479666 0.040512
0.416396 0.479660 0.040851
0.448069 0.479656 0.041233
0.479739 0.479654 0.041663
0.511401 0.479654 0.042139
0.543052 0.479657 0.042663
0.574691 0.479663 0.043235
0.606317 0.479673 0.043856
0.637927 0.479688 0.044523
0.669522 0.479707 0.045238
0.701102 0.479730 0.045999
0.732667 0.479760 0.046805
0.764215 0.479795 0.047654
0.795748 0.479835 0.048545
0.827265 0.479883 0.049476
0.858768 0.479937 0.050447
0.890254 0.479998 0.051454
0.921726 0.480066 0.052497
0.953184 0.480142 0.053572
0.984626 0.480226 0.054682
1.016055 0.480318 0.055820
0.057865 0.511379 0.041724
0.063311 0.511378 0.041727
0.081445 0.511377 0.041742
0.106910 0.511375 0.041769
0.135509 0.511373 0.041813
0.165514 0.511368 0.041877
0.196219 0.511363 0.041963
0.227309 0.511357 0.042073
0.258622 0.511350 0.042210
0.290072 0.511343 0.042376
0.321607 0.511335 0.042575
0.353195 0.511327 0.042808
0.384815 0.511320 0.043078
0.416454 0.511313 0.043386
0.448101 0.511307 0.043735
0.479749 0.511303 0.044127
0.511394 0.511301 0.044562
0.543030 0.511301 0.045042
0.574657 0.511304 0.045567
0.606272 0.511310 0.046138
0.637873 0.511319 0.046754
0.669462 0.511333 0.047416
0.701036 0.511350 0.048123
0.732595 0.511372 0.048873
0.764140 0.511399 0.049666
0.795670 0.511431 0.050502
0.827185 0.511469 0.051378
0.858685 0.511513 0.052293
0.890170 0.511563 0.053246
0.921640 0.511619 0.054236
0.953097 0.511682 0.055259
0.984540 0.511752 0.056316
1.015968 0.511829 0.057406
0.061747 0.543007 0.044449
0.066752 0.543007 0.044451
0.083883 0.543006 0.044464
0.108562 0.543004 0.044490
0.136667 0.543002 0.044530
0.166356 0.542998 0.044590
0.196849 0.542993 0.044669
0.227788 0.542987 0.044770
0.258990 0.542980 0.044896
0.290355 0.542973 0.045048
0.321823 0.542965 0.045230
0.353358 0.542957 0.045444
0.384935 0.542949 0.045690
0.416539 0.542942 0.045973
0.448157 0.542935 0.046293
0.479781 0.542929 0.046652
0.511404 0.542925 0.047051
0.543023 0.542923 0.047491
0.574635 0.542923 0.047975
0.606238 0.542926 0.048502
0.637830 0.542931 0.049073
0.669410 0.542940 0.049687
0.700977 0.542953 0.050343
0.732530 0.542969 0.051043
0.764070 0.542989 0.051784
0.795595 0.543014 0.052567
0.827107 0.543044 0.053390
0.858604 0.543079 0.054253
0.890087 0.543120 0.055153
0.921557 0.543166 0.056090
0.953011 0.543218 0.057063
0.984453 0.543277 0.058070
1.015881 0.543341 0.059108
0.065661 0.574612 0.047200
0.070281 0.574612 0.047203
0.086468 0.574611 0.047215
0.110353 0.574609 0.047238
0.137940 0.574606 0.047276
0.167291 0.574603 0.047331
0.197556 0.574598 0.047404
0.228331 0.574592 0.047498
0.259413 0.574586 0.047615
0.290685 0.574579 0.047755
0.322081 0.574571 0.047923
0.353558 0.574563 0.048120
0.385088 0.574555 0.048347
0.416652 0.574547 0.048607
0.448237 0.574539 0.048900
0.479833 0.574533 0.049232
0.511433 0.574527 0.049599
0.543033 0.574523 0.050006
0.574629 0.574521 0.050453
0.606218 0.574521 0.050941
0.637798 0.574523 0.051469
0.669367 0.574529 0.052038
0.700926 0.574537 0.052650
0.732472 0.574548 0.053303
0.764006 0.574564 0.053996
0.795526 0.574583 0.054730
0.827034 0.574607 0.055503
0.858527 0.574634 0.056316
0.890007 0.574667 0.057166
0.921474 0.574705 0.058053
0.952927 0.574748 0.058974
0.984367 0.574796 0.059930
1.015794 0.574851 0.060918
0.069613 0.606193 0.049978
0.073894 0.606193 0.049980
0.089188 0.606192 0.049991
0.112281 0.606191 0.050013
0.139326 0.606188 0.050048
0.168321 0.606185 0.050099
0.198341 0.606180 0.050168
0.228941 0.606175 0.050255
0.259892 0.606169 0.050363
0.291065 0.606162 0.050494
0.322382 0.606154 0.050650
0.353796 0.606146 0.050832
0.385273 0.606138 0.051041
0.416795 0.606129 0.051283
0.448343 0.606121 0.051554
0.479908 0.606114 0.051859
0.511483 0.606108 0.052200
0.543061 0.606102 0.052577
0.574638 0.606098 0.052991
0.606212 0.606096 0.053444
0.637778 0.606096 0.053935
0.669336 0.606098 0.054465
0.700885 0.606103 0.055035
0.732423 0.606111 0.055645
0.763949 0.606122 0.056294
0.795464 0.606136 0.056982
0.826966 0.606154 0.057709
0.858455 0.606176 0.058473
0.889932 0.606202 0.059274
0.921395 0.606233 0.060110
0.952845 0.606268 0.060983
0.984283 0.606308 0.061888
1.015708 0.606354 0.062828
0.073603 0.637753 0.052780
0.077578 0.637753 0.052783
0.092037 0.637752 0.052793
0.114339 0.637750 0.052814
0.140829 0.637748 0.052847
0.169448 0.637745 0.052895
0.199207 0.637740 0.052960
0.229620 0.637735 0.053041
0.260431 0.637729 0.053142
0.291495 0.637722 0.053264
0.322727 0.637715 0.053408
0.354072 0.637707 0.053577
0.385493 0.637698 0.053773
0.416967 0.637690 0.053996
0.448476 0.637682 0.054249
0.480008 0.637674 0.054533
0.511554 0.637667 0.054850
0.543109 0.637660 0.055201
0.574665 0.637655 0.055586
0.606221 0.637651 0.056006
0.637772 0.637649 0.056464
0.669317 0.637649 0.056959
0.700855 0.637651 0.057491
0.732383 0.637655 0.058060
0.763901 0.637663 0.058667
0.795408 0.637673 0.059311
0.826904 0.637687 0.059992
0.858388 0.637703 0.060712
0.889860 0.637724 0.061465
0.921320 0.637749 0.062256
0.952767 0.637778 0.063080
0.984201 0.637811 0.063939
1.015624 0.637848 0.064831
0.077627 0.669291 0.055608
0.081328 0.669291 0.055610
0.095006 0.669290 0.055620
0.116529 0.669289 0.055640
0.142446 0.669287 0.055671
0.170671 0.669283 0.055716
0.200154 0.669279 0.055776
0.230367 0.669275 0.055853
0.261028 0.669269 0.055947
0.291978 0.669262 0.056062
0.323117 0.669255 0.056196
0.354387 0.669247 0.056355
0.385748 0.669238 0.056538
0.417170 0.669230 0.056747
0.448637 0.669221 0.056982
0.480133 0.669213 0.057248
0.511649 0.669205 0.057541
0.543176 0.669198 0.057868
0.574710 0.669192 0.058227
0.606246 0.669187 0.058619
0.637781 0.669183 0.059045
0.669312 0.669181 0.059507
0.700837 0.669181 0.060003
0.732354 0.669183 0.060536
0.763862 0.669187 0.061104
0.795362 0.669194 0.061708
0.826850 0.669203 0.062348
0.858328 0.669216 0.063024
0.889794 0.669232 0.063734
0.921249 0.669252 0.064481
0.952693 0.669275 0.065260
0.984125 0.669302 0.066073
1.015543 0.669333 0.066919
0.081685 0.700809 0.058459
0.085140 0.700809 0.058462
0.098091 0.700808 0.058471
0.118845 0.700807 0.058489
0.144178 0.700805 0.058518
0.171993 0.700802 0.058561
0.201185 0.700798 0.058617
0.231186 0.700793 0.058689
0.261686 0.700788 0.058778
0.292511 0.700781 0.058885
0.323552 0.700774 0.059012
0.354743 0.700766 0.059160
0.386037 0.700758 0.059330
0.417406 0.700750 0.059525
0.448827 0.700741 0.059747
0.480284 0.700733 0.059993
0.511766 0.700724 0.060268
0.543265 0.700716 0.060572
0.574775 0.700710 0.060906
0.606290 0.700703 0.061272
0.637806 0.700698 0.061670
0.669320 0.700695 0.062101
0.700831 0.700693 0.062566
0.732336 0.700692 0.063065
0.763834 0.700694 0.063598
0.795324 0.700698 0.064164
0.826804 0.700705 0.064766
0.858275 0.700714 0.065402
0.889735 0.700726 0.066072
0.921185 0.700741 0.066775
0.952623 0.700759 0.067513
0.984051 0.700781 0.068284
1.015467 0.700807 0.069087
0.085772 0.732308 0.061326
0.089006 0.732307 0.061328
0.101274 0.732307 0.061336
0.121278 0.732306 0.061354
0.146021 0.732304 0.061381
0.173410 0.732301 0.061422
0.202295 0.732297 0.061474
0.232072 0.732292 0.061542
0.262404 0.732287 0.061627
0.293096 0.732281 0.061727
0.324033 0.732274 0.061846
0.355139 0.732266 0.061985
0.386364 0.732258 0.062145
0.417674 0.732250 0.062327
0.449046 0.732241 0.062533
0.480461 0.732233 0.062764
0.511908 0.732224 0.063021
0.543376 0.732216 0.063306
0.574859 0.732208 0.063619
0.606351 0.732201 0.063962
0.637847 0.732195 0.064334
0.669344 0.732190 0.064738
0.700840 0.732186 0.065174
0.732331 0.732185 0.065641
0.763817 0.732184 0.066142
0.795296 0.732186 0.066675
0.826768 0.732190 0.067240
0.858230 0.732196 0.067840
0.889684 0.732204 0.068472
0.921127 0.732216 0.069138
0.952560 0.732230 0.069836
0.983982 0.732248 0.070566
1.015394 0.732269 0.071329
0.089874 0.763787 0.064207
0.092904 0.763787 0.064209
0.104544 0.763787 0.064216
0.123820 0.763785 0.064232
0.147968 0.763783 0.064260
0.174918 0.763781 0.064297
0.203485 0.763777 0.064347
0.233027 0.763773 0.064411
0.263180 0.763768 0.064490
0.293734 0.763762 0.064585
0.324561 0.763755 0.064697
0.355577 0.763747 0.064828
0.386727 0.763740 0.064979
0.417976 0.763731 0.065150
0.449296 0.763723 0.065344
0.480667 0.763714 0.065561
0.512075 0.763705 0.065802
0.543511 0.763697 0.066069
0.574965 0.763689 0.066362
0.606432 0.763681 0.066683
0.637906 0.763674 0.067034
0.669384 0.763668 0.067412
0.700862 0.763663 0.067821
0.732339 0.763660 0.068261
0.763812 0.763658 0.068732
0.795280 0.763657 0.069234
0.826741 0.763659 0.069767
0.858195 0.763662 0.070333
0.889640 0.763668 0.070930
0.921076 0.763677 0.071558
0.952503 0.763687 0.072220
0.983921 0.763701 0.072912
1.015327 0.763718 0.073637
0.093985 0.795249 0.067100
0.096834 0.795249 0.067101
0.107888 0.795248 0.067109
0.126461 0.795247 0.067125
0.150013 0.795245 0.067150
0.176515 0.795242 0.067186
0.204756 0.795239 0.067234
0.234051 0.795235 0.067294
0.264017 0.795230 0.067368
0.294426 0.795224 0.067459
0.325135 0.795218 0.067564
0.356056 0.795211 0.067687
0.387129 0.795203 0.067830
0.418313 0.795195 0.067991
0.449576 0.795186 0.068174
0.480900 0.795178 0.068377
0.512268 0.795169 0.068604
0.543669 0.795160 0.068857
0.575092 0.795151 0.069132
0.606532 0.795143 0.069434
0.637983 0.795135 0.069764
0.669440 0.795129 0.070121
0.700901 0.795123 0.070506
0.732361 0.795118 0.070920
0.763820 0.795115 0.071363
0.795275 0.795112 0.071837
0.826724 0.795113 0.072340
0.858169 0.795113 0.072875
0.889606 0.795117 0.073441
0.921034 0.795123 0.074035
0.952454 0.795130 0.074662
0.983865 0.795141 0.075319
1.015266 0.795154 0.076007
0.098104 0.826693 0.070005
0.100791 0.826693 0.070007
0.111302 0.826692 0.070015
0.129194 0.826691 0.070031
0.152157 0.826689 0.070055
0.178204 0.826687 0.070090
0.206104 0.826684 0.070133
0.235143 0.826680 0.070190
0.264915 0.826675 0.070262
0.295169 0.826669 0.070346
0.325757 0.826663 0.070447
0.356579 0.826656 0.070565
0.387570 0.826648 0.070700
0.418684 0.826640 0.070853
0.449889 0.826632 0.071023
0.481164 0.826623 0.071218
0.512488 0.826614 0.071431
0.543851 0.826605 0.071667
0.575242 0.826597 0.071928
0.606654 0.826588 0.072213
0.638079 0.826580 0.072525
0.669514 0.826572 0.072861
