data/manual_verify/ref_candidates/candidate_c.cube
# Generated by Local Color Service V0.1.3 using OpenColorIO Baker
# Recipe Hash: 49a11630166ad4f1a1db4680d26f9225b7059649f0503971d156a5edb6d67887
# OCIO Config: studio-config-v4.0.0_aces-v2.0_ocio-v2.5
LUT_3D_SIZE 33
-0.000163 -0.000203 -0.000225
0.020056 -0.000202 -0.000224
0.059463 -0.000198 -0.000220
0.092424 -0.000191 -0.000213
0.124508 -0.000180 -0.000201
0.156314 -0.000164 -0.000184
0.187970 -0.000145 -0.000163
0.219826 -0.000133 -0.000145
0.251893 -0.000131 -0.000128
0.284143 -0.000141 -0.000113
0.316530 -0.000164 -0.000100
0.349046 -0.000202 -0.000089
0.381659 -0.000255 -0.000080
0.414359 -0.000322 -0.000073
0.447081 -0.000380 -0.000074
0.479803 -0.000439 -0.000083
0.512519 -0.000497 -0.000099
0.545229 -0.000552 -0.000122
0.577924 -0.000603 -0.000153
0.610587 -0.000646 -0.000191
0.643211 -0.000678 -0.000237
0.675798 -0.000699 -0.000290
0.708345 -0.000708 -0.000324
0.740849 -0.000704 -0.000351
0.773308 -0.000685 -0.000377
0.805724 -0.000648 -0.000401
0.838095 -0.000593 -0.000424
0.870422 -0.000520 -0.000444
0.902706 -0.000428 -0.000460
0.934945 -0.000317 -0.000474
0.967141 -0.000185 -0.000483
0.999293 -0.000032 -0.000487
1.031402 0.025169 -0.000486
-0.000159 0.015682 -0.000221
0.020455 0.015798 -0.000220
0.059552 0.016282 -0.000217
0.092472 0.017203 -0.000209
0.124540 0.018532 -0.000197
0.156338 0.020195 -0.000180
0.188000 0.021923 -0.000160
0.219868 0.022881 -0.000142
0.251944 0.022996 -0.000125
0.284201 0.022119 -0.000110
0.316594 0.019956 -0.000098
0.349117 0.015439 -0.000087
0.381735 -0.000009 -0.000077
0.414435 -0.000073 -0.000072
0.447150 -0.000130 -0.000073
0.479864 -0.000188 -0.000082
0.512575 -0.000244 -0.000099
0.545280 -0.000298 -0.000123
0.577971 -0.000347 -0.000154
0.610630 -0.000389 -0.000193
0.643251 -0.000421 -0.000238
0.675835 -0.000441 -0.000291
0.708380 -0.000449 -0.000325
0.740881 -0.000444 -0.000352
0.773338 -0.000423 -0.000378
0.805752 -0.000386 -0.000402
0.838121 -0.000331 -0.000425
0.870447 -0.000257 -0.000444
0.902728 -0.000165 -0.000461
0.934966 -0.000053 -0.000474
0.967161 0.019514 -0.000483
0.999312 0.030648 -0.000487
1.031420 0.038793 -0.000487
-0.000142 0.058820 -0.000206
0.022044 0.058839 -0.000205
0.059928 0.058917 -0.000202
0.092678 0.059076 -0.000194
0.124679 0.059325 -0.000182
0.156441 0.059672 -0.000165
0.188137 0.060044 -0.000146
0.220050 0.060246 -0.000128
0.252163 0.060237 -0.000112
0.284452 0.059973 -0.000098
0.316873 0.059425 -0.000086
0.349422 0.058535 -0.000075
0.382063 0.057286 -0.000067
0.414740 0.056131 -0.000065
0.447427 0.054898 -0.000069
0.480117 0.053613 -0.000081
0.512807 0.052306 -0.000099
0.545492 0.051017 -0.000125
0.578167 0.049800 -0.000158
0.610810 0.048762 -0.000198
0.643418 0.047984 -0.000245
0.675990 0.047513 -0.000298
0.708524 0.047373 -0.000328
0.741015 0.047626 -0.000355
0.773464 0.048310 -0.000381
0.805869 0.049454 -0.000405
0.838231 0.051051 -0.000428
0.870550 0.053032 -0.000447
0.902825 0.055354 -0.000464
0.935058 0.057980 -0.000477
0.967248 0.060881 -0.000485
0.999395 0.064027 -0.000490
1.031499 0.067388 -0.000489
-0.000107 0.092275 -0.000176
0.024832 0.092285 -0.000175
0.060675 0.092327 -0.000171
0.093091 0.092413 -0.000164
0.124957 0.092548 -0.000152
0.156651 0.092735 -0.000135
0.188448 0.092896 -0.000117
0.220445 0.092966 -0.000100
0.252630 0.092917 -0.000086
0.284979 0.092728 -0.000073
0.317454 0.092381 -0.000061
0.350034 0.091963 -0.000054
0.382648 0.091527 -0.000051
0.415281 0.091050 -0.000055
0.447927 0.090546 -0.000064
0.480580 0.090032 -0.000080
0.513235 0.089522 -0.000102
0.545891 0.089036 -0.000131
0.578537 0.088599 -0.000166
0.611154 0.088253 -0.000209
0.643739 0.088021 -0.000258
0.676290 0.087908 -0.000308
0.708803 0.087933 -0.000335
0.741276 0.088119 -0.000362
0.773708 0.088489 -0.000388
0.806098 0.089057 -0.000412
0.838446 0.089829 -0.000434
0.870753 0.090791 -0.000453
0.903017 0.091949 -0.000469
0.935240 0.093307 -0.000482
0.967419 0.094870 -0.000490
0.999557 0.096630 -0.000494
1.031652 0.098592 -0.000493
-0.000052 0.124623 -0.000127
0.028495 0.124630 -0.000127
0.061826 0.124658 -0.000123
0.093736 0.124715 -0.000115
0.125394 0.124805 -0.000103
0.157096 0.124912 -0.000088
0.189035 0.124978 -0.000072
0.221144 0.124995 -0.000057
0.253409 0.124974 -0.000046
0.285796 0.124904 -0.000038
0.318273 0.124786 -0.000033
0.350821 0.124624 -0.000033
0.383397 0.124431 -0.000038
0.415991 0.124216 -0.000048
0.448597 0.123988 -0.000063
0.481212 0.123756 -0.000084
0.513831 0.123529 -0.000111
0.546452 0.123320 -0.000144
0.579065 0.123144 -0.000183
0.611650 0.123019 -0.000229
0.644206 0.122954 -0.000281
0.676729 0.122961 -0.000319
0.709216 0.123052 -0.000347
0.741664 0.123241 -0.000373
0.774073 0.123542 -0.000399
0.806443 0.123961 -0.000423
0.838772 0.124495 -0.000444
0.871061 0.125150 -0.000463
0.903310 0.125931 -0.000478
0.935517 0.126847 -0.000490
0.967683 0.127901 -0.000498
0.999807 0.129100 -0.000501
1.031891 0.130443 -0.000499
0.007816 0.156690 -0.000067
0.031887 0.156697 -0.000067
0.063033 0.156728 -0.000063
0.094392 0.156793 -0.000057
0.125860 0.156895 -0.000047
0.157759 0.156995 -0.000037
0.189789 0.157082 -0.000027
0.221956 0.157149 -0.000020
0.254260 0.157186 -0.000016
0.286659 0.157194 -0.000015
0.319136 0.157171 -0.000017
0.351670 0.157122 -0.000024
0.384223 0.157056 -0.000035
0.416791 0.156977 -0.000051
0.449368 0.156891 -0.000072
0.481952 0.156806 -0.000098
0.514541 0.156727 -0.000130
0.547131 0.156658 -0.000168
0.579712 0.156606 -0.000212
0.612268 0.156587 -0.000262
0.644794 0.156609 -0.000308
0.677286 0.156680 -0.000336
0.709744 0.156811 -0.000363
0.742165 0.157010 -0.000389
0.774548 0.157281 -0.000414
0.806894 0.157624 -0.000437
0.839201 0.158046 -0.000458
0.871470 0.158553 -0.000476
0.903699 0.159150 -0.000490
0.935888 0.159844 -0.000501
0.968036 0.160640 -0.000508
1.000144 0.161541 -0.000510
1.032212 0.162552 -0.000507
-0.000003 0.188987 -0.000029
0.031244 0.188996 -0.000028
0.062754 0.189035 -0.000026
0.094365 0.189111 -0.000021
0.126348 0.189202 -0.000015
0.158374 0.189302 -0.000010
0.190497 0.189401 -0.000006
0.222735 0.189488 -0.000005
0.255082 0.189557 -0.000006
0.287505 0.189609 -0.000011
0.319996 0.189642 -0.000019
0.352525 0.189660 -0.000032
0.385068 0.189667 -0.000049
0.417621 0.189669 -0.000070
0.450181 0.189665 -0.000097
0.482746 0.189660 -0.000128
0.515314 0.189657 -0.000165
0.547883 0.189660 -0.000208
0.580439 0.189678 -0.000256
0.612968 0.189721 -0.000303
0.645465 0.189794 -0.000331
0.677929 0.189906 -0.000358
0.710358 0.190059 -0.000385
0.742753 0.190256 -0.000410
0.775111 0.190500 -0.000434
0.807433 0.190798 -0.000456
0.839717 0.191155 -0.000476
0.871964 0.191576 -0.000492
0.904171 0.192065 -0.000506
0.936340 0.192627 -0.000516
0.968470 0.193267 -0.000521
1.000561 0.193988 -0.000522
1.032611 0.194796 -0.000518
-0.000066 0.221528 -0.000017
0.028002 0.221536 -0.000017
0.062206 0.221569 -0.000016
0.094620 0.221629 -0.000014
0.126786 0.221712 -0.000013
0.158943 0.221808 -0.000012
0.191164 0.221908 -0.000013
0.223478 0.222004 -0.000016
0.255867 0.222092 -0.000022
0.288319 0.222168 -0.000031
0.320830 0.222232 -0.000045
0.353361 0.222287 -0.000062
0.385903 0.222334 -0.000084
0.418451 0.222376 -0.000111
0.451005 0.222415 -0.000142
0.483560 0.222455 -0.000178
0.516116 0.222497 -0.000220
0.548671 0.222545 -0.000267
0.581207 0.222607 -0.000306
0.613712 0.222687 -0.000332
0.646185 0.222788 -0.000359
0.678625 0.222914 -0.000386
0.711032 0.223069 -0.000411
0.743403 0.223257 -0.000435
0.775739 0.223483 -0.000458
0.808038 0.223750 -0.000479
0.840301 0.224063 -0.000497
0.872526 0.224426 -0.000512
0.904713 0.224843 -0.000524
0.936862 0.225318 -0.000532
0.968973 0.225854 -0.000536
1.001044 0.226456 -0.000536
1.033078 0.227126 -0.000530
-0.000078 0.254209 -0.000039
0.027428 0.254216 -0.000039
0.062265 0.254243 -0.000039
0.094914 0.254294 -0.000040
0.127237 0.254366 -0.000041
0.159514 0.254454 -0.000043
0.191829 0.254549 -0.000048
0.224205 0.254645 -0.000055
0.256632 0.254739 -0.000065
0.289116 0.254826 -0.000079
0.321641 0.254906 -0.000096
0.354177 0.254981 -0.000118
0.386721 0.255052 -0.000145
0.419270 0.255121 -0.000175
0.451821 0.255188 -0.000211
0.484373 0.255256 -0.000252
0.516923 0.255325 -0.000291
0.549467 0.255396 -0.000316
0.581987 0.255476 -0.000342
0.614475 0.255569 -0.000367
0.646931 0.255678 -0.000393
0.679353 0.255808 -0.000418
0.711740 0.255960 -0.000442
0.744093 0.256139 -0.000464
0.776409 0.256349 -0.000486
0.808689 0.256592 -0.000505
0.840931 0.256872 -0.000521
0.873137 0.257193 -0.000535
0.905305 0.257558 -0.000545
0.937436 0.257970 -0.000551
0.969527 0.258432 -0.000553
1.001581 0.258948 -0.000551
1.033597 0.259520 -0.000543
-0.000071 0.286982 -0.000095
0.028022 0.286988 -0.000095
0.062679 0.287010 -0.000096
0.095386 0.287054 -0.000098
0.127793 0.287117 -0.000101
0.160151 0.287196 -0.000106
0.192528 0.287284 -0.000114
0.224939 0.287378 -0.000124
0.257398 0.287472 -0.000138
0.289907 0.287564 -0.000155
0.322437 0.287652 -0.000177
0.354976 0.287738 -0.000202
0.387524 0.287820 -0.000232
0.420076 0.287900 -0.000267
0.452627 0.287979 -0.000290
0.485178 0.288056 -0.000312
0.517724 0.288134 -0.000334
0.550260 0.288214 -0.000358
0.582768 0.288302 -0.000382
0.615244 0.288401 -0.000406
0.647686 0.288513 -0.000430
0.680093 0.288642 -0.000453
0.712466 0.288790 -0.000475
0.744802 0.288960 -0.000496
0.777102 0.289155 -0.000516
0.809366 0.289379 -0.000533
0.841592 0.289633 -0.000547
0.873781 0.289921 -0.000559
0.905932 0.290245 -0.000567
0.938045 0.290609 -0.000571
0.970120 0.291015 -0.000571
1.002158 0.291466 -0.000566
1.034157 0.291964 -0.000557
-0.000028 0.319801 -0.000184
0.030665 0.319805 -0.000184
0.063789 0.319824 -0.000186
0.096234 0.319861 -0.000189
0.128584 0.319915 -0.000194
0.160931 0.319984 -0.000201
0.193310 0.320065 -0.000211
0.225735 0.320152 -0.000224
0.258211 0.320242 -0.000240
0.290720 0.320333 -0.000259
0.323244 0.320422 -0.000273
0.355781 0.320510 -0.000287
0.388325 0.320596 -0.000303
0.420874 0.320680 -0.000320
0.453424 0.320763 -0.000339
0.485973 0.320845 -0.000359
0.518516 0.320927 -0.000381
0.551045 0.321012 -0.000403
0.583543 0.321104 -0.000425
0.616008 0.321204 -0.000448
0.648439 0.321317 -0.000470
0.680834 0.321443 -0.000491
0.713195 0.321585 -0.000511
0.745519 0.321746 -0.000530
0.777805 0.321929 -0.000547
0.810055 0.322135 -0.000562
0.842267 0.322367 -0.000574
0.874442 0.322628 -0.000584
0.906579 0.322920 -0.000589
0.938678 0.323246 -0.000591
0.970738 0.323607 -0.000589
1.002761 0.324007 -0.000582
1.034746 0.324447 -0.000571
0.018391 0.352627 -0.000275
0.035529 0.352630 -0.000275
0.065856 0.352646 -0.000276
0.097594 0.352678 -0.000277
0.129673 0.352725 -0.000280
0.161902 0.352786 -0.000284
0.194227 0.352858 -0.000290
0.226628 0.352938 -0.000297
0.259081 0.353022 -0.000306
0.291564 0.353109 -0.000316
0.324071 0.353197 -0.000328
0.356596 0.353284 -0.000341
0.389131 0.353371 -0.000356
0.421674 0.353456 -0.000372
0.454219 0.353540 -0.000390
0.486763 0.353624 -0.000409
0.519303 0.353708 -0.000429
0.551822 0.353795 -0.000449
0.584309 0.353888 -0.000470
0.616763 0.353989 -0.000490
0.649184 0.354100 -0.000510
0.681570 0.354223 -0.000529
0.713919 0.354359 -0.000547
0.746233 0.354512 -0.000564
0.778508 0.354682 -0.000579
0.810747 0.354873 -0.000591
0.842948 0.355087 -0.000601
0.875110 0.355325 -0.000607
0.907235 0.355590 -0.000611
0.939321 0.355884 -0.000610
0.971369 0.356209 -0.000605
1.003379 0.356567 -0.000597
1.035351 0.356960 -0.000583
0.029934 0.385447 -0.000333
0.041620 0.385450 -0.000333
0.068786 0.385464 -0.000334
0.099469 0.385491 -0.000336
0.131101 0.385532 -0.000338
0.163111 0.385585 -0.000342
0.195318 0.385650 -0.000348
0.227636 0.385723 -0.000354
0.260024 0.385802 -0.000362
0.292463 0.385884 -0.000372
0.324937 0.385969 -0.000383
0.357438 0.386055 -0.000395
0.389956 0.386140 -0.000409
0.422485 0.386225 -0.000424
0.455020 0.386309 -0.000441
0.487557 0.386393 -0.000458
0.520087 0.386477 -0.000476
0.552592 0.386566 -0.000495
0.585067 0.386659 -0.000513
0.617511 0.386759 -0.000532
0.649921 0.386867 -0.000549
0.682296 0.386986 -0.000566
0.714636 0.387116 -0.000582
0.746939 0.387261 -0.000596
0.779205 0.387421 -0.000608
0.811434 0.387599 -0.000618
0.843625 0.387796 -0.000625
0.875777 0.388015 -0.000629
0.907891 0.388257 -0.000629
0.939967 0.388524 -0.000627
0.972005 0.388817 -0.000620
1.004005 0.389136 -0.000609
1.035967 0.389484 -0.000593
0.039891 0.418255 -0.000390
0.048634 0.418257 -0.000390
0.072640 0.418269 -0.000391
0.101956 0.418293 -0.000392
0.132947 0.418328 -0.000395
0.164609 0.418376 -0.000399
0.196597 0.418434 -0.000404
0.228772 0.418501 -0.000410
0.261063 0.418575 -0.000417
0.293434 0.418653 -0.000426
0.325859 0.418734 -0.000436
0.358322 0.418816 -0.000448
0.390812 0.418900 -0.000460
0.423320 0.418983 -0.000474
0.455837 0.419066 -0.000489
0.488360 0.419149 -0.000505
0.520872 0.419234 -0.000521
0.553360 0.419322 -0.000538
0.585820 0.419414 -0.000554
0.618251 0.419513 -0.000570
0.650649 0.419618 -0.000586
0.683014 0.419733 -0.000600
0.715343 0.419858 -0.000613
0.747637 0.419995 -0.000625
0.779894 0.420145 -0.000634
0.812113 0.420311 -0.000641
0.844295 0.420492 -0.000645
0.876439 0.420692 -0.000646
0.908546 0.420910 -0.000644
0.940613 0.421149 -0.000639
0.972642 0.421410 -0.000629
1.004632 0.421695 -0.000615
1.036586 0.422005 -0.000596
0.049356 0.451047 -0.000442
0.056222 0.451049 -0.000443
0.077320 0.451059 -0.000443
0.105033 0.451080 -0.000445
0.135187 0.451112 -0.000447
0.166374 0.451154 -0.000451
0.198071 0.451207 -0.000455
0.230056 0.451268 -0.000461
0.262218 0.451336 -0.000468
0.294494 0.451410 -0.000476
0.326850 0.451487 -0.000485
0.359262 0.451566 -0.000495
0.391711 0.451647 -0.000507
0.424187 0.451728 -0.000519
0.456679 0.451810 -0.000533
0.489180 0.451892 -0.000547
0.521666 0.451976 -0.000561
0.554132 0.452063 -0.000575
0.586574 0.452154 -0.000590
0.618989 0.452249 -0.000603
0.651373 0.452351 -0.000616
0.683725 0.452460 -0.000628
0.716044 0.452577 -0.000638
0.748329 0.452704 -0.000647
0.780576 0.452842 -0.000653
0.812788 0.452993 -0.000657
0.844961 0.453157 -0.000659
0.877098 0.453337 -0.000657
0.909196 0.453534 -0.000652
0.941256 0.453749 -0.000644
0.973278 0.453983 -0.000631
1.005261 0.454237 -0.000614
1.037207 0.454514 -0.000592
0.058364 0.483818 -0.000488
0.063969 0.483820 -0.000488
0.082572 0.483829 -0.000489
0.108609 0.483848 -0.000490
0.137807 0.483876 -0.000493
0.168427 0.483914 -0.000496
0.199767 0.483962 -0.000500
0.231514 0.484018 -0.000505
0.263508 0.484080 -0.000511
0.295665 0.484149 -0.000518
0.327930 0.484221 -0.000526
0.360273 0.484296 -0.000535
0.392669 0.484372 -0.000546
0.425103 0.484450 -0.000556
0.457562 0.484528 -0.000568
0.490027 0.484607 -0.000580
0.522482 0.484687 -0.000592
0.554921 0.484771 -0.000604
0.587340 0.484857 -0.000616
0.619736 0.484948 -0.000627
0.652103 0.485043 -0.000637
0.684441 0.485145 -0.000646
0.716747 0.485254 -0.000653
0.749020 0.485371 -0.000659
0.781258 0.485498 -0.000663
0.813460 0.485636 -0.000664
0.845625 0.485785 -0.000663
0.877753 0.485948 -0.000659
0.909844 0.486126 -0.000651
0.941897 0.486320 -0.000639
0.973911 0.486530 -0.000623
1.005888 0.486759 -0.000603
1.037825 0.487007 -0.000578
0.067323 0.516546 -0.000522
0.072011 0.516548 -0.000522
0.088452 0.516556 -0.000523
0.112768 0.516572 -0.000524
0.140890 0.516597 -0.000526
0.170840 0.516631 -0.000529
0.201747 0.516673 -0.000532
0.233198 0.516724 -0.000536
0.264983 0.516781 -0.000542
0.296986 0.516844 -0.000548
0.329137 0.516911 -0.000555
0.361390 0.516981 -0.000563
0.393716 0.517052 -0.000571
0.426094 0.517125 -0.000581
0.458503 0.517199 -0.000590
0.490920 0.517275 -0.000600
0.523335 0.517352 -0.000610
0.555740 0.517432 -0.000620
0.588131 0.517514 -0.000629
0.620501 0.517599 -0.000638
0.652848 0.517689 -0.000646
0.685168 0.517785 -0.000652
0.717458 0.517886 -0.000657
0.749716 0.517995 -0.000660
0.781942 0.518111 -0.000661
0.814133 0.518238 -0.000660
0.846288 0.518374 -0.000656
0.878407 0.518523 -0.000648
0.910490 0.518684 -0.000637
0.942535 0.518858 -0.000622
0.974541 0.519049 -0.000603
1.006510 0.519255 -0.000580
1.038442 0.519478 -0.000551
0.076365 0.549220 -0.000539
0.080352 0.549222 -0.000540
0.094924 0.549229 -0.000540
0.117523 0.549243 -0.000541
0.144471 0.549266 -0.000543
0.173654 0.549296 -0.000545
0.204047 0.549334 -0.000548
0.235142 0.549380 -0.000552
0.266672 0.549432 -0.000556
0.298485 0.549490 -0.000561
0.330491 0.549552 -0.000567
0.362632 0.549617 -0.000574
0.394870 0.549684 -0.000581
0.427173 0.549752 -0.000589
0.459513 0.549823 -0.000597
0.491870 0.549895 -0.000606
0.524235 0.549968 -0.000614
0.556599 0.550044 -0.000621
0.588954 0.550122 -0.000629
0.621293 0.550203 -0.000635
0.653614 0.550288 -0.000641
0.685911 0.550377 -0.000645
0.718182 0.550472 -0.000647
0.750423 0.550573 -0.000647
0.782633 0.550681 -0.000646
0.814811 0.550797 -0.000641
0.846955 0.550922 -0.000634
0.879063 0.551057 -0.000623
0.911135 0.551204 -0.000609
0.943171 0.551363 -0.000591
0.975171 0.551534 -0.000569
1.007132 0.551721 -0.000542
1.039056 0.551923 -0.000510
0.085512 0.581841 -0.000539
0.088946 0.581843 -0.000539
0.101914 0.581849 -0.000540
0.122851 0.581861 -0.000541
0.148557 0.581881 -0.000542
0.176889 0.581908 -0.000544
0.206692 0.581943 -0.000547
0.237369 0.581985 -0.000550
0.268596 0.582032 -0.000554
0.300182 0.582085 -0.000558
0.332013 0.582142 -0.000563
0.364018 0.582202 -0.000569
0.396143 0.582264 -0.000575
0.428346 0.582329 -0.000581
0.460601 0.582396 -0.000588
0.492888 0.582465 -0.000594
0.525194 0.582535 -0.000601
0.557506 0.582607 -0.000606
0.589818 0.582681 -0.000612
0.622120 0.582758 -0.000616
0.654409 0.582838 -0.000619
0.686678 0.582922 -0.000620
0.718924 0.583010 -0.000620
0.751145 0.583104 -0.000618
0.783337 0.583204 -0.000613
0.815499 0.583311 -0.000605
0.847628 0.583426 -0.000595
0.879724 0.583550 -0.000581
0.911784 0.583684 -0.000564
0.943811 0.583829 -0.000543
0.975800 0.583985 -0.000518
1.007754 0.584154 -0.000488
1.039670 0.584337 -0.000455
0.094772 0.614407 -0.000520
0.097773 0.614408 -0.000520
0.109359 0.614414 -0.000520
0.128716 0.614425 -0.000521
0.153146 0.614443 -0.000522
0.180552 0.614467 -0.000524
0.209698 0.614498 -0.000526
0.239900 0.614536 -0.000529
0.270775 0.614579 -0.000532
0.302094 0.614628 -0.000536
0.333720 0.614680 -0.000540
0.365558 0.614736 -0.000544
0.397540 0.614794 -0.000549
0.429624 0.614856 -0.000554
0.461780 0.614919 -0.000559
0.493983 0.614984 -0.000564
0.526218 0.615051 -0.000568
0.558471 0.615119 -0.000572
0.590731 0.615190 -0.000575
0.622989 0.615263 -0.000577
0.655239 0.615339 -0.000577
0.687476 0.615417 -0.000576
0.719693 0.615500 -0.000573
0.751889 0.615588 -0.000568
0.784059 0.615681 -0.000560
0.816200 0.615780 -0.000550
0.848313 0.615886 -0.000537
0.880393 0.616000 -0.000521
0.912441 0.616122 -0.000501
0.944455 0.616254 -0.000477
0.976433 0.616397 -0.000450
1.008377 0.616550 -0.000418
1.040285 0.616716 -0.000382
0.104153 0.646917 -0.000478
0.106799 0.646918 -0.000478
0.117199 0.646923 -0.000479
0.135080 0.646933 -0.000479
0.158227 0.646949 -0.000480
0.184655 0.646971 -0.000482
0.213080 0.647000 -0.000483
0.242751 0.647034 -0.000486
0.273226 0.647073 -0.000488
0.304239 0.647117 -0.000491
0.335619 0.647165 -0.000494
0.367252 0.647218 -0.000498
0.399069 0.647273 -0.000501
0.431017 0.647330 -0.000505
0.463058 0.647390 -0.000508
0.495166 0.647452 -0.000511
0.527319 0.647516 -0.000513
0.559502 0.647581 -0.000515
0.591702 0.647648 -0.000516
0.623908 0.647717 -0.000515
0.656114 0.647788 -0.000513
0.688310 0.647863 -0.000510
0.720494 0.647941 -0.000504
0.752659 0.648023 -0.000497
0.784803 0.648109 -0.000487
0.816922 0.648201 -0.000475
0.849013 0.648300 -0.000459
0.881077 0.648404 -0.000441
0.913108 0.648517 -0.000419
0.945107 0.648638 -0.000393
0.977073 0.648768 -0.000363
1.009005 0.648909 -0.000329
1.040902 0.649060 -0.000290
0.113654 0.679371 -0.000412
0.116005 0.679372 -0.000412
0.125387 0.679377 -0.000412
0.141903 0.679386 -0.000413
0.163782 0.679400 -0.000413
0.189193 0.679420 -0.000414
0.216846 0.679446 -0.000416
0.245933 0.679477 -0.000417
0.275956 0.679513 -0.000419
0.306612 0.679553 -0.000421
0.337706 0.679599 -0.000423
0.369111 0.679647 -0.000425
0.400741 0.679699 -0.000428
0.432533 0.679753 -0.000430
0.464445 0.679810 -0.000431
0.496443 0.679868 -0.000433
0.528503 0.679928 -0.000433
0.560606 0.679990 -0.000433
0.592737 0.680054 -0.000432
0.624885 0.680119 -0.000430
0.657037 0.680187 -0.000426
0.689189 0.680258 -0.000421
0.721332 0.680331 -0.000414
0.753463 0.680408 -0.000404
0.785576 0.680489 -0.000392
0.817667 0.680575 -0.000378
0.849736 0.680666 -0.000360
0.881777 0.680763 -0.000339
0.913790 0.680866 -0.000315
0.945772 0.680978 -0.000287
0.977724 0.681097 -0.000255
1.009642 0.681226 -0.000218
1.041526 0.681364 -0.000177
0.123269 0.711770 -0.000318
0.125377 0.711771 -0.000318
0.133878 0.711775 -0.000318
0.149138 0.711783 -0.000319
0.169779 0.711796 -0.000319
0.194150 0.711814 -0.000320
0.220979 0.711837 -0.000321
0.249424 0.711866 -0.000322
0.278948 0.711899 -0.000323
0.309211 0.711937 -0.000324
0.339992 0.711978 -0.000326
0.371143 0.712024 -0.000327
0.402565 0.712072 -0.000328
0.434184 0.712123 -0.000329
0.465950 0.712177 -0.000330
0.497825 0.712232 -0.000330
0.529780 0.712289 -0.000329
0.561793 0.712348 -0.000328
0.593845 0.712409 -0.000325
0.625924 0.712471 -0.000321
0.658017 0.712535 -0.000316
0.690117 0.712602 -0.000308
0.722215 0.712671 -0.000299
0.754305 0.712743 -0.000288
0.786382 0.712819 -0.000274
0.818443 0.712899 -0.000257
0.850483 0.712984 -0.000238
0.882499 0.713074 -0.000215
0.914490 0.713170 -0.000188
0.946453 0.713272 -0.000158
0.978386 0.713382 -0.000123
1.010289 0.713500 -0.000084
1.042160 0.713627 -0.000041
0.132924 0.744113 -0.000198
0.134823 0.744114 -0.000198
0.142556 0.744118 -0.000198
0.156682 0.744125 -0.000198
0.176136 0.744137 -0.000198
0.199463 0.744154 -0.000199
0.225442 0.744175 -0.000200
0.253213 0.744201 -0.000200
0.282205 0.744231 -0.000201
0.312043 0.744266 -0.000202
0.342483 0.744305 -0.000202
0.373356 0.744347 -0.000203
0.404548 0.744393 -0.000203
0.435976 0.744441 -0.000203
0.467581 0.744491 -0.000202
0.499319 0.744544 -0.000201
0.531156 0.744598 -0.000199
0.563067 0.744654 -0.000196
0.595032 0.744711 -0.000192
0.627034 0.744771 -0.000186
0.659061 0.744832 -0.000179
0.691101 0.744895 -0.000170
0.723147 0.744960 -0.000159
0.755192 0.745028 -0.000146
0.787229 0.745099 -0.000130
0.819253 0.745174 -0.000112
0.851261 0.745253 -0.000090
0.883249 0.745337 -0.000065
0.915215 0.745426 -0.000036
0.947155 0.745521 -0.000003
0.979069 0.745622 0.013691
1.010952 0.745731 0.019114
1.042807 0.745847 0.023337
0.142573 0.776402 -0.000050
0.144298 0.776402 -0.000050
0.151375 0.776406 -0.000050
0.164472 0.776413 -0.000050
0.182806 0.776423 -0.000050
0.205109 0.776438 -0.000050
0.230226 0.776458 -0.000050
0.257297 0.776482 -0.000051
0.285728 0.776510 -0.000051
0.315114 0.776543 -0.000051
0.345184 0.776579 -0.000051
0.375757 0.776618 -0.000050
0.406698 0.776661 -0.000050
0.437916 0.776706 -0.000049
0.469345 0.776753 -0.000047
0.500931 0.776803 -0.000045
0.532639 0.776854 -0.000041
0.564437 0.776908 -0.000037
0.596305 0.776962 -0.000031
0.628221 0.777018 -0.000024
0.660173 0.777076 -0.000015
0.692148 0.777136 -0.000005
0.724135 0.777198 0.007586
0.756128 0.777262 0.011752
0.788119 0.777329 0.014892
0.820103 0.777400 0.017631
0.852074 0.777474 0.020202
0.884030 0.777552 0.022667
0.915966 0.777635 0.025073
0.947881 0.777722 0.027444
0.979771 0.777816 0.029801
1.011634 0.777916 0.032160
1.043471 0.778022 0.034529
0.152224 0.808636 0.023929
0.153799 0.808637 0.023925
0.160306 0.808639 0.023943
0.172480 0.808645 0.023939
0.189764 0.808655 0.023941
0.211068 0.808669 0.023944
0.235323 0.808687 0.023962
0.261676 0.808709 0.023972
0.289516 0.808736 0.023983
0.318423 0.808766 0.024025
0.348103 0.808799 0.024086
0.378351 0.808836 0.024176
0.409021 0.808876 0.024294
0.440013 0.808918 0.024458
0.471246 0.808964 0.024660
0.502669 0.809010 0.024927
0.534234 0.809059 0.025263
0.565910 0.809109 0.025675
0.597668 0.809161 0.026161
0.629491 0.809214 0.026748
0.661360 0.809269 0.027428
0.693262 0.809326 0.028206
0.725184 0.809384 0.029092
