data/manual_verify/ref_candidates/candidate_c.cube
# Generated by Local Color Service V0.1.3 using OpenColorIO Baker
# Recipe Hash: 49a11630166ad4f1a1db4680d26f9225b7059649f0503971d156a5edb6d67887
# OCIO Config: studio-config-v4.0.0_aces-v2.0_ocio-v2.5
LUT_3D_SIZE 9
-0.000163 -0.000203 -0.000225
0.124508 -0.000180 -0.000201
0.251893 -0.000131 -0.000128
0.381659 -0.000255 -0.000080
0.512519 -0.000497 -0.000099
0.643211 -0.000678 -0.000237
0.773308 -0.000685 -0.000377
0.902706 -0.000428 -0.000460
1.031402 0.025169 -0.000486
-0.000052 0.124623 -0.000127
0.125394 0.124805 -0.000103
0.253409 0.124974 -0.000046
0.383397 0.124431 -0.000038
0.513831 0.123529 -0.000111
0.644206 0.122954 -0.000281
0.774073 0.123542 -0.000399
0.903310 0.125931 -0.000478
1.031891 0.130443 -0.000499
-0.000078 0.254209 -0.000039
0.127237 0.254366 -0.000041
0.256632 0.254739 -0.000065
0.386721 0.255052 -0.000145
0.516923 0.255325 -0.000291
0.646931 0.255678 -0.000393
0.776409 0.256349 -0.000486
0.905305 0.257558 -0.000545
1.033597 0.259520 -0.000543
0.029934 0.385447 -0.000333
0.131101 0.385532 -0.000338
0.260024 0.385802 -0.000362
0.389956 0.386140 -0.000409
0.520087 0.386477 -0.000476
0.649921 0.386867 -0.000549
0.779205 0.387421 -0.000608
0.907891 0.388257 -0.000629
1.035967 0.389484 -0.000593
0.067323 0.516546 -0.000522
0.140890 0.516597 -0.000526
0.264983 0.516781 -0.000542
0.393716 0.517052 -0.000571
0.523335 0.517352 -0.000610
0.652848 0.517689 -0.000646
0.781942 0.518111 -0.000661
0.910490 0.518684 -0.000637
1.038442 0.519478 -0.000551
0.104153 0.646917 -0.000478
0.158227 0.646949 -0.000480
0.273226 0.647073 -0.000488
0.399069 0.647273 -0.000501
0.527319 0.647516 -0.000513
0.656114 0.647788 -0.000513
0.784803 0.648109 -0.000487
0.913108 0.648517 -0.000419
1.040902 0.649060 -0.000290
0.142573 0.776402 -0.000050
0.182806 0.776423 -0.000050
0.285728 0.776510 -0.000051
0.406698 0.776661 -0.000050
0.532639 0.776854 -0.000041
0.660173 0.777076 -0.000015
0.788119 0.777329 0.014892
0.915966 0.777635 0.025073
1.043471 0.778022 0.034529
0.181257 0.905013 0.052907
0.212112 0.905029 0.052936
0.302463 0.905093 0.053066
0.417077 0.905207 0.053386
0.539751 0.905360 0.054047
0.665420 0.905540 0.055258
0.792220 0.905745 0.057243
0.919333 0.905982 0.060226
1.046355 0.906272 0.064330
0.220180 1.032788 0.080733
0.244562 1.032799 0.080765
0.323199 1.032848 0.080914
0.430438 1.032936 0.081245
0.548960 1.033061 0.081836
0.672152 1.033210 0.082809
0.797375 1.033382 0.084297
0.923439 1.033580 0.086439
1.049790 1.033810 0.089346
-0.000149 -0.000191 0.123597
0.124622 -0.000169 0.123787
0.252061 -0.000124 0.124344
0.381903 -0.000256 0.124725
0.512794 -0.000497 0.124901
0.643480 -0.000677 0.124781
0.773533 -0.000683 0.124572
0.902892 -0.000426 0.124498
1.031559 0.025406 0.124804
-0.000038 0.124711 0.124362
0.125508 0.124892 0.124549
0.253608 0.125040 0.124984
0.383636 0.124498 0.125145
0.514093 0.123597 0.125082
0.644456 0.123014 0.124835
0.774284 0.123595 0.124568
0.903488 0.125979 0.124480
1.032043 0.130487 0.124792
-0.000059 0.254345 0.125427
0.127461 0.254498 0.125472
0.256827 0.254861 0.125521
0.386924 0.255165 0.125406
0.517125 0.255419 0.125116
0.647119 0.255755 0.124736
0.776578 0.256411 0.124432
0.905455 0.257609 0.124383
1.033730 0.259562 0.124745
0.031005 0.385561 0.125099
0.131282 0.385644 0.125095
0.260152 0.385907 0.125050
0.390082 0.386236 0.124898
0.520215 0.386562 0.124632
0.650047 0.386940 0.124343
0.779327 0.387483 0.124172
0.908005 0.388310 0.124260
1.036072 0.389529 0.124778
0.067674 0.516628 0.124720
0.141033 0.516678 0.124711
0.265072 0.516860 0.124666
0.393798 0.517126 0.124562
0.523417 0.517420 0.124412
0.652931 0.517751 0.124299
0.782025 0.518167 0.124348
0.910571 0.518733 0.124705
1.038521 0.519522 0.125510
0.104331 0.646978 0.125770
0.158335 0.647011 0.125766
0.273293 0.647133 0.125752
0.399126 0.647330 0.125729
0.527374 0.647570 0.125730
0.656170 0.647839 0.125823
0.784860 0.648157 0.126108
0.913166 0.648560 0.126706
1.040961 0.649099 0.127742
0.142680 0.776449 0.129356
0.182886 0.776471 0.129359
0.285780 0.776557 0.129376
0.406740 0.776707 0.129422
0.532679 0.776898 0.129536
0.660213 0.777118 0.129782
0.788160 0.777369 0.130249
0.916008 0.777671 0.131042
1.043512 0.778058 0.132273
0.181330 0.905051 0.136004
0.212170 0.905067 0.136015
0.302504 0.905130 0.136063
0.417108 0.905244 0.136173
0.539780 0.905396 0.136386
0.665449 0.905575 0.136759
0.792250 0.905778 0.137368
0.919364 0.906014 0.138308
1.046387 0.906302 0.139673
0.220221 1.032820 0.145941
0.244601 1.032831 0.145959
0.323227 1.032879 0.146032
0.430462 1.032967 0.146191
0.548984 1.033090 0.146474
0.672172 1.033240 0.146931
0.797396 1.033411 0.147628
0.923461 1.033607 0.148645
1.049815 1.033836 0.150050
-0.000089 -0.000159 0.249257
0.125058 -0.000137 0.249575
0.252559 -0.000111 0.250542
0.382500 -0.000265 0.251700
0.513360 -0.000500 0.252891
0.644011 -0.000675 0.253781
0.774028 -0.000676 0.254502
0.903351 -0.000416 0.255157
1.031982 0.026250 0.255837
-0.000003 0.124933 0.250564
0.125797 0.125100 0.250897
0.254123 0.125166 0.251776
0.384165 0.124605 0.252664
0.514613 0.123708 0.253454
0.644957 0.123137 0.254124
0.774759 0.123731 0.254721
0.903932 0.126118 0.255306
1.032455 0.130626 0.255943
-0.000022 0.254620 0.253398
0.127946 0.254757 0.253533
0.257252 0.255091 0.253896
0.387343 0.255372 0.254288
0.517550 0.255607 0.254650
0.647540 0.255925 0.254994
0.776989 0.256565 0.255360
0.905849 0.257750 0.255784
1.034103 0.259692 0.256312
0.034443 0.385818 0.254997
0.131876 0.385896 0.255048
0.260516 0.386145 0.255216
0.390413 0.386457 0.255428
0.520546 0.386766 0.255632
0.650379 0.387128 0.255837
0.779657 0.387654 0.256078
0.908330 0.388465 0.256400
1.036387 0.389669 0.256851
0.069042 0.516854 0.256100
0.141577 0.516903 0.256124
0.265379 0.517078 0.256209
0.394060 0.517334 0.256334
0.523669 0.517616 0.256471
0.653184 0.517934 0.256631
0.782280 0.518335 0.256843
0.910827 0.518887 0.257151
1.038774 0.519662 0.257602
0.105094 0.647171 0.257319
0.158788 0.647203 0.257332
0.273557 0.647321 0.257384
0.399334 0.647512 0.257472
0.527568 0.647744 0.257591
0.656361 0.648005 0.257753
0.785055 0.648312 0.257983
0.913363 0.648705 0.258321
1.041159 0.649233 0.258813
0.143152 0.776613 0.259174
0.183232 0.776634 0.259184
0.285994 0.776718 0.259225
0.406906 0.776864 0.259305
0.532827 0.777050 0.259429
0.660358 0.777264 0.259612
0.788308 0.777508 0.259879
0.916158 0.777803 0.260266
1.043666 0.778181 0.260816
0.181628 0.905190 0.262096
0.212419 0.905205 0.262106
0.302673 0.905267 0.262148
0.417240 0.905379 0.262233
0.539896 0.905528 0.262374
0.665561 0.905703 0.262587
0.792363 0.905900 0.262897
0.919479 0.906131 0.263339
1.046505 0.906414 0.263952
0.220420 1.032938 0.266426
0.244777 1.032949 0.266437
0.323358 1.032997 0.266483
0.430564 1.033083 0.266579
0.549073 1.033205 0.266738
0.672259 1.033351 0.266978
0.797482 1.033519 0.267323
0.923550 1.033711 0.267803
1.049906 1.033936 0.268448
-0.000031 -0.000126 0.375229
0.125457 -0.000106 0.375713
0.253241 -0.000109 0.377029
0.383233 -0.000288 0.378766
0.513974 -0.000506 0.380507
0.644554 -0.000671 0.381887
0.774531 -0.000664 0.383019
0.903829 -0.000397 0.383994
1.032443 0.027834 0.384886
0.004470 0.125147 0.377211
0.126383 0.125250 0.377663
0.254805 0.125249 0.378811
0.384782 0.124673 0.380096
0.515168 0.123805 0.381314
0.645468 0.123279 0.382398
0.775242 0.123920 0.383359
0.904398 0.126333 0.384230
1.032907 0.130858 0.385057
0.017066 0.254900 0.381176
0.128801 0.255015 0.381354
0.257853 0.255306 0.381875
0.387848 0.255565 0.382505
0.518015 0.255789 0.383139
0.647982 0.256103 0.383761
0.777420 0.256741 0.384377
0.906274 0.257924 0.385001
1.034521 0.259865 0.385651
0.040502 0.386082 0.383653
0.133035 0.386153 0.383732
0.261104 0.386384 0.383999
0.390866 0.386680 0.384366
0.520952 0.386977 0.384753
0.650761 0.387330 0.385143
0.780031 0.387849 0.385547
0.908703 0.388653 0.385985
1.036759 0.389848 0.386482
0.071942 0.517110 0.385376
0.142716 0.517155 0.385416
0.265941 0.517321 0.385564
0.394472 0.517566 0.385793
0.524021 0.517838 0.386056
0.653512 0.518147 0.386338
0.782601 0.518539 0.386645
0.911147 0.519082 0.386997
1.039097 0.519847 0.387420
0.106792 0.647413 0.386853
0.159780 0.647443 0.386876
0.274081 0.647557 0.386966
0.399699 0.647741 0.387120
0.527870 0.647965 0.387317
0.656639 0.648217 0.387546
0.785324 0.648516 0.387813
0.913632 0.648901 0.388135
1.041431 0.649419 0.388534
0.144214 0.776837 0.388466
0.184000 0.776858 0.388481
0.286439 0.776940 0.388544
0.407218 0.777080 0.388659
0.533084 0.777261 0.388820
0.660591 0.777469 0.389024
0.788530 0.777706 0.389275
0.916382 0.777992 0.389589
1.043891 0.778363 0.389985
0.182317 0.905396 0.390502
0.212980 0.905411 0.390514
0.303040 0.905471 0.390563
0.417503 0.905579 0.390657
0.540110 0.905724 0.390798
0.665754 0.905894 0.390988
0.792548 0.906086 0.391233
0.919662 0.906311 0.391547
1.046692 0.906586 0.391949
0.220893 1.033126 0.393167
0.245188 1.033137 0.393177
0.323654 1.033183 0.393220
0.430784 1.033267 0.393304
0.549252 1.033386 0.393435
0.672418 1.033528 0.393618
0.797634 1.033692 0.393862
0.923700 1.033879 0.394180
1.050061 1.034099 0.394587
0.017231 -0.000084 0.500975
0.126664 -0.000077 0.501490
0.254405 -0.000117 0.503010
0.384256 -0.000302 0.505200
0.514755 -0.000507 0.507304
0.645182 -0.000656 0.509053
0.775066 -0.000636 0.510517
0.904311 -0.000359 0.511770
1.032892 0.030469 0.512879
0.022353 0.125417 0.503524
0.127891 0.125462 0.503958
0.255924 0.125365 0.505218
0.385653 0.124781 0.506764
0.515869 0.123967 0.508297
0.646052 0.123514 0.509702
0.775752 0.124228 0.510957
0.904864 0.126681 0.512081
1.033345 0.131233 0.513105
0.032646 0.255218 0.508179
0.130678 0.255306 0.508375
0.258871 0.255546 0.508992
0.388571 0.255780 0.509793
0.518603 0.255993 0.510636
0.648483 0.256307 0.511476
0.777871 0.256951 0.512300
0.906696 0.258140 0.513104
1.034928 0.260086 0.513894
0.050115 0.386356 0.511337
0.135265 0.386418 0.511433
0.262105 0.386627 0.511770
0.391535 0.386902 0.512254
0.521476 0.387187 0.512782
0.651201 0.387535 0.513317
0.780429 0.388052 0.513858
0.909079 0.388855 0.514411
1.037125 0.390048 0.514986
0.077181 0.517365 0.513580
0.144852 0.517408 0.513632
0.266916 0.517562 0.513827
0.395108 0.517794 0.514135
0.524499 0.518056 0.514495
0.653909 0.518358 0.514876
0.782957 0.518745 0.515269
0.911484 0.519284 0.515683
1.039425 0.520045 0.516131
0.109978 0.647658 0.515354
0.161641 0.647686 0.515385
0.275009 0.647794 0.515505
0.400285 0.647970 0.515710
0.528304 0.648187 0.515970
0.656998 0.648433 0.516260
0.785644 0.648726 0.516573
0.913934 0.649105 0.516914
1.041724 0.649619 0.517294
0.146254 0.777074 0.516977
0.185466 0.777094 0.516996
0.287254 0.777172 0.517077
0.407744 0.777308 0.517221
0.533475 0.777483 0.517418
0.660912 0.777685 0.517651
0.788816 0.777916 0.517917
0.916649 0.778198 0.518217
1.044151 0.778563 0.518563
0.183679 0.905625 0.518690
0.214087 0.905639 0.518704
0.303731 0.905697 0.518762
0.417966 0.905802 0.518872
0.540458 0.905942 0.519028
0.666040 0.906107 0.519226
0.792800 0.906295 0.519462
0.919898 0.906513 0.519740
1.046920 0.906785 0.520068
0.221848 1.033344 0.520685
0.246020 1.033354 0.520696
0.324227 1.033399 0.520742
0.431184 1.033482 0.520830
0.549558 1.033596 0.520962
0.672671 1.033735 0.521136
0.797856 1.033895 0.521353
0.923906 1.034078 0.521617
1.050262 1.034293 0.521933
0.037964 -0.000048 0.626229
0.129856 -0.000056 0.626713
0.256416 -0.000134 0.628370
0.385727 -0.000302 0.630787
0.515830 -0.000489 0.633095
0.645996 -0.000616 0.635110
0.775715 -0.000578 0.636841
0.904857 -0.000289 0.638337
1.033373 0.034485 0.639652
0.041875 0.125794 0.629123
0.131282 0.125792 0.629515
0.257802 0.125616 0.630778
0.386957 0.125042 0.632462
0.516849 0.124308 0.634213
0.646813 0.123952 0.635865
0.776370 0.124764 0.637365
0.905390 0.127268 0.638712
1.033814 0.131847 0.639927
0.049985 0.255605 0.634172
0.134365 0.255671 0.634369
0.260612 0.255860 0.635033
0.389696 0.256066 0.635954
0.519442 0.256266 0.636960
0.649138 0.256584 0.637982
0.778414 0.257237 0.638987
0.907171 0.258437 0.639959
1.035357 0.260394 0.640894
0.063412 0.386666 0.637868
0.139224 0.386719 0.637975
0.263814 0.386902 0.638358
0.392594 0.387154 0.638928
0.522237 0.387426 0.639571
0.651787 0.387770 0.640233
0.780914 0.388288 0.640898
0.909503 0.389093 0.641565
1.037513 0.390287 0.642236
0.085610 0.517634 0.640565
0.148587 0.517672 0.640626
0.268586 0.517814 0.640857
0.396129 0.518030 0.641229
0.525208 0.518281 0.641672
0.654449 0.518577 0.642141
0.783400 0.518961 0.642620
0.911871 0.519498 0.643108
1.039779 0.520257 0.643612
0.115402 0.647904 0.642654
0.164889 0.647930 0.642691
0.276597 0.648031 0.642836
0.401239 0.648199 0.643087
0.528965 0.648407 0.643405
0.657499 0.648647 0.643757
0.786054 0.648936 0.644127
0.914290 0.649312 0.644513
1.042048 0.649824 0.644919
0.149804 0.777310 0.644422
0.188036 0.777329 0.644446
0.288661 0.777404 0.644544
0.408615 0.777534 0.644719
0.534083 0.777703 0.644954
0.661376 0.777899 0.645229
0.789194 0.778126 0.645529
0.916976 0.778405 0.645852
1.044448 0.778767 0.646200
0.186099 0.905855 0.646088
0.216045 0.905868 0.646105
0.304941 0.905924 0.646174
0.418747 0.906025 0.646303
0.541011 0.906161 0.646484
0.666462 0.906322 0.646705
0.793146 0.906505 0.646958
0.920197 0.906721 0.647240
1.047192 0.906989 0.647552
0.223551 1.033569 0.647825
0.247499 1.033579 0.647837
0.325238 1.033623 0.647888
0.431867 1.033703 0.647987
0.550051 1.033815 0.648132
0.673052 1.033949 0.648317
0.798169 1.034106 0.648536
0.924176 1.034285 0.648789
1.050514 1.034496 0.649075
0.059973 -0.000026 0.750961
0.136023 -0.000047 0.751435
0.259595 -0.000128 0.753139
0.387805 -0.000268 0.755480
0.517317 -0.000433 0.757870
0.647090 -0.000535 0.760066
0.776555 -0.000475 0.762011
0.905532 -0.000171 0.763722
1.033938 0.039894 0.765233
0.062742 0.126376 0.753891
0.137384 0.126343 0.754239
0.260764 0.126117 0.755444
0.388870 0.125583 0.757174
0.518233 0.124949 0.759061
0.647845 0.124717 0.760900
0.777173 0.125643 0.762604
0.906043 0.128204 0.764153
1.034364 0.132810 0.765554
0.069090 0.256098 0.759119
0.140559 0.256145 0.759310
0.263382 0.256291 0.759987
0.391407 0.256468 0.760985
0.520658 0.256656 0.762121
0.650045 0.256981 0.763298
0.779129 0.257646 0.764468
0.907760 0.258860 0.765602
1.035863 0.260830 0.766687
0.079558 0.387037 0.763253
0.145466 0.387081 0.763364
0.266528 0.387238 0.763774
0.394224 0.387464 0.764409
0.523357 0.387722 0.765148
0.652609 0.388064 0.765924
0.781556 0.388584 0.766710
0.910033 0.389392 0.767494
1.037970 0.390587 0.768274
0.097360 0.517935 0.766365
0.154418 0.517969 0.766432
0.271232 0.518097 0.766689
0.397704 0.518295 0.767113
0.526262 0.518534 0.767629
0.655216 0.518824 0.768182
0.783996 0.519205 0.768748
0.912358 0.519741 0.769320
1.040199 0.520501 0.769899
0.123531 0.648163 0.768784
0.169971 0.648187 0.768826
0.279096 0.648281 0.768993
0.402719 0.648439 0.769283
0.529958 0.648638 0.769655
0.658222 0.648872 0.770070
0.786612 0.649157 0.770504
0.914745 0.649532 0.770947
1.042438 0.650042 0.771402
0.155321 0.777550 0.770769
0.192087 0.777568 0.770796
0.290896 0.777638 0.770910
0.409979 0.777762 0.771114
0.535007 0.777925 0.771389
0.662052 0.778115 0.771709
0.789718 0.778339 0.772054
0.917403 0.778615 0.772416
1.044812 0.778975 0.772793
0.189954 0.906084 0.772522
0.219181 0.906097 0.772542
0.306876 0.906150 0.772622
0.419978 0.906247 0.772770
0.541860 0.906379 0.772979
0.667090 0.906535 0.773232
0.793633 0.906715 0.773514
0.920595 0.906927 0.773819
1.047536 0.907193 0.774145
0.226321 1.033794 0.774201
0.249899 1.033804 0.774216
0.326872 1.033846 0.774274
0.432960 1.033923 0.774386
0.550821 1.034031 0.774549
0.673625 1.034162 0.774754
0.798619 1.034315 0.774991
0.924545 1.034492 0.775254
1.050836 1.034701 0.775541
0.082674 0.011433 0.875279
0.145299 0.006750 0.875688
0.264054 -0.000062 0.877164
0.390630 -0.000184 0.879347
0.519311 -0.000323 0.881731
0.648541 -0.000396 0.884030
0.777654 -0.000310 0.886133
0.906395 0.008116 0.888022
1.034639 0.046494 0.889711
0.084560 0.127284 0.877863
0.146490 0.127236 0.878170
0.265036 0.126997 0.879290
0.391542 0.126529 0.880998
0.520122 0.126006 0.882948
0.649229 0.125925 0.884913
0.778231 0.126970 0.886778
0.906880 0.129591 0.888501
1.035047 0.134214 0.890072
0.089616 0.256734 0.883107
0.149573 0.256768 0.883288
0.267442 0.256880 0.883956
0.393870 0.257029 0.884997
0.522363 0.257206 0.886227
0.651290 0.257540 0.887531
0.780085 0.258222 0.888843
0.908523 0.259454 0.890126
1.036493 0.261440 0.891355
0.097772 0.387490 0.887583
0.154272 0.387527 0.887695
0.270505 0.387660 0.888118
0.396591 0.387860 0.888797
0.524949 0.388104 0.889613
0.653755 0.388444 0.890488
0.782427 0.388968 0.891384
0.910726 0.389780 0.892284
1.038544 0.390978 0.893175
0.112018 0.518285 0.891065
0.162643 0.518314 0.891136
0.275104 0.518427 0.891412
0.399987 0.518607 0.891875
0.527774 0.518835 0.892452
0.656297 0.519118 0.893082
0.784812 0.519497 0.893732
0.913003 0.520033 0.894390
1.040730 0.520793 0.895050
0.134459 0.648449 0.893807
0.177174 0.648471 0.893852
0.282743 0.648557 0.894037
0.404879 0.648704 0.894360
0.531392 0.648894 0.894781
0.659246 0.649121 0.895255
0.787385 0.649403 0.895752
0.915353 0.649776 0.896260
1.042936 0.650287 0.896774
0.163104 0.777802 0.896039
0.197935 0.777818 0.896070
0.294181 0.777885 0.896197
0.411985 0.778002 0.896428
0.536354 0.778158 0.896741
0.663019 0.778343 0.897105
0.790449 0.778562 0.897498
0.917979 0.778836 0.897908
1.045283 0.779195 0.898327
0.195559 0.906318 0.897948
0.223786 0.906331 0.897970
0.309748 0.906382 0.898060
0.421805 0.906474 0.898229
0.543109 0.906600 0.898465
0.667995 0.906752 0.898752
0.794322 0.906928 0.899070
0.921138 0.907139 0.899409
1.047985 0.907401 0.899762
0.230436 1.034019 0.899680
0.253480 1.034029 0.899696
0.329325 1.034069 0.899762
0.434592 1.034143 0.899890
0.551962 1.034248 0.900073
0.674464 1.034376 0.900301
0.799260 1.034525 0.900562
0.925054 1.034700 0.900848
1.051262 1.034907 0.901153
0.105715 0.025291 0.998818
0.157510 0.024227 0.999158
0.269984 0.018957 1.000434
0.394335 -0.000029 1.002439
0.521897 -0.000139 1.004758
0.650419 -0.000183 1.007095
0.779070 -0.000069 1.009305
0.907498 0.032543 1.011333
1.035521 0.054037 1.013175
0.107111 0.128648 1.001070
0.158518 0.128598 1.001341
0.270809 0.128385 1.002366
0.395112 0.128000 1.004009
0.522608 0.127594 1.005967
0.651040 0.127685 1.008004
0.779603 0.128840 1.009986
0.907952 0.131521 1.011849
1.035909 0.136147 1.013570
0.111016 0.257552 1.006213
0.161287 0.257577 1.006383
0.273000 0.257662 1.007030
0.397231 0.257786 1.008085
0.524659 0.257958 1.009375
0.652952 0.258306 1.010776
0.781346 0.259007 1.012208
0.909514 0.260259 1.013621
1.037295 0.262262 1.014985
0.117508 0.388046 1.010945
0.165659 0.388076 1.011054
0.275952 0.388188 1.011479
0.399843 0.388364 1.012183
0.527118 0.388598 1.013058
0.655305 0.388936 1.014017
0.783592 0.389465 1.015013
0.911637 0.390282 1.016018
1.039281 0.391482 1.017018
0.129005 0.518698 1.014749
0.173330 0.518723 1.014822
0.280409 0.518821 1.015109
0.403121 0.518985 1.015600
0.529848 0.519200 1.016226
0.657770 0.519477 1.016924
0.785912 0.519854 1.017653
0.913858 0.520390 1.018393
1.041417 0.521152 1.019138
0.147941 0.648775 1.017795
0.186615 0.648794 1.017844
0.287728 0.648872 1.018041
0.407859 0.649008 1.018392
0.533371 0.649188 1.018854
0.660653 0.649409 1.019382
0.788433 0.649688 1.019942
0.916164 0.650060 1.020516
1.043587 0.650570 1.021096
0.173230 0.778078 1.020287
0.205759 0.778094 1.020321
0.298706 0.778154 1.020460
0.414769 0.778264 1.020713
0.538223 0.778413 1.021060
0.664355 0.778591 1.021469
0.791447 0.778807 1.021912
0.918752 0.779080 1.022373
1.045902 0.779438 1.022841
0.203112 0.906565 1.022393
0.230071 0.906578 1.022418
0.313742 0.906624 1.022518
0.424357 0.906713 1.022705
0.544852 0.906833 1.022970
0.669253 0.906980 1.023291
0.795267 0.907152 1.023648
0.921872 0.907361 1.024027
1.048579 0.907621 1.024419
0.236111 1.034250 1.024253
0.258457 1.034259 1.024271
0.332763 1.034298 1.024345
0.436893 1.034368 1.024487
0.553563 1.034470 1.024692
0.675633 1.034594 1.024948
0.800146 1.034740 1.025240
0.925746 1.034913 1.025558
1.051831 1.035116 1.025890
