data/manual_verify/ref_candidates/candidate_b.cube
# Generated by Local Color Service V0.1.3 using OpenColorIO Baker
# Recipe Hash: 998e3e5af4e465ba0125542480842889e00663ffd6308327974c51f5ee2fc296
# OCIO Config: studio-config-v4.0.0_aces-v2.0_ocio-v2.5
LUT_3D_SIZE 5
0.040977 0.040977 0.040977
0.261481 0.027377 0.035927
0.530417 -0.001096 -0.000167
0.798163 -0.002655 -0.000976
1.065203 -0.004744 -0.001837
-0.000690 0.260690 -0.000108
0.260121 0.260289 -0.000208
0.527837 0.258735 -0.000632
0.795894 0.255313 -0.001198
1.063367 0.249997 -0.002031
-0.003208 0.525573 -0.001572
0.254151 0.525359 -0.001612
0.524467 0.524685 -0.001808
0.792060 0.523590 -0.002246
1.059290 0.521975 -0.002948
-0.007145 0.790185 -0.003690
0.243217 0.790044 -0.003721
0.520348 0.789552 -0.003868
0.788541 0.788791 -0.004197
1.055439 0.787803 -0.004750
-0.012088 1.054036 -0.006475
0.227732 1.053936 -0.006501
0.515006 1.053558 -0.006618
0.784824 1.052934 -0.006874
1.051864 1.052139 -0.007310
0.028138 0.038463 0.263630
0.261419 0.021626 0.262660
0.529963 -0.001109 0.260600
0.797650 -0.002659 0.258466
1.064737 -0.004743 0.256068
-0.000708 0.260395 0.260474
0.260019 0.260019 0.260019
0.527520 0.258507 0.259003
0.795494 0.255149 0.257477
1.062965 0.249885 0.255338
-0.003163 0.525320 0.256501
0.254202 0.525114 0.256321
0.524347 0.524466 0.255667
0.791847 0.523404 0.254467
1.059032 0.521826 0.252626
-0.007086 0.789998 0.250812
0.243344 0.789861 0.250692
0.520315 0.789379 0.250193
0.788437 0.788634 0.249197
1.055290 0.787665 0.247611
-0.012031 1.053897 0.242922
0.227882 1.053799 0.242827
0.515008 1.053425 0.242422
0.784773 1.052809 0.241585
1.051780 1.052023 0.240222
-0.001483 0.020392 0.536217
0.260052 -0.000261 0.534435
0.529287 -0.001253 0.530645
0.797026 -0.002750 0.527700
1.064054 -0.004799 0.525401
-0.001333 0.259883 0.529980
0.258881 0.259550 0.529265
0.527098 0.258071 0.527764
0.794991 0.254773 0.526127
1.062351 0.249578 0.524463
-0.003334 0.524904 0.525018
0.253756 0.524715 0.524783
0.524096 0.524096 0.524096
0.791493 0.523064 0.523205
1.058559 0.521518 0.522163
-0.007055 0.789584 0.521407
0.243369 0.789454 0.521298
0.520198 0.788991 0.520905
0.788201 0.788269 0.520291
1.054949 0.787328 0.519506
-0.011922 1.053515 0.517876
0.228165 1.053420 0.517811
0.514987 1.053056 0.517551
0.784629 1.052458 0.517093
1.051545 1.051691 0.516456
-0.003135 -0.000678 0.808091
0.256306 -0.000883 0.806088
0.528054 -0.001600 0.801725
0.796270 -0.003003 0.797850
1.063388 -0.004984 0.794741
-0.002820 0.259012 0.800647
0.255651 0.258709 0.799851
0.526248 0.257273 0.797859
0.794417 0.254066 0.795595
1.061775 0.248982 0.793375
-0.004123 0.524460 0.793844
0.251762 0.524292 0.793535
0.523513 0.523708 0.792611
0.791086 0.522699 0.791441
1.058115 0.521178 0.790178
-0.007386 0.789160 0.789288
0.242390 0.789038 0.789145
0.519838 0.788598 0.788639
0.787899 0.787898 0.787898
1.054593 0.786976 0.787040
-0.012004 1.053084 0.785665
0.227851 1.052992 0.785585
0.514806 1.052643 0.785278
0.784416 1.052061 0.784770
1.051266 1.051312 0.784131
-0.005522 -0.001401 1.078042
0.250054 -0.001530 1.076519
0.526128 -0.002160 1.072432
0.795205 -0.003446 1.068083
1.062590 -0.005332 1.064298
-0.005051 0.257661 1.071118
0.250136 0.257374 1.070347
0.524744 0.255986 1.068110
0.793584 0.252904 1.065347
1.061101 0.247977 1.062564
-0.005639 0.523928 1.062926
0.247762 0.523781 1.062578
0.522378 0.523237 1.061476
0.790483 0.522257 1.060010
1.057614 0.520764 1.058416
-0.008269 0.788724 1.057184
0.239801 0.788613 1.057009
0.519034 0.788200 1.056386
0.787434 0.787525 1.055466
1.054191 0.786622 1.054412
-0.012475 1.052657 1.052799
0.226288 1.052570 1.052699
0.514289 1.052236 1.052321
0.784069 1.051674 1.051703
1.050942 1.050942 1.050942
