data/manual_verify/ref_candidates/candidate_c.cube
# Generated by Local Color Service V0.1.3 using OpenColorIO Baker
# Recipe Hash: 49a11630166ad4f1a1db4680d26f9225b7059649f0503971d156a5edb6d67887
# OCIO Config: studio-config-v4.0.0_aces-v2.0_ocio-v2.5
LUT_3D_SIZE 5
-0.000163 -0.000203 -0.000225
0.251893 -0.000131 -0.000128
0.512519 -0.000497 -0.000099
0.773308 -0.000685 -0.000377
1.031402 0.025169 -0.000486
-0.000078 0.254209 -0.000039
0.256632 0.254739 -0.000065
0.516923 0.255325 -0.000291
0.776409 0.256349 -0.000486
1.033597 0.259520 -0.000543
0.067323 0.516546 -0.000522
0.264983 0.516781 -0.000542
0.523335 0.517352 -0.000610
0.781942 0.518111 -0.000661
1.038442 0.519478 -0.000551
0.142573 0.776402 -0.000050
0.285728 0.776510 -0.000051
0.532639 0.776854 -0.000041
0.788119 0.777329 0.014892
1.043471 0.778022 0.034529
0.220180 1.032788 0.080733
0.323199 1.032848 0.080914
0.548960 1.033061 0.081836
0.797375 1.033382 0.084297
1.049790 1.033810 0.089346
-0.000089 -0.000159 0.249257
0.252559 -0.000111 0.250542
0.513360 -0.000500 0.252891
0.774028 -0.000676 0.254502
1.031982 0.026250 0.255837
-0.000022 0.254620 0.253398
0.257252 0.255091 0.253896
0.517550 0.255607 0.254650
0.776989 0.256565 0.255360
1.034103 0.259692 0.256312
0.069042 0.516854 0.256100
0.265379 0.517078 0.256209
0.523669 0.517616 0.256471
0.782280 0.518335 0.256843
1.038774 0.519662 0.257602
0.143152 0.776613 0.259174
0.285994 0.776718 0.259225
0.532827 0.777050 0.259429
0.788308 0.777508 0.259879
1.043666 0.778181 0.260816
0.220420 1.032938 0.266426
0.323358 1.032997 0.266483
0.549073 1.033205 0.266738
0.797482 1.033519 0.267323
1.049906 1.033936 0.268448
0.017231 -0.000084 0.500975
0.254405 -0.000117 0.503010
0.514755 -0.000507 0.507304
0.775066 -0.000636 0.510517
1.032892 0.030469 0.512879
0.032646 0.255218 0.508179
0.258871 0.255546 0.508992
0.518603 0.255993 0.510636
0.777871 0.256951 0.512300
1.034928 0.260086 0.513894
0.077181 0.517365 0.513580
0.266916 0.517562 0.513827
0.524499 0.518056 0.514495
0.782957 0.518745 0.515269
1.039425 0.520045 0.516131
0.146254 0.777074 0.516977
0.287254 0.777172 0.517077
0.533475 0.777483 0.517418
0.788816 0.777916 0.517917
1.044151 0.778563 0.518563
0.221848 1.033344 0.520685
0.324227 1.033399 0.520742
0.549558 1.033596 0.520962
0.797856 1.033895 0.521353
1.050262 1.034293 0.521933
0.059973 -0.000026 0.750961
0.259595 -0.000128 0.753139
0.517317 -0.000433 0.757870
0.776555 -0.000475 0.762011
1.033938 0.039894 0.765233
0.069090 0.256098 0.759119
0.263382 0.256291 0.759987
0.520658 0.256656 0.762121
0.779129 0.257646 0.764468
1.035863 0.260830 0.766687
0.097360 0.517935 0.766365
0.271232 0.518097 0.766689
0.526262 0.518534 0.767629
0.783996 0.519205 0.768748
1.040199 0.520501 0.769899
0.155321 0.777550 0.770769
0.290896 0.777638 0.770910
0.535007 0.777925 0.771389
0.789718 0.778339 0.772054
1.044812 0.778975 0.772793
0.226321 1.033794 0.774201
0.326872 1.033846 0.774274
0.550821 1.034031 0.774549
0.798619 1.034315 0.774991
1.050836 1.034701 0.775541
0.105715 0.025291 0.998818
0.269984 0.018957 1.000434
0.521897 -0.000139 1.004758
0.779070 -0.000069 1.009305
1.035521 0.054037 1.013175
0.111016 0.257552 1.006213
0.273000 0.257662 1.007030
0.524659 0.257958 1.009375
0.781346 0.259007 1.012208
1.037295 0.262262 1.014985
0.129005 0.518698 1.014749
0.280409 0.518821 1.015109
0.529848 0.519200 1.016226
0.785912 0.519854 1.017653
1.041417 0.521152 1.019138
0.173230 0.778078 1.020287
0.298706 0.778154 1.020460
0.538223 0.778413 1.021060
0.791447 0.778807 1.021912
1.045902 0.779438 1.022841
0.236111 1.034250 1.024253
0.332763 1.034298 1.024345
0.553563 1.034470 1.024692
0.800146 1.034740 1.025240
1.051831 1.035116 1.025890
