data/manual_verify/ref_candidates/candidate_b.cube
# Generated by Local Color Service V0.1.3 using OpenColorIO Baker
# Recipe Hash: 998e3e5af4e465ba0125542480842889e00663ffd6308327974c51f5ee2fc296
# OCIO Config: studio-config-v4.0.0_aces-v2.0_ocio-v2.5
LUT_3D_SIZE 9
0.040977 0.040977 0.040977
0.129861 0.040190 0.040192
0.261481 0.027377 0.035927
0.396346 -0.000490 0.025686
0.530417 -0.001096 -0.000167
0.664385 -0.001802 -0.000590
0.798163 -0.002655 -0.000976
0.931771 -0.003638 -0.001376
1.065203 -0.004744 -0.001837
0.037641 0.129396 0.037659
0.129241 0.129242 0.036772
0.261525 0.127983 0.031444
0.395441 0.125908 0.015022
0.529598 0.122283 -0.000260
0.663703 0.116986 -0.000671
0.797594 0.109872 -0.001015
0.931293 0.100585 -0.001413
1.064795 0.088304 -0.001873
-0.000690 0.260690 -0.000108
0.125274 0.260596 -0.000128
0.260121 0.260289 -0.000208
0.393865 0.259713 -0.000373
0.527837 0.258735 -0.000632
0.661907 0.257268 -0.000879
0.795894 0.255313 -0.001198
0.929726 0.252880 -0.001584
1.063367 0.249997 -0.002031
-0.001731 0.393080 -0.000816
0.117670 0.393018 -0.000824
0.257825 0.392796 -0.000861
0.392246 0.392434 -0.000946
0.526162 0.391913 -0.001094
0.660057 0.391194 -0.001311
0.793923 0.390253 -0.001600
0.927709 0.389078 -0.001957
1.061369 0.387669 -0.002379
-0.003208 0.525573 -0.001572
0.104829 0.525529 -0.001579
0.254151 0.525359 -0.001612
0.390192 0.525072 -0.001684
0.524467 0.524685 -0.001808
0.658325 0.524196 -0.001994
0.792060 0.523590 -0.002246
0.925720 0.522852 -0.002565
1.059290 0.521975 -0.002948
-0.005044 0.657968 -0.002539
0.084454 0.657933 -0.002546
0.249238 0.657797 -0.002575
0.387586 0.657555 -0.002637
0.522557 0.657227 -0.002743
0.656590 0.656827 -0.002901
0.790296 0.656353 -0.003119
0.923855 0.655799 -0.003399
1.057311 0.655159 -0.003742
-0.007145 0.790185 -0.003690
0.044498 0.790157 -0.003695
0.243217 0.790044 -0.003721
0.384402 0.789839 -0.003776
0.520348 0.789552 -0.003868
0.654743 0.789200 -0.004007
0.788541 0.788791 -0.004197
0.922067 0.788326 -0.004444
1.055439 0.787803 -0.004750
-0.009501 0.922207 -0.005009
-0.001779 0.922185 -0.005014
0.236050 0.922091 -0.005038
0.380679 0.921914 -0.005087
0.517827 0.921661 -0.005169
0.652731 0.921344 -0.005290
0.786730 0.920975 -0.005458
0.920300 0.920560 -0.005676
1.053636 0.920100 -0.005947
-0.012088 1.054036 -0.006475
-0.004362 1.054016 -0.006479
0.227732 1.053936 -0.006501
0.376461 1.053783 -0.006545
0.515006 1.053558 -0.006618
0.650538 1.053272 -0.006726
0.784824 1.052934 -0.006874
0.918505 1.052555 -0.007068
1.051864 1.052139 -0.007310
0.040620 0.040624 0.129949
0.129792 0.039826 0.129795
0.261549 0.026628 0.129030
0.396282 -0.000497 0.127844
0.530264 -0.001095 0.126497
0.664198 -0.001801 0.124628
0.797995 -0.002654 0.122211
0.931625 -0.003637 0.119196
1.065075 -0.004743 0.115549
0.037241 0.129326 0.129327
0.129172 0.129172 0.129172
0.261562 0.127948 0.128349
0.395367 0.125870 0.127402
0.529451 0.122244 0.126107
0.663529 0.116947 0.124282
0.797437 0.109845 0.121885
0.931153 0.100568 0.118882
1.064671 0.088293 0.115241
-0.000667 0.260596 0.126890
0.125429 0.260504 0.126795
0.260120 0.260201 0.126429
0.393788 0.259629 0.125704
0.527719 0.258661 0.124508
0.661782 0.257210 0.122764
0.795772 0.255268 0.120431
0.929609 0.252846 0.117478
1.063260 0.249970 0.113860
-0.001717 0.392989 0.123310
0.117770 0.392928 0.123237
0.257824 0.392711 0.122924
0.392207 0.392356 0.122265
0.526098 0.391845 0.121154
0.659979 0.391136 0.119511
0.793839 0.390204 0.117277
0.927624 0.389038 0.114397
1.061284 0.387636 0.110827
-0.003193 0.525506 0.117618
0.104962 0.525462 0.117553
0.254168 0.525294 0.117266
0.390178 0.525011 0.116654
0.524434 0.524628 0.115615
0.658279 0.524144 0.114064
0.792005 0.523544 0.111927
0.925661 0.522811 0.109139
1.059228 0.521940 0.105632
-0.005029 0.657915 0.109512
0.084632 0.657881 0.109448
0.249264 0.657745 0.109170
0.387585 0.657505 0.108580
0.522540 0.657180 0.107584
0.656562 0.656783 0.106085
0.790261 0.656312 0.103995
0.923814 0.655762 0.101222
1.057266 0.655126 0.097675
-0.007131 0.790143 0.098403
0.044925 0.790115 0.098337
0.243248 0.790003 0.098049
0.384407 0.789798 0.097438
0.520340 0.789514 0.096411
0.654726 0.789163 0.094866
0.788517 0.788756 0.092696
0.922038 0.788294 0.089784
1.055406 0.787773 0.085992
-0.009488 0.922173 0.082823
-0.001766 0.922150 0.082746
0.236080 0.922057 0.082410
0.380685 0.921881 0.081711
0.517824 0.921628 0.080545
0.652721 0.921312 0.078777
0.786714 0.920945 0.076267
0.920279 0.920531 0.072832
1.053612 0.920073 0.068225
-0.012075 1.054007 0.058150
-0.004351 1.053988 0.058033
0.227766 1.053907 0.057541
0.376472 1.053754 0.056496
0.515008 1.053530 0.054718
0.650533 1.053244 0.051961
0.784814 1.052908 0.047815
0.918492 1.052530 0.041548
1.051847 1.052115 0.031126
0.028138 0.038463 0.263630
0.127862 0.037629 0.263402
0.261419 0.021626 0.262660
0.396048 -0.000549 0.261748
0.529963 -0.001109 0.260600
0.663867 -0.001810 0.259537
0.797650 -0.002659 0.258466
0.931278 -0.003639 0.257322
1.064737 -0.004743 0.256068
0.023363 0.128936 0.262770
0.127992 0.128739 0.262529
0.261373 0.127714 0.261808
0.395155 0.125657 0.260998
0.529184 0.122064 0.260145
0.663221 0.116800 0.259236
0.797109 0.109727 0.258246
0.930820 0.100470 0.257148
1.064343 0.088212 0.255922
-0.000708 0.260395 0.260474
0.125166 0.260311 0.260358
0.260019 0.260019 0.260019
0.393648 0.259460 0.259565
0.527520 0.258507 0.259003
0.661534 0.257074 0.258312
0.795494 0.255149 0.257477
0.929318 0.252744 0.256488
1.062965 0.249885 0.255338
-0.001710 0.392789 0.258596
0.117818 0.392731 0.258541
0.257801 0.392522 0.258338
0.392125 0.392179 0.258007
0.525962 0.391679 0.257556
0.659797 0.390985 0.256970
0.793623 0.390069 0.256231
0.927388 0.388918 0.255327
1.061038 0.387531 0.254251
-0.003163 0.525320 0.256501
0.105223 0.525277 0.256465
0.254202 0.525114 0.256321
0.390142 0.524839 0.256056
0.524347 0.524466 0.255667
0.658151 0.523993 0.255142
0.791847 0.523404 0.254467
0.925479 0.522685 0.253631
1.059032 0.521826 0.252626
-0.004988 0.657750 0.253931
0.085131 0.657716 0.253904
0.249338 0.657584 0.253790
0.387582 0.657349 0.253566
0.522490 0.657031 0.253224
0.656476 0.656641 0.252750
0.790146 0.656179 0.252131
0.923678 0.655638 0.251357
1.057114 0.655012 0.250419
-0.007086 0.789998 0.250812
0.046278 0.789971 0.250789
0.243344 0.789861 0.250692
0.384424 0.789660 0.250498
0.520315 0.789379 0.250193
0.654669 0.789035 0.249762
0.788437 0.788634 0.249197
0.921938 0.788177 0.248482
1.055290 0.787665 0.247611
-0.009443 0.922048 0.247135
-0.001723 0.922026 0.247115
0.236192 0.921933 0.247030
0.380717 0.921758 0.246858
0.517815 0.921508 0.246583
0.652685 0.921197 0.246192
0.786656 0.920834 0.245674
0.920205 0.920425 0.245017
1.053523 0.919973 0.244210
-0.012031 1.053897 0.242922
-0.004308 1.053878 0.242905
0.227882 1.053799 0.242827
0.376510 1.053646 0.242673
0.515008 1.053425 0.242422
0.650511 1.053142 0.242064
0.784773 1.052809 0.241585
0.918435 1.052434 0.240976
1.051780 1.052023 0.240222
-0.000500 0.033510 0.399814
0.124035 0.031917 0.399410
0.260983 -0.000036 0.398308
0.395721 -0.000643 0.396860
0.529671 -0.001158 0.395325
0.663573 -0.001847 0.394048
0.797335 -0.002687 0.392927
0.930942 -0.003660 0.391888
1.064384 -0.004758 0.390886
-0.000517 0.128188 0.398229
0.126007 0.128036 0.397846
0.260869 0.127233 0.396864
0.394884 0.125210 0.395752
0.528938 0.121665 0.394658
0.662952 0.116451 0.393621
0.796810 0.109421 0.392634
0.930494 0.100195 0.391676
1.063997 0.087953 0.390724
-0.000913 0.260172 0.394911
0.123783 0.260097 0.394760
0.259671 0.259818 0.394308
0.393461 0.259266 0.393734
0.527337 0.258321 0.393107
0.661315 0.256900 0.392433
0.795235 0.254991 0.391713
0.929024 0.252602 0.390946
1.062646 0.249758 0.390130
-0.001803 0.392584 0.392683
0.117099 0.392530 0.392613
0.257596 0.392331 0.392364
0.391996 0.391995 0.391995
0.525822 0.391504 0.391559
0.659619 0.390818 0.391065
0.793406 0.389911 0.390510
0.927134 0.388771 0.389887
1.060756 0.387395 0.389194
-0.003187 0.525111 0.390822
0.104982 0.525071 0.390782
0.254122 0.524913 0.390628
0.390067 0.524645 0.390368
0.524244 0.524280 0.390032
0.658010 0.523815 0.389630
0.791668 0.523235 0.389165
0.925267 0.522525 0.388629
1.058791 0.521676 0.388020
-0.004971 0.657542 0.389001
0.085336 0.657509 0.388975
0.249358 0.657381 0.388867
0.387552 0.657151 0.388673
0.522420 0.656839 0.388401
0.656369 0.656457 0.388061
0.790004 0.656003 0.387654
0.923504 0.655471 0.387178
1.056914 0.654854 0.386627
-0.007044 0.789798 0.387069
0.047463 0.789771 0.387050
0.243430 0.789663 0.386969
0.384429 0.789466 0.386815
0.520273 0.789191 0.386589
0.654590 0.788853 0.386295
0.788324 0.788458 0.385933
0.921797 0.788010 0.385502
1.055125 0.787504 0.384997
-0.009389 0.921859 0.384955
-0.001670 0.921837 0.384940
0.236322 0.921746 0.384875
0.380747 0.921574 0.384748
0.517796 0.921329 0.384555
0.652629 0.921022 0.384296
0.786571 0.920664 0.383970
0.920093 0.920262 0.383576
1.053390 0.919816 0.383111
-0.011970 1.053722 0.382623
-0.004248 1.053703 0.382611
0.228052 1.053624 0.382556
0.376557 1.053476 0.382446
0.515006 1.053256 0.382278
0.650473 1.052977 0.382047
0.784709 1.052648 0.381752
0.918347 1.052279 0.381390
1.051672 1.051872 0.380959
-0.001483 0.020392 0.536217
0.120189 0.012110 0.535763
0.260052 -0.000261 0.534435
0.395133 -0.000757 0.532518
0.529287 -0.001253 0.530645
0.663251 -0.001925 0.529062
0.797026 -0.002750 0.527700
0.930625 -0.003710 0.526496
1.064054 -0.004799 0.525401
-0.001187 0.127353 0.534020
0.122059 0.127201 0.533636
0.259855 0.126402 0.532527
0.394413 0.124421 0.531162
0.528613 0.120944 0.529791
0.662663 0.115797 0.528503
0.796520 0.108824 0.527317
0.930190 0.099628 0.526221
1.063676 0.087390 0.525196
-0.001333 0.259883 0.529980
0.120770 0.259816 0.529808
0.258881 0.259550 0.529265
0.393108 0.259007 0.528546
0.527098 0.258071 0.527764
0.661089 0.256665 0.526952
0.794991 0.254773 0.526127
0.928756 0.252403 0.525296
1.062351 0.249578 0.524463
-0.002062 0.392367 0.527179
0.115020 0.392317 0.527093
0.257024 0.392129 0.526787
0.391726 0.391803 0.526335
0.525633 0.391318 0.525815
0.659435 0.390639 0.525256
0.793200 0.389740 0.524664
0.926900 0.388609 0.524040
1.060494 0.387243 0.523383
-0.003334 0.524904 0.525018
0.103583 0.524865 0.524969
0.253756 0.524715 0.524783
0.389878 0.524454 0.524476
0.524096 0.524096 0.524096
0.657858 0.523638 0.523669
0.791493 0.523064 0.523205
0.925063 0.522360 0.522704
1.058559 0.521518 0.522163
-0.005037 0.657331 0.523156
0.084482 0.657300 0.523126
0.249169 0.657175 0.523002
0.387434 0.656951 0.522784
0.522310 0.656646 0.522493
0.656244 0.656270 0.522149
0.789855 0.655822 0.521764
0.923328 0.655296 0.521339
1.056710 0.654685 0.520873
-0.007055 0.789584 0.521407
0.047097 0.789558 0.521386
0.243369 0.789454 0.521298
0.384370 0.789260 0.521134
0.520198 0.788991 0.520905
0.654493 0.788658 0.520621
0.788201 0.788269 0.520291
0.921648 0.787827 0.519919
1.054949 0.787328 0.519506
-0.009364 0.921647 0.519667
-0.001648 0.921625 0.519651
0.236361 0.921537 0.519584
0.380735 0.921368 0.519457
0.517751 0.921127 0.519270
0.652557 0.920824 0.519030
0.786472 0.920472 0.518744
0.919967 0.920075 0.518414
1.053239 0.919635 0.518041
-0.011922 1.053515 0.517876
-0.004204 1.053497 0.517864
0.228165 1.053420 0.517811
0.376583 1.053273 0.517707
0.514987 1.053056 0.517551
0.650421 1.052782 0.517345
0.784629 1.052458 0.517093
0.918243 1.052093 0.516796
1.051545 1.051691 0.516456
-0.002237 -0.000244 0.672390
0.114494 -0.000306 0.671953
0.258554 -0.000585 0.670464
0.394269 -0.000926 0.668278
0.528755 -0.001399 0.666183
0.662851 -0.002048 0.664334
0.796681 -0.002853 0.662719
0.930299 -0.003798 0.661295
1.063729 -0.004873 0.660018
-0.001981 0.126120 0.669800
0.116096 0.125962 0.669446
0.258266 0.125163 0.668308
0.393676 0.123232 0.666785
0.528154 0.119834 0.665190
0.662305 0.114766 0.663663
0.796199 0.107857 0.662251
0.929879 0.098686 0.660956
1.063362 0.086419 0.659765
-0.001973 0.259502 0.665292
0.115827 0.259441 0.665115
0.257552 0.259186 0.664517
0.392518 0.258653 0.663677
0.526747 0.257728 0.662740
0.660810 0.256340 0.661766
0.794728 0.254471 0.660785
0.928487 0.252125 0.659814
1.062068 0.249325 0.658864
-0.002516 0.392121 0.661945
0.111188 0.392076 0.661848
0.255977 0.391900 0.661497
0.391248 0.391584 0.660964
0.525347 0.391106 0.660344
0.659207 0.390434 0.659681
0.792982 0.389544 0.658993
0.926671 0.388422 0.658284
1.060245 0.387065 0.657560
-0.003639 0.524690 0.659369
0.100559 0.524654 0.659312
0.252993 0.524511 0.659093
0.389514 0.524259 0.658732
0.523864 0.523909 0.658285
0.657667 0.523456 0.657792
0.791306 0.522887 0.657268
0.924863 0.522190 0.656719
1.058337 0.521354 0.656147
-0.005225 0.657121 0.657242
0.081981 0.657091 0.657206
0.248660 0.656971 0.657061
0.387170 0.656754 0.656807
0.522128 0.656456 0.656473
0.656086 0.656086 0.656086
0.789694 0.655643 0.655664
0.923150 0.655122 0.655215
1.056512 0.654517 0.654740
-0.007159 0.789371 0.655370
0.043797 0.789347 0.655345
0.243053 0.789245 0.655244
0.384193 0.789058 0.655057
0.520063 0.788793 0.654800
0.654364 0.788466 0.654489
0.788063 0.788082 0.654139
0.921493 0.787645 0.653758
1.054773 0.787151 0.653349
-0.009409 0.921432 0.653633
-0.001695 0.921411 0.653615
0.236200 0.921324 0.653540
0.380632 0.921159 0.653399
0.517657 0.920923 0.653195
0.652455 0.920625 0.652940
0.786356 0.920278 0.652644
0.919832 0.919885 0.652314
1.053082 0.919450 0.651955
-0.011925 1.053300 0.651956
-0.004207 1.053282 0.651943
0.228132 1.053206 0.651885
0.376538 1.053062 0.651773
0.514928 1.052849 0.651608
0.650346 1.052579 0.651395
0.784535 1.052259 0.651141
0.918127 1.051899 0.650852
1.051410 1.051501 0.650531
-0.003135 -0.000678 0.808091
0.106813 -0.000738 0.807656
0.256306 -0.000883 0.806088
0.393119 -0.001152 0.803932
0.528054 -0.001600 0.801725
0.662346 -0.002222 0.799683
0.796270 -0.003003 0.797850
0.929936 -0.003927 0.796213
1.063388 -0.004984 0.794741
-0.002956 0.124450 0.805409
0.107875 0.124286 0.805089
0.256099 0.123487 0.803984
0.392647 0.121607 0.802393
0.527530 0.118291 0.800646
0.661846 0.113308 0.798926
0.795818 0.106460 0.797309
0.929535 0.097298 0.795816
1.063031 0.084962 0.794442
-0.002820 0.259012 0.800647
0.108673 0.258955 0.800472
0.255651 0.258709 0.799851
0.391656 0.258185 0.798926
0.526248 0.257273 0.797859
0.660446 0.255908 0.796733
0.794417 0.254066 0.795595
0.928192 0.251751 0.794469
1.061775 0.248982 0.793375
-0.003174 0.391835 0.796834
0.105239 0.391793 0.796732
0.254400 0.391629 0.796351
0.390524 0.391324 0.795752
0.524930 0.390854 0.795039
0.658908 0.390191 0.794271
0.792725 0.389310 0.793473
0.926423 0.388199 0.792657
1.059991 0.386854 0.791832
-0.004123 0.524460 0.793844
0.095480 0.524426 0.793780
0.251762 0.524292 0.793535
0.388930 0.524050 0.793125
0.523513 0.523708 0.792611
0.657412 0.523262 0.792042
0.791086 0.522699 0.791441
0.924648 0.522007 0.790818
1.058115 0.521178 0.790178
-0.005561 0.656906 0.791392
0.077216 0.656878 0.791351
0.247745 0.656763 0.791187
0.386715 0.656555 0.790896
0.521842 0.656264 0.790513
0.655870 0.655900 0.790070
0.789503 0.655463 0.789594
0.922962 0.654947 0.789093
1.056314 0.654346 0.788572
-0.007386 0.789160 0.789288
0.035159 0.789137 0.789260
0.242390 0.789038 0.789145
0.383855 0.788855 0.788932
0.519838 0.788598 0.788639
0.654185 0.788276 0.788288
0.787899 0.787898 0.787898
0.921325 0.787465 0.787480
1.054593 0.786976 0.787040
-0.009553 0.921219 0.787407
-0.001837 0.921199 0.787386
0.235750 0.921114 0.787302
0.380393 0.920953 0.787142
0.517487 0.920721 0.786912
0.652311 0.920429 0.786629
0.786214 0.920086 0.786305
0.919685 0.919698 0.785949
1.052923 0.919268 0.785569
-0.012004 1.053084 0.785665
-0.004287 1.053066 0.785650
0.227851 1.052992 0.785585
0.376383 1.052851 0.785461
0.514806 1.052643 0.785278
0.650232 1.052376 0.785044
0.784416 1.052061 0.784770
0.917997 1.051705 0.784464
1.051266 1.051312 0.784131
-0.004245 -0.001046 0.943187
0.095537 -0.001070 0.942806
0.253436 -0.001181 0.941429
0.391689 -0.001432 0.939393
0.527177 -0.001854 0.937162
0.661724 -0.002447 0.934997
0.795781 -0.003200 0.932994
0.929520 -0.004101 0.931172
1.063011 -0.005136 0.929519
-0.004090 0.122322 0.940791
0.096836 0.122152 0.940505
0.253362 0.121356 0.939464
0.391327 0.119523 0.937871
0.526731 0.116280 0.936041
0.661274 0.111381 0.934182
0.795361 0.104583 0.932396
0.929140 0.095401 0.930726
1.062669 0.082930 0.929179
-0.003850 0.258401 0.935942
0.098803 0.258346 0.935774
0.253174 0.258107 0.935151
0.390510 0.257591 0.934175
0.525583 0.256695 0.933007
0.659979 0.255356 0.931752
0.794039 0.253547 0.930470
0.927857 0.251267 0.929197
1.061457 0.248535 0.927957
-0.004029 0.391499 0.931753
0.096656 0.391462 0.931648
0.252272 0.391308 0.931250
0.389533 0.391013 0.930605
0.524359 0.390552 0.929814
0.658515 0.389898 0.928948
0.792411 0.389029 0.928042
0.926142 0.387931 0.927115
1.059718 0.386599 0.926180
-0.004791 0.524207 0.928380
0.087746 0.524176 0.928313
0.250023 0.524050 0.928049
0.388099 0.523819 0.927598
0.523022 0.523486 0.927025
0.657073 0.523047 0.926383
0.790816 0.522491 0.925701
0.924405 0.521805 0.924996
1.057877 0.520983 0.924274
-0.006058 0.656682 0.925598
0.069284 0.656656 0.925552
0.246372 0.656547 0.925371
0.386037 0.656347 0.925048
0.521429 0.656064 0.924619
0.655578 0.655707 0.924121
0.789267 0.655276 0.923584
0.922747 0.654765 0.923020
1.056102 0.654169 0.922437
-0.007752 0.788946 0.923226
-0.000039 0.788923 0.923194
0.241322 0.788829 0.923065
0.383319 0.788653 0.922828
0.519500 0.788401 0.922499
0.653937 0.788086 0.922105
0.787693 0.787714 0.921668
0.921134 0.787286 0.921203
1.054402 0.786801 0.920717
-0.009813 0.921006 0.921139
-0.002097 0.920986 0.921115
0.234937 0.920905 0.921020
0.379984 0.920748 0.920841
0.517218 0.920522 0.920584
0.652105 0.920235 0.920267
0.786037 0.919897 0.919906
0.919515 0.919515 0.919515
1.052751 0.919088 0.919100
-0.012181 1.052870 0.919249
-0.004465 1.052853 0.919231
0.227256 1.052781 0.919159
0.376081 1.052643 0.919020
0.514598 1.052439 0.918816
0.650064 1.052177 0.918558
0.784264 1.051866 0.918255
0.917848 1.051514 0.917921
1.051113 1.051126 0.917561
-0.005522 -0.001401 1.078042
0.079810 -0.001424 1.077720
0.250054 -0.001530 1.076519
0.389996 -0.001764 1.074627
0.526128 -0.002160 1.072432
0.660980 -0.002724 1.070206
0.795205 -0.003446 1.068083
0.929042 -0.004321 1.066112
1.062590 -0.005332 1.064298
-0.005363 0.119718 1.075932
0.081615 0.119546 1.075677
0.250082 0.118754 1.074712
0.389727 0.116957 1.073161
0.525753 0.113774 1.071304
0.660581 0.108948 1.069357
0.794820 0.102171 1.067444
0.928685 0.092930 1.065625
1.062265 0.080229 1.063922
-0.005051 0.257661 1.071118
0.085069 0.257608 1.070957
0.250136 0.257374 1.070347
0.389080 0.256865 1.069347
0.524744 0.255986 1.068110
0.659397 0.254676 1.066752
0.793584 0.252904 1.065347
0.927467 0.250666 1.063941
1.061101 0.247977 1.062564
-0.005068 0.391110 1.066638
0.084452 0.391075 1.066533
0.249590 0.390930 1.066129
0.388270 0.390645 1.065452
0.523623 0.390193 1.064601
0.658018 0.389551 1.063650
0.792029 0.388694 1.062646
0.925814 0.387611 1.061613
1.059415 0.386295 1.060570
-0.005639 0.523928 1.062926
0.076246 0.523899 1.062856
0.247762 0.523781 1.062578
0.387007 0.523560 1.062099
0.522378 0.523237 1.061476
0.656639 0.522806 1.060766
0.790483 0.522257 1.060010
0.924122 0.521579 1.059222
1.057614 0.520764 1.058416
-0.006723 0.656444 1.059828
0.056062 0.656419 1.059780
0.244505 0.656316 1.059585
0.385119 0.656125 1.059236
0.520876 0.655852 1.058765
0.655198 0.655503 1.058216
0.788974 0.655078 1.057618
0.922496 0.654573 1.056990
1.055868 0.653982 1.056343
-0.008269 0.788724 1.057184
-0.000552 0.788703 1.057149
0.239801 0.788613 1.057009
0.382567 0.788443 1.056749
0.519034 0.788200 1.056386
0.653609 0.787892 1.055951
0.787434 0.787525 1.055466
0.920909 0.787103 1.054950
1.054191 0.786622 1.054412
-0.010207 0.920791 1.054869
-0.002489 0.920772 1.054844
0.233717 0.920693 1.054739
0.379379 0.920542 1.054542
0.516836 0.920321 1.054259
0.651827 0.920041 1.053908
0.785812 0.919708 1.053510
0.919314 0.919331 1.053077
1.052561 0.918908 1.052621
-0.012475 1.052657 1.052799
-0.004759 1.052640 1.052779
0.226288 1.052570 1.052699
0.375606 1.052435 1.052545
0.514289 1.052236 1.052321
0.649831 1.051979 1.052035
0.784069 1.051674 1.051703
0.917669 1.051327 1.051335
1.050942 1.050942 1.050942
