data/manual_verify/ref_candidates/candidate_b.cube
# Generated by Local Color Service V0.1.3 using OpenColorIO Baker
# Recipe Hash: 998e3e5af4e465ba0125542480842889e00663ffd6308327974c51f5ee2fc296
# OCIO Config: studio-config-v4.0.0_aces-v2.0_ocio-v2.5
LUT_3D_SIZE 33
0.040977 0.040977 0.040977
0.048999 0.040949 0.040949
0.071692 0.040830 0.040830
0.099882 0.040586 0.040586
0.129861 0.040190 0.040192
0.160560 0.039615 0.039623
0.194012 0.037129 0.038605
0.227741 0.033291 0.037385
0.261481 0.027377 0.035927
0.295227 0.015856 0.034155
0.328966 -0.000106 0.031974
0.362681 -0.000286 0.029236
0.396346 -0.000490 0.025686
0.429917 -0.000678 0.020293
0.463413 -0.000806 0.007220
0.496914 -0.000945 -0.000077
0.530417 -0.001096 -0.000167
0.563922 -0.001258 -0.000263
0.597421 -0.001430 -0.000366
0.630909 -0.001611 -0.000474
0.664385 -0.001802 -0.000590
0.697848 -0.002002 -0.000712
0.731297 -0.002211 -0.000801
0.764735 -0.002428 -0.000887
0.798163 -0.002655 -0.000976
0.831581 -0.002889 -0.001070
0.864988 -0.003130 -0.001168
0.898385 -0.003380 -0.001270
0.931771 -0.003638 -0.001376
0.965145 -0.003903 -0.001486
0.998509 -0.004176 -0.001600
1.031862 -0.004457 -0.001717
1.065203 -0.004744 -0.001837
0.040865 0.048934 0.040864
0.048912 0.048912 0.040837
0.071641 0.048819 0.040717
0.099850 0.048629 0.040472
0.129839 0.048323 0.040077
0.160545 0.047880 0.039504
0.194047 0.045981 0.038480
0.227764 0.043232 0.037257
0.261491 0.039403 0.035796
0.295226 0.033881 0.034018
0.328955 0.024968 0.031828
0.362661 -0.000037 0.029076
0.396318 -0.000240 0.025502
0.429871 -0.000409 0.019857
0.463370 -0.000537 0.005178
0.496874 -0.000676 -0.000081
0.530381 -0.000826 -0.000171
0.563888 -0.000987 -0.000267
0.597389 -0.001158 -0.000369
0.630879 -0.001339 -0.000477
0.664357 -0.001529 -0.000593
0.697822 -0.001728 -0.000715
0.731272 -0.001937 -0.000802
0.764712 -0.002155 -0.000888
0.798141 -0.002380 -0.000978
0.831560 -0.002614 -0.001072
0.864968 -0.002855 -0.001170
0.898366 -0.003105 -0.001272
0.931752 -0.003362 -0.001378
0.965128 -0.003628 -0.001487
0.998492 -0.003900 -0.001601
1.031845 -0.004180 -0.001718
1.065188 -0.004468 -0.001839
0.040378 0.071489 0.040379
0.048535 0.071476 0.040350
0.071421 0.071421 0.040228
0.099712 0.071310 0.039980
0.129745 0.071132 0.039577
0.160567 0.070853 0.038985
0.194196 0.069741 0.037938
0.227855 0.068266 0.036707
0.261532 0.066353 0.035228
0.295221 0.063913 0.033425
0.328908 0.060830 0.031195
0.362575 0.056945 0.028381
0.396176 0.052617 0.024501
0.429685 0.049598 0.017881
0.463199 0.045934 -0.000013
0.496716 0.041394 -0.000096
0.530233 0.035519 -0.000185
0.563750 0.027102 -0.000280
0.597259 0.005921 -0.000382
0.630757 -0.000174 -0.000490
0.664242 -0.000362 -0.000605
0.697712 -0.000560 -0.000725
0.731168 -0.000767 -0.000808
0.764613 -0.000982 -0.000894
0.798048 -0.001207 -0.000983
0.831471 -0.001439 -0.001077
0.864884 -0.001679 -0.001175
0.898285 -0.001927 -0.001277
0.931675 -0.002184 -0.001383
0.965054 -0.002448 -0.001493
0.998421 -0.002720 -0.001606
1.031778 -0.002999 -0.001723
1.065123 -0.003286 -0.001844
0.039360 0.099544 0.039364
0.047754 0.099536 0.039335
0.070971 0.099501 0.039209
0.099432 0.099432 0.038950
0.129552 0.099320 0.038532
0.160945 0.099069 0.037864
0.194478 0.098389 0.036809
0.228023 0.097507 0.035556
0.261600 0.096386 0.034038
0.295198 0.094996 0.032176
0.328800 0.093323 0.029846
0.362322 0.092226 0.026316
0.395842 0.091105 0.021359
0.429368 0.089817 0.012820
0.462898 0.088355 -0.000046
0.496431 0.086707 -0.000127
0.529963 0.084862 -0.000214
0.563494 0.082804 -0.000308
0.597016 0.080521 -0.000409
0.630526 0.077995 -0.000516
0.664021 0.075196 -0.000630
0.697502 0.072081 -0.000739
0.730968 0.068594 -0.000820
0.764423 0.064667 -0.000906
0.797866 0.060193 -0.000995
0.831298 0.054999 -0.001089
0.864718 0.048768 -0.001187
0.898127 0.040847 -0.001289
0.931523 0.029349 -0.001395
0.964909 -0.000052 -0.001504
0.998282 -0.000323 -0.001618
1.031644 -0.000600 -0.001735
1.064994 -0.000885 -0.001855
0.037641 0.129396 0.037659
0.046459 0.129391 0.037628
0.070237 0.129367 0.037494
0.098978 0.129319 0.037218
0.129241 0.129242 0.036772
0.161551 0.128986 0.035982
0.194865 0.128568 0.034887
0.228165 0.128283 0.033369
0.261525 0.127983 0.031444
0.294946 0.127601 0.029038
0.328417 0.127130 0.025943
0.361920 0.126566 0.021727
0.395441 0.125908 0.015022
0.428972 0.125153 -0.000024
0.462511 0.124299 -0.000096
0.496054 0.123343 -0.000175
0.529598 0.122283 -0.000260
0.563141 0.121118 -0.000352
0.596675 0.119849 -0.000451
0.630196 0.118472 -0.000558
0.663703 0.116986 -0.000671
0.697195 0.115385 -0.000759
0.730673 0.113668 -0.000840
0.764140 0.111832 -0.000925
0.797594 0.109872 -0.001015
0.831037 0.107778 -0.001109
0.864468 0.105541 -0.001206
0.897886 0.103147 -0.001308
0.931293 0.100585 -0.001413
0.964686 0.097841 -0.001523
0.998068 0.094896 -0.001636
1.031437 0.091726 -0.001752
1.064795 0.088304 -0.001873
0.026621 0.161569 0.033727
0.039031 0.161572 0.033686
0.066331 0.161586 0.033510
0.096556 0.161615 0.033149
0.128058 0.161629 0.032514
0.161329 0.161540 0.031461
0.194566 0.161424 0.030120
0.227846 0.161272 0.028416
0.261188 0.161075 0.026226
0.294586 0.160827 0.023327
0.328036 0.160521 0.019230
0.361521 0.160154 0.012168
0.395027 0.159725 -0.000031
0.428551 0.159230 -0.000095
0.462086 0.158668 -0.000164
0.495629 0.158039 -0.000241
0.529175 0.157340 -0.000324
0.562723 0.156570 -0.000414
0.596264 0.155730 -0.000512
0.629793 0.154822 -0.000617
0.663308 0.153845 -0.000713
0.696809 0.152799 -0.000789
0.730299 0.151686 -0.000870
0.763778 0.150506 -0.000955
0.797244 0.149255 -0.001044
0.830698 0.147932 -0.001137
0.864140 0.146536 -0.001234
0.897569 0.145066 -0.001335
0.930985 0.143520 -0.001440
0.964389 0.141897 -0.001549
0.997780 0.140194 -0.001662
1.031160 0.138409 -0.001778
1.064526 0.136541 -0.001898
-0.000194 0.194615 0.027410
0.017012 0.194616 0.027361
0.059133 0.194621 0.027153
0.093396 0.194606 0.026656
0.127389 0.194549 0.025764
0.160867 0.194475 0.024511
0.194199 0.194384 0.022806
0.227516 0.194269 0.020464
0.260861 0.194126 0.017068
0.294247 0.193949 0.011172
0.327678 0.193734 -0.000021
0.361140 0.193477 -0.000070
0.394627 0.193177 -0.000124
0.428133 0.192831 -0.000185
0.461655 0.192435 -0.000252
0.495189 0.191990 -0.000326
0.528729 0.191493 -0.000408
0.562274 0.190944 -0.000496
0.595814 0.190344 -0.000592
0.629343 0.189695 -0.000684
0.662861 0.188995 -0.000755
0.696370 0.188248 -0.000830
0.729868 0.187451 -0.000910
0.763356 0.186606 -0.000994
0.796832 0.185710 -0.001083
0.830296 0.184766 -0.001175
0.863747 0.183772 -0.001272
0.897187 0.182730 -0.001372
0.930613 0.181639 -0.001477
0.964028 0.180498 -0.001585
0.997428 0.179310 -0.001697
1.030817 0.178072 -0.001813
1.064192 0.176786 -0.001932
-0.000506 0.227653 0.015505
-0.000238 0.227648 0.015383
0.054051 0.227630 0.014852
0.091839 0.227595 0.013712
0.126467 0.227546 0.011634
0.160249 0.227482 0.007399
0.193739 0.227404 -0.000012
0.227136 0.227309 -0.000036
0.260513 0.227195 -0.000065
0.293907 0.227059 -0.000099
0.327329 0.226895 -0.000139
0.360774 0.226702 -0.000185
0.394241 0.226478 -0.000237
0.427729 0.226220 -0.000296
0.461234 0.225926 -0.000361
0.494752 0.225594 -0.000433
0.528281 0.225223 -0.000513
0.561815 0.224813 -0.000600
0.595345 0.224363 -0.000675
0.628870 0.223875 -0.000740
0.662388 0.223349 -0.000810
0.695899 0.222784 -0.000884
0.729401 0.222180 -0.000963
0.762894 0.221539 -0.001046
0.796376 0.220860 -0.001134
0.829847 0.220143 -0.001225
0.863306 0.219390 -0.001321
0.896753 0.218600 -0.001421
0.930189 0.217774 -0.001524
0.963611 0.216912 -0.001632
0.997020 0.216015 -0.001743
1.030418 0.215083 -0.001858
1.063802 0.214117 -0.001976
-0.000690 0.260690 -0.000108
-0.000421 0.260686 -0.000109
0.049372 0.260670 -0.000112
0.089821 0.260640 -0.000118
0.125274 0.260596 -0.000128
0.159454 0.260539 -0.000141
0.193164 0.260469 -0.000159
0.226680 0.260386 -0.000181
0.260121 0.260289 -0.000208
0.293545 0.260176 -0.000241
0.326972 0.260043 -0.000279
0.360410 0.259890 -0.000323
0.393865 0.259713 -0.000373
0.427336 0.259511 -0.000430
0.460823 0.259282 -0.000493
0.494325 0.259024 -0.000564
0.527837 0.258735 -0.000632
0.561356 0.258414 -0.000687
0.594876 0.258062 -0.000747
0.628393 0.257681 -0.000811
0.661907 0.257268 -0.000879
0.695416 0.256825 -0.000952
0.728917 0.256351 -0.001030
0.762410 0.255847 -0.001112
0.795894 0.255313 -0.001198
0.829368 0.254748 -0.001288
0.862832 0.254155 -0.001383
0.896284 0.253532 -0.001481
0.929726 0.252880 -0.001584
0.963154 0.252201 -0.001690
0.996571 0.251493 -0.001800
1.029975 0.250758 -0.001914
1.063367 0.249997 -0.002031
-0.000907 0.293768 -0.000283
-0.000637 0.293765 -0.000284
0.042841 0.293751 -0.000286
0.087306 0.293725 -0.000292
0.123801 0.293685 -0.000300
0.158474 0.293633 -0.000313
0.192455 0.293569 -0.000329
0.226129 0.293494 -0.000350
0.259665 0.293407 -0.000376
0.293141 0.293308 -0.000406
0.326591 0.293194 -0.000443
0.360035 0.293064 -0.000485
0.393485 0.292917 -0.000534
0.426946 0.292750 -0.000588
0.460419 0.292561 -0.000631
0.493904 0.292351 -0.000675
0.527403 0.292116 -0.000723
0.560909 0.291857 -0.000777
0.594417 0.291574 -0.000834
0.627925 0.291266 -0.000897
0.661430 0.290934 -0.000964
0.694931 0.290577 -0.001035
0.728428 0.290194 -0.001111
0.761918 0.289787 -0.001191
0.795400 0.289355 -0.001276
0.828874 0.288899 -0.001365
0.862338 0.288418 -0.001458
0.895793 0.287913 -0.001555
0.929236 0.287385 -0.001656
0.962669 0.286833 -0.001761
0.996090 0.286259 -0.001870
1.029500 0.285662 -0.001982
1.062896 0.285043 -0.002098
-0.001153 0.326865 -0.000482
-0.000881 0.326862 -0.000482
0.033090 0.326850 -0.000485
0.084291 0.326826 -0.000490
0.122062 0.326790 -0.000498
0.157311 0.326742 -0.000509
0.191614 0.326683 -0.000524
0.225483 0.326613 -0.000544
0.259140 0.326533 -0.000568
0.292686 0.326442 -0.000594
0.326173 0.326340 -0.000617
0.359635 0.326225 -0.000641
0.393091 0.326097 -0.000671
0.426549 0.325954 -0.000704
0.460016 0.325794 -0.000742
0.493494 0.325617 -0.000784
0.526982 0.325421 -0.000831
0.560476 0.325206 -0.000882
0.593971 0.324972 -0.000938
0.627467 0.324718 -0.000998
0.660962 0.324443 -0.001063
0.694454 0.324148 -0.001133
0.727943 0.323833 -0.001207
0.761426 0.323496 -0.001286
0.794903 0.323139 -0.001368
0.828374 0.322762 -0.001455
0.861836 0.322364 -0.001547
0.895289 0.321947 -0.001642
0.928732 0.321509 -0.001742
0.962165 0.321052 -0.001845
0.995589 0.320575 -0.001952
1.029001 0.320080 -0.002063
1.062401 0.319566 -0.002178
-0.001427 0.359969 -0.000665
-0.001155 0.359966 -0.000665
0.008338 0.359955 -0.000667
0.080681 0.359933 -0.000669
0.120023 0.359900 -0.000673
0.155947 0.359856 -0.000679
0.190624 0.359801 -0.000687
0.224724 0.359736 -0.000698
0.258524 0.359661 -0.000712
0.292160 0.359577 -0.000728
0.325706 0.359484 -0.000749
0.359204 0.359381 -0.000772
0.392679 0.359267 -0.000800
0.426147 0.359141 -0.000832
0.459616 0.359002 -0.000868
0.493089 0.358849 -0.000909
0.526570 0.358681 -0.000954
0.560053 0.358498 -0.001004
0.593537 0.358299 -0.001058
0.627021 0.358084 -0.001116
0.660504 0.357852 -0.001179
0.693986 0.357603 -0.001247
0.727465 0.357337 -0.001319
0.760940 0.357054 -0.001395
0.794410 0.356754 -0.001476
0.827874 0.356436 -0.001561
0.861331 0.356101 -0.001651
0.894781 0.355750 -0.001744
0.928222 0.355381 -0.001842
0.961653 0.354995 -0.001943
0.995076 0.354593 -0.002049
1.028488 0.354175 -0.002158
1.061889 0.353741 -0.002271
-0.001731 0.393080 -0.000816
-0.001459 0.393078 -0.000816
-0.000290 0.393068 -0.000818
0.076354 0.393048 -0.000820
0.117670 0.393018 -0.000824
0.154387 0.392977 -0.000830
0.189495 0.392926 -0.000838
0.223857 0.392865 -0.000848
0.257825 0.392796 -0.000861
0.291572 0.392718 -0.000877
0.325192 0.392632 -0.000897
0.358740 0.392537 -0.000920
0.392246 0.392434 -0.000946
0.425732 0.392320 -0.000977
0.459209 0.392196 -0.001012
0.492685 0.392060 -0.001050
0.526162 0.391913 -0.001094
0.559637 0.391753 -0.001142
0.593111 0.391580 -0.001194
0.626584 0.391394 -0.001250
0.660057 0.391194 -0.001311
0.693528 0.390981 -0.001377
0.726996 0.390753 -0.001447
0.760462 0.390510 -0.001521
0.793923 0.390253 -0.001600
0.827379 0.389981 -0.001683
0.860830 0.389695 -0.001770
0.894273 0.389394 -0.001861
0.927709 0.389078 -0.001957
0.961138 0.388748 -0.002056
0.994557 0.388403 -0.002160
1.027968 0.388044 -0.002267
1.061369 0.387669 -0.002379
-0.002062 0.426199 -0.000983
-0.001788 0.426197 -0.000983
-0.000617 0.426188 -0.000984
0.071211 0.426170 -0.000987
0.115019 0.426142 -0.000991
0.152640 0.426105 -0.000996
0.188226 0.426057 -0.001004
0.222878 0.426001 -0.001014
0.257038 0.425936 -0.001027
0.290916 0.425863 -0.001042
0.324627 0.425783 -0.001061
0.358236 0.425695 -0.001083
0.391784 0.425599 -0.001108
0.425297 0.425494 -0.001137
0.458791 0.425381 -0.001171
0.492274 0.425258 -0.001208
0.525751 0.425126 -0.001250
0.559222 0.424984 -0.001296
0.592689 0.424831 -0.001346
0.626154 0.424667 -0.001400
0.659617 0.424492 -0.001459
0.693078 0.424305 -0.001523
0.726537 0.424106 -0.001590
0.759992 0.423894 -0.001662
0.793444 0.423671 -0.001739
0.826892 0.423434 -0.001819
0.860334 0.423185 -0.001904
0.893772 0.422923 -0.001993
0.927201 0.422648 -0.002087
0.960624 0.422359 -0.002184
0.994039 0.422058 -0.002285
1.027446 0.421745 -0.002391
1.060844 0.421418 -0.002500
-0.002417 0.459324 -0.001165
-0.002143 0.459322 -0.001165
-0.000970 0.459314 -0.001166
0.064966 0.459298 -0.001169
0.112017 0.459272 -0.001173
0.150682 0.459237 -0.001178
0.186806 0.459193 -0.001186
0.221786 0.459141 -0.001195
0.256162 0.459080 -0.001207
0.290189 0.459011 -0.001222
0.324004 0.458935 -0.001240
0.357688 0.458853 -0.001261
0.391288 0.458763 -0.001286
0.424837 0.458666 -0.001314
0.458354 0.458561 -0.001346
0.491852 0.458448 -0.001381
0.525333 0.458328 -0.001421
0.558804 0.458198 -0.001465
0.592268 0.458060 -0.001514
0.625727 0.457913 -0.001566
0.659183 0.457756 -0.001623
0.692635 0.457589 -0.001684
0.726085 0.457411 -0.001749
0.759531 0.457223 -0.001819
0.792974 0.457025 -0.001893
0.826413 0.456815 -0.001971
0.859847 0.456594 -0.002054
0.893277 0.456362 -0.002140
0.926699 0.456118 -0.002231
0.960116 0.455864 -0.002326
0.993526 0.455598 -0.002425
1.026928 0.455321 -0.002528
1.060322 0.455033 -0.002635
-0.002800 0.492452 -0.001362
-0.002526 0.492450 -0.001362
-0.001351 0.492443 -0.001363
0.057082 0.492428 -0.001366
0.108623 0.492404 -0.001369
0.148507 0.492372 -0.001375
0.185236 0.492331 -0.001382
0.220580 0.492281 -0.001391
0.255196 0.492224 -0.001403
0.289390 0.492159 -0.001417
0.323324 0.492087 -0.001434
0.357094 0.492008 -0.001454
0.390756 0.491923 -0.001478
0.424350 0.491831 -0.001505
0.457898 0.491732 -0.001535
0.491414 0.491627 -0.001570
0.524906 0.491514 -0.001608
0.558381 0.491395 -0.001650
0.591846 0.491267 -0.001696
0.625302 0.491132 -0.001747
0.658753 0.490989 -0.001801
0.692199 0.490837 -0.001860
0.725641 0.490676 -0.001923
0.759079 0.490507 -0.001991
0.792513 0.490327 -0.002062
0.825944 0.490139 -0.002138
0.859370 0.489940 -0.002218
0.892791 0.489732 -0.002302
0.926207 0.489515 -0.002391
0.959616 0.489287 -0.002483
0.993019 0.489049 -0.002580
1.026414 0.488802 -0.002680
1.059802 0.488544 -0.002785
-0.003208 0.525573 -0.001572
-0.002933 0.525572 -0.001573
-0.001756 0.525565 -0.001574
0.046528 0.525551 -0.001576
0.104829 0.525529 -0.001579
0.146128 0.525499 -0.001585
0.183530 0.525460 -0.001592
0.219273 0.525414 -0.001601
0.254151 0.525359 -0.001612
0.288527 0.525297 -0.001626
0.322593 0.525229 -0.001642
0.356458 0.525154 -0.001661
0.390192 0.525072 -0.001684
0.423837 0.524985 -0.001710
0.457421 0.524891 -0.001739
0.490960 0.524791 -0.001772
0.524467 0.524685 -0.001808
0.557951 0.524573 -0.001849
0.591420 0.524454 -0.001893
0.624877 0.524329 -0.001942
0.658325 0.524196 -0.001994
0.691767 0.524056 -0.002051
0.725203 0.523908 -0.002112
0.758634 0.523753 -0.002177
0.792060 0.523590 -0.002246
0.825483 0.523418 -0.002319
0.858900 0.523238 -0.002397
0.892313 0.523049 -0.002479
0.925720 0.522852 -0.002565
0.959123 0.522646 -0.002655
0.992518 0.522431 -0.002748
1.025908 0.522207 -0.002846
1.059290 0.521975 -0.002948
-0.003637 0.558687 -0.001795
-0.003362 0.558685 -0.001796
-0.002184 0.558679 -0.001797
0.029328 0.558666 -0.001799
0.100591 0.558645 -0.001802
0.143544 0.558617 -0.001807
0.181692 0.558581 -0.001814
0.217868 0.558536 -0.001823
0.253029 0.558485 -0.001834
0.287603 0.558426 -0.001847
0.321811 0.558360 -0.001863
0.355781 0.558289 -0.001881
0.389593 0.558211 -0.001903
0.423296 0.558127 -0.001928
0.456920 0.558037 -0.001956
0.490488 0.557942 -0.001987
0.524014 0.557842 -0.002022
0.557512 0.557735 -0.002061
0.590988 0.557623 -0.002104
0.624448 0.557506 -0.002151
0.657897 0.557381 -0.002201
0.691336 0.557251 -0.002256
0.724768 0.557114 -0.002314
0.758193 0.556970 -0.002377
0.791614 0.556819 -0.002444
0.825029 0.556661 -0.002515
0.858439 0.556495 -0.002590
0.891844 0.556322 -0.002669
0.925244 0.556142 -0.002753
0.958638 0.555953 -0.002840
0.992026 0.555757 -0.002931
1.025409 0.555553 -0.003026
1.058784 0.555342 -0.003126
-0.004088 0.591791 -0.002031
-0.003812 0.591789 -0.002031
-0.002632 0.591783 -0.002032
-0.000236 0.591771 -0.002035
0.095847 0.591752 -0.002038
0.140750 0.591725 -0.002043
0.179723 0.591691 -0.002049
0.216369 0.591649 -0.002058
0.251834 0.591600 -0.002069
0.286619 0.591544 -0.002081
0.320980 0.591481 -0.002097
0.355064 0.591412 -0.002114
0.388961 0.591337 -0.002135
0.422725 0.591257 -0.002159
0.456394 0.591171 -0.002186
0.489995 0.591080 -0.002216
0.523546 0.590984 -0.002250
0.557061 0.590882 -0.002287
0.590548 0.590776 -0.002328
0.624015 0.590664 -0.002373
0.657466 0.590547 -0.002422
0.690905 0.590424 -0.002474
0.724335 0.590295 -0.002531
0.757757 0.590161 -0.002591
0.791172 0.590020 -0.002656
0.824581 0.589873 -0.002725
0.857984 0.589719 -0.002797
0.891381 0.589559 -0.002874
0.924774 0.589392 -0.002954
0.958161 0.589218 -0.003039
0.991542 0.589038 -0.003128
1.024917 0.588850 -0.003220
1.058286 0.588656 -0.003317
-0.004557 0.624884 -0.002279
-0.004281 0.624883 -0.002280
-0.003100 0.624877 -0.002281
-0.000702 0.624866 -0.002283
0.090509 0.624848 -0.002286
0.137740 0.624823 -0.002291
0.177627 0.624791 -0.002297
0.214779 0.624751 -0.002305
0.250569 0.624704 -0.002316
0.285579 0.624650 -0.002328
0.320102 0.624590 -0.002343
0.354307 0.624524 -0.002360
0.388292 0.624452 -0.002380
0.422123 0.624375 -0.002403
0.455843 0.624292 -0.002429
0.489481 0.624205 -0.002458
0.523061 0.624112 -0.002490
0.556596 0.624015 -0.002526
0.590098 0.623914 -0.002566
0.623574 0.623807 -0.002609
0.657031 0.623695 -0.002655
0.690473 0.623579 -0.002706
0.723902 0.623457 -0.002760
0.757322 0.623330 -0.002819
0.790733 0.623197 -0.002881
0.824137 0.623059 -0.002947
0.857534 0.622915 -0.003017
0.890926 0.622765 -0.003091
0.924311 0.622610 -0.003170
0.957691 0.622448 -0.003252
0.991066 0.622280 -0.003338
1.024434 0.622106 -0.003429
1.057795 0.621926 -0.003523
-0.005044 0.657968 -0.002539
-0.004768 0.657966 -0.002540
-0.003586 0.657961 -0.002541
-0.001185 0.657950 -0.002543
0.084454 0.657933 -0.002546
0.134507 0.657910 -0.002550
0.175404 0.657879 -0.002557
0.213103 0.657841 -0.002565
0.249238 0.657797 -0.002575
0.284485 0.657745 -0.002587
0.319178 0.657688 -0.002601
0.353508 0.657624 -0.002617
0.387586 0.657555 -0.002637
0.421489 0.657480 -0.002659
0.455264 0.657401 -0.002684
0.488945 0.657316 -0.002712
0.522557 0.657227 -0.002743
0.556117 0.657134 -0.002777
0.589636 0.657036 -0.002815
0.623125 0.656934 -0.002856
0.656590 0.656827 -0.002901
0.690036 0.656715 -0.002950
0.723468 0.656599 -0.003002
0.756887 0.656478 -0.003059
0.790296 0.656353 -0.003119
0.823696 0.656222 -0.003183
0.857089 0.656086 -0.003251
0.890475 0.655945 -0.003323
0.923855 0.655799 -0.003399
0.957228 0.655647 -0.003479
0.990595 0.655490 -0.003563
1.023956 0.655327 -0.003650
1.057311 0.655159 -0.003742
-0.005547 0.691039 -0.002810
-0.005270 0.691038 -0.002811
-0.004087 0.691033 -0.002812
-0.001685 0.691023 -0.002814
0.077466 0.691007 -0.002817
0.131040 0.690985 -0.002821
0.173057 0.690955 -0.002827
0.211343 0.690920 -0.002835
0.247841 0.690877 -0.002845
0.283335 0.690828 -0.002856
0.318204 0.690773 -0.002870
0.352665 0.690712 -0.002886
0.386844 0.690645 -0.002905
0.420824 0.690573 -0.002926
0.454658 0.690496 -0.002950
0.488386 0.690415 -0.002977
0.522034 0.690329 -0.003007
0.555622 0.690238 -0.003040
0.589162 0.690144 -0.003076
0.622666 0.690046 -0.003116
0.656142 0.689943 -0.003159
0.689595 0.689835 -0.003206
0.723030 0.689724 -0.003257
0.756450 0.689609 -0.003311
0.789859 0.689488 -0.003370
0.823258 0.689364 -0.003432
0.856647 0.689235 -0.003498
0.890029 0.689101 -0.003567
0.923403 0.688962 -0.003641
0.956770 0.688819 -0.003719
0.990131 0.688671 -0.003800
1.023486 0.688518 -0.003886
1.056834 0.688359 -0.003975
-0.006063 0.724099 -0.003092
-0.005787 0.724098 -0.003092
-0.004603 0.724094 -0.003093
-0.002199 0.724084 -0.003095
0.069211 0.724069 -0.003098
0.127322 0.724048 -0.003103
0.170583 0.724020 -0.003109
0.209491 0.723986 -0.003116
0.246372 0.723945 -0.003126
0.282125 0.723898 -0.003137
0.317181 0.723845 -0.003150
0.351780 0.723787 -0.003166
0.386065 0.723722 -0.003184
0.420127 0.723653 -0.003204
0.454026 0.723579 -0.003227
0.487804 0.723500 -0.003253
0.521492 0.723417 -0.003282
0.555110 0.723329 -0.003314
0.588674 0.723238 -0.003349
0.622196 0.723143 -0.003388
0.655685 0.723043 -0.003430
0.689146 0.722940 -0.003475
0.722588 0.722833 -0.003524
0.756012 0.722722 -0.003577
0.789422 0.722606 -0.003633
0.822820 0.722487 -0.003693
0.856207 0.722364 -0.003757
0.889585 0.722236 -0.003825
0.922955 0.722104 -0.003896
0.956317 0.721968 -0.003972
0.989673 0.721827 -0.004051
1.023022 0.721682 -0.004134
1.056363 0.721532 -0.004221
-0.006596 0.757148 -0.003385
-0.006319 0.757147 -0.003385
-0.005135 0.757143 -0.003387
-0.002729 0.757133 -0.003388
0.058885 0.757119 -0.003391
0.123306 0.757099 -0.003396
0.167957 0.757072 -0.003401
0.207541 0.757040 -0.003409
0.244830 0.757001 -0.003418
0.280857 0.756956 -0.003429
0.316109 0.756905 -0.003442
0.350854 0.756849 -0.003457
0.385251 0.756787 -0.003474
0.419400 0.756720 -0.003494
0.453367 0.756648 -0.003517
0.487200 0.756572 -0.003542
0.520930 0.756492 -0.003570
0.554581 0.756407 -0.003601
0.588172 0.756318 -0.003635
0.621714 0.756225 -0.003672
0.655218 0.756129 -0.003712
0.688692 0.756029 -0.003756
0.722141 0.755925 -0.003804
0.755570 0.755818 -0.003855
0.788982 0.755707 -0.003909
0.822381 0.755592 -0.003967
0.855768 0.755473 -0.004029
0.889144 0.755351 -0.004095
0.922510 0.755225 -0.004164
0.955868 0.755094 -0.004237
0.989219 0.754960 -0.004314
1.022562 0.754821 -0.004395
1.055898 0.754679 -0.004479
-0.007145 0.790185 -0.003690
-0.006868 0.790183 -0.003690
-0.005683 0.790179 -0.003691
-0.003277 0.790171 -0.003692
0.044498 0.790157 -0.003695
0.118945 0.790138 -0.003700
0.165179 0.790113 -0.003705
0.205494 0.790081 -0.003712
0.243217 0.790044 -0.003721
0.279531 0.790002 -0.003732
0.314989 0.789953 -0.003744
0.349888 0.789899 -0.003759
0.384402 0.789839 -0.003776
0.418643 0.789774 -0.003795
0.452682 0.789704 -0.003817
0.486572 0.789631 -0.003841
0.520348 0.789552 -0.003868
0.554035 0.789470 -0.003898
0.587656 0.789384 -0.003931
0.621221 0.789293 -0.003967
0.654743 0.789200 -0.004007
0.688229 0.789103 -0.004049
0.721688 0.789003 -0.004095
0.755124 0.788899 -0.004144
0.788541 0.788791 -0.004197
0.821940 0.788680 -0.004253
0.855328 0.788565 -0.004313
0.888703 0.788448 -0.004377
0.922067 0.788326 -0.004444
0.955421 0.788201 -0.004515
0.988768 0.788072 -0.004590
1.022107 0.787940 -0.004668
1.055439 0.787803 -0.004750
-0.007711 0.823209 -0.004004
-0.007434 0.823208 -0.004005
-0.006249 0.823204 -0.004005
-0.003842 0.823196 -0.004007
0.007151 0.823182 -0.004010
0.114202 0.823164 -0.004014
0.162239 0.823140 -0.004020
0.203346 0.823111 -0.004027
0.241530 0.823076 -0.004035
0.278150 0.823034 -0.004046
0.313824 0.822987 -0.004058
0.348882 0.822935 -0.004072
0.383519 0.822878 -0.004089
0.417856 0.822814 -0.004107
0.451971 0.822748 -0.004128
0.485922 0.822676 -0.004152
0.519747 0.822600 -0.004178
0.553473 0.822520 -0.004207
0.587125 0.822436 -0.004239
0.620714 0.822349 -0.004274
0.654255 0.822258 -0.004312
0.687758 0.822163 -0.004353
0.721228 0.822065 -0.004397
